;FLAVOR:UltiGCode
;TIME:4360
;MATERIAL:8326
;MATERIAL2:0
;NOZZLE_DIAMETER:0.4
;MINX:34.889
;MINY:24.466
;MINZ:0.3
;MAXX:85.118
;MAXY:95.528
;MAXZ:26.4
;Generated with Cura_SteamEngine 4.7.1
M82 ;absolute extrusion mode
G0 F3000 Y50 ;avoid prime blob
G92 E0
G92 E0
G10
;LAYER_COUNT:175
;LAYER:0
M107
G0 F3600 X43.051 Y38.899 Z0.3
;TYPE:SKIRT
G11
G1 F1800 X43.464 Y38.557 E0.06435
G1 X44.005 Y38.239 E0.13965
G1 X44.958 Y37.786 E0.26627
G1 X47.404 Y36.581 E0.59348
G1 X49.799 Y35.314 E0.91862
G1 X52.2 Y33.958 E1.24951
G1 X54.524 Y32.556 E1.57521
G1 X56.817 Y31.083 E1.90225
G1 X59.051 Y29.557 E2.2269
G1 X61.271 Y27.948 E2.55592
G1 X63.123 Y26.503 E2.8378
G1 X64.171 Y25.698 E2.99638
G1 X64.619 Y25.404 E3.06068
G1 X65.107 Y25.18 E3.12512
G1 X65.622 Y25.03 E3.18948
G1 X66.149 Y24.959 E3.25329
G1 X66.672 Y24.931 E3.31614
G1 X80.249 Y24.489 E4.94625
G1 X81.259 Y24.466 E5.06748
G1 X81.795 Y24.494 E5.13189
G1 X82.32 Y24.601 E5.19618
G1 X82.824 Y24.785 E5.26057
G1 X83.295 Y25.041 E5.3249
G1 X83.722 Y25.365 E5.38922
G1 X84.097 Y25.749 E5.45362
G1 X84.41 Y26.184 E5.51793
G1 X84.656 Y26.661 E5.58234
G1 X84.828 Y27.169 E5.6467
G1 X84.937 Y27.893 E5.73456
G1 X84.973 Y28.659 E5.82658
G1 X85.105 Y32.72 E6.31415
G1 X85.118 Y33.434 E6.39985
G1 X85.088 Y33.97 E6.46427
G1 X84.979 Y34.495 E6.52861
G1 X84.793 Y34.998 E6.59297
G1 X84.534 Y35.468 E6.65736
G1 X84.208 Y35.894 E6.72173
G1 X84.021 Y36.089 E6.75416
G1 X83.334 Y36.753 E6.86881
G1 X81.396 Y38.681 E7.19685
G1 X79.52 Y40.657 E7.52381
G1 X77.718 Y42.664 E7.84749
G1 X75.938 Y44.766 E8.17802
G1 X74.235 Y46.895 E8.50517
G1 X72.598 Y49.063 E8.83117
G1 X71.016 Y51.287 E9.15868
G1 X69.496 Y53.56 E9.48681
G1 X68.047 Y55.863 E9.81332
G1 X66.665 Y58.205 E10.13964
G1 X65.346 Y60.588 E10.46648
G1 X64.085 Y63.03 E10.79629
G1 X62.906 Y65.48 E11.12256
G1 X61.796 Y67.965 E11.44915
G1 X60.755 Y70.484 E11.77623
G1 X59.798 Y72.995 E12.09869
G1 X58.889 Y75.606 E12.43046
G1 X58.064 Y78.208 E12.75802
G1 X57.31 Y80.841 E13.08668
G1 X56.635 Y83.481 E13.41367
G1 X56.042 Y86.105 E13.73649
G1 X55.349 Y89.726 E14.17889
G1 X55.209 Y90.243 E14.24317
G1 X54.994 Y90.735 E14.3076
G1 X54.708 Y91.189 E14.37199
G1 X54.358 Y91.595 E14.43631
G1 X53.77 Y92.07 E14.52702
G1 X52.885 Y92.643 E14.65354
G1 X49.672 Y94.641 E15.10756
G1 X49.05 Y95.016 E15.19472
G1 X48.571 Y95.258 E15.25912
G1 X48.062 Y95.426 E15.32344
G1 X47.533 Y95.517 E15.38785
G1 X46.997 Y95.528 E15.45218
G1 X46.465 Y95.459 E15.51656
G1 X45.95 Y95.312 E15.58083
G1 X45.461 Y95.09 E15.64527
G1 X45.011 Y94.798 E15.70964
G1 X44.61 Y94.443 E15.77391
G1 X44.189 Y93.92 E15.85448
G1 X43.941 Y93.543 E15.90863
G1 X36.561 Y81.668 E17.5864
G1 X36.194 Y81.057 E17.67193
G1 X35.953 Y80.578 E17.73628
G1 X35.785 Y80.068 E17.80071
G1 X35.696 Y79.539 E17.86508
G1 X35.693 Y78.886 E17.94344
G1 X35.771 Y77.91 E18.06094
G1 X35.954 Y75.136 E18.39454
G1 X36.055 Y72.442 E18.71805
G1 X36.081 Y69.675 E19.0501
G1 X36.029 Y66.982 E19.37332
G1 X35.9 Y64.254 E19.70105
G1 X35.69 Y61.495 E20.03309
G1 X35.413 Y58.839 E20.35353
G1 X35.101 Y56.614 E20.62315
G1 X35.099 Y56.582 E20.62699
G1 X34.915 Y55.204 E20.79382
G1 X34.889 Y54.937 E20.82601
G1 X34.896 Y54.4 E20.89046
G1 X34.982 Y53.871 E20.95477
G1 X35.145 Y53.36 E21.01914
G1 X35.414 Y52.796 E21.09412
G1 X35.463 Y52.7 E21.10705
G1 X42.047 Y40.387 E22.78259
G1 X42.401 Y39.748 E22.87025
G1 X42.694 Y39.299 E22.93458
G1 X43.051 Y38.899 E22.99892
G0 F3600 X43.371 Y39.147
G1 F1800 X43.767 Y38.833 E23.05957
G1 X44.177 Y38.6 E23.11616
G1 X45.13 Y38.147 E23.24278
G1 X47.562 Y36.949 E23.56811
G1 X50.016 Y35.651 E23.90124
G1 X52.387 Y34.312 E24.228
G1 X54.725 Y32.901 E24.55569
G1 X57.054 Y31.406 E24.8878
G1 X59.29 Y29.878 E25.21278
G1 X61.499 Y28.277 E25.54016
G1 X63.367 Y26.82 E25.82445
G1 X64.415 Y26.015 E25.98302
G1 X64.839 Y25.74 E26.04367
G1 X65.301 Y25.535 E26.10432
G1 X65.789 Y25.405 E26.16492
G1 X66.508 Y25.339 E26.25157
G1 X66.685 Y25.331 E26.27283
G1 X80.258 Y24.889 E27.90245
G1 X81.268 Y24.866 E28.02368
G1 X81.773 Y24.894 E28.08438
G1 X82.267 Y25.002 E28.14506
G1 X82.738 Y25.186 E28.20574
G1 X83.174 Y25.442 E28.26641
G1 X83.564 Y25.763 E28.32702
G1 X83.899 Y26.142 E28.38772
G1 X84.17 Y26.569 E28.44841
G1 X84.37 Y27.033 E28.50904
G1 X84.495 Y27.523 E28.56973
G1 X84.537 Y27.912 E28.61668
G1 X84.573 Y28.672 E28.70798
G1 X84.705 Y32.728 E29.19496
G1 X84.718 Y33.442 E29.28065
G1 X84.688 Y33.946 E29.34124
G1 X84.578 Y34.44 E29.40197
G1 X84.392 Y34.91 E29.46263
G1 X84.134 Y35.345 E29.52332
G1 X83.743 Y35.801 E29.5954
G1 X83.056 Y36.465 E29.71005
G1 X81.124 Y38.387 E30.03708
G1 X79.233 Y40.378 E30.36658
G1 X77.4 Y42.421 E30.69596
G1 X75.636 Y44.503 E31.02341
G1 X73.919 Y46.65 E31.35331
G1 X72.269 Y48.836 E31.68197
G1 X70.685 Y51.063 E32.00991
G1 X69.174 Y53.321 E32.33594
G1 X67.707 Y55.653 E32.66655
G1 X66.304 Y58.029 E32.99766
G1 X64.984 Y60.416 E33.32498
G1 X63.741 Y62.823 E33.65006
G1 X62.545 Y65.308 E33.981
G1 X61.419 Y67.828 E34.31222
G1 X60.387 Y70.325 E34.63644
G1 X59.419 Y72.866 E34.96274
G1 X59.415 Y72.881 E34.9646
G1 X58.502 Y75.501 E35.29754
G1 X57.684 Y78.082 E35.62245
G1 X56.923 Y80.737 E35.95388
G1 X56.251 Y83.365 E36.27938
G1 X55.647 Y86.037 E36.60811
G1 X54.956 Y89.65 E37.04953
G1 X54.822 Y90.138 E37.11026
G1 X54.613 Y90.598 E37.17089
G1 X54.334 Y91.02 E37.2316
G1 X53.992 Y91.392 E37.29223
G1 X53.553 Y91.735 E37.35909
G1 X52.724 Y92.272 E37.47762
G1 X49.465 Y94.298 E37.9381
G1 X48.843 Y94.673 E38.02526
G1 X48.391 Y94.899 E38.0859
G1 X47.909 Y95.051 E38.14655
G1 X47.409 Y95.126 E38.20722
G1 X46.903 Y95.12 E38.26795
G1 X46.405 Y95.035 E38.32857
G1 X45.926 Y94.872 E38.38929
G1 X45.479 Y94.636 E38.44994
G1 X45.074 Y94.333 E38.51064
G1 X44.723 Y93.97 E38.57123
G1 X44.331 Y93.41 E38.65326
G1 X44.281 Y93.332 E38.66438
G1 X36.904 Y81.462 E40.34145
G1 X36.537 Y80.851 E40.42698
G1 X36.312 Y80.398 E40.48768
G1 X36.16 Y79.916 E40.54832
G1 X36.087 Y79.415 E40.60908
G1 X36.091 Y78.918 E40.66872
G1 X36.173 Y77.898 E40.79152
G1 X36.352 Y75.179 E41.1185
G1 X36.455 Y72.425 E41.44921
G1 X36.481 Y69.671 E41.77971
G1 X36.429 Y66.955 E42.10569
G1 X36.3 Y64.238 E42.43209
G1 X36.092 Y61.498 E42.76184
G1 X35.807 Y58.767 E43.09134
G1 X35.497 Y56.558 E43.35902
G1 X35.496 Y56.537 E43.36154
G1 X35.311 Y55.151 E43.52934
G1 X35.288 Y54.912 E43.55815
G1 X35.297 Y54.406 E43.61888
G1 X35.385 Y53.908 E43.67956
G1 X35.616 Y53.288 E43.75896
G1 X35.816 Y52.889 E43.81252
G1 X42.4 Y40.576 E45.48805
G1 X42.751 Y39.942 E45.57501
G1 X43.029 Y39.52 E45.63565
G1 X43.371 Y39.147 E45.69638
G10
;MESH:end_holder_3.stl
G0 F3600 X44.667 Y41.711
G0 X45.795 Y42.313
G0 X45.123 Y47.815
G0 X45.141 Y47.913
;TYPE:WALL-INNER
G11
G1 F1800 X44.563 Y48.115 E45.76985
G1 X44.066 Y48.473 E45.84336
G1 X43.694 Y48.961 E45.91699
G1 X43.477 Y49.534 E45.99052
G1 X43.435 Y50.146 E46.06413
G1 X43.571 Y50.744 E46.13772
G1 X43.874 Y51.278 E46.2114
G1 X44.317 Y51.701 E46.2849
G1 X44.864 Y51.979 E46.35853
G1 X45.469 Y52.087 E46.43228
G1 X46.077 Y52.017 E46.50572
G1 X46.64 Y51.774 E46.5793
G1 X47.11 Y51.379 E46.65298
G1 X47.446 Y50.867 E46.72647
G1 X47.614 Y50.299 E46.79754
G1 X47.637 Y49.948 E46.83976
G1 X47.548 Y49.366 E46.91041
G1 X47.285 Y48.811 E46.98411
G1 X46.873 Y48.357 E47.05768
G1 X46.348 Y48.041 E47.13121
G1 X45.756 Y47.888 E47.20458
G1 X45.141 Y47.913 E47.27844
G0 F3600 X45.123 Y47.815
G0 X44.039 Y48.445
G0 X43.535 Y49.272
G0 X41.684 Y56.632
G0 X41.588 Y56.656
G1 F1800 X41.364 Y56.076 E47.35305
G1 X41.012 Y55.568 E47.42722
G1 X40.568 Y55.171 E47.49869
G1 X40.305 Y55.009 E47.53576
G1 X39.459 Y54.558 E47.6508
G1 X39.283 Y54.464 E47.67474
G1 X39.377 Y54.288 E47.69021
G1 X45.79 Y42.294 E49.32231
G1 X46.831 Y42.85 E49.46393
G1 X47.376 Y43.062 E49.5341
G1 X47.991 Y43.143 E49.60854
G1 X48.607 Y43.077 E49.68288
G1 X49.189 Y42.866 E49.75717
G1 X49.69 Y42.538 E49.82903
G1 X49.915 Y42.319 E49.86671
G1 X50.616 Y41.591 E49.98798
G1 X51.345 Y40.877 E50.11043
G1 X52.081 Y40.194 E50.23092
G1 X52.846 Y39.527 E50.35271
G1 X53.621 Y38.889 E50.47317
G1 X54.422 Y38.27 E50.59465
G1 X55.241 Y37.673 E50.71627
G1 X56.075 Y37.103 E50.83749
G1 X56.926 Y36.557 E50.95882
G1 X57.782 Y36.043 E51.07864
G1 X58.651 Y35.555 E51.19824
G1 X59.553 Y35.081 E51.32051
G1 X60.473 Y34.633 E51.4433
G1 X61.376 Y34.224 E51.56226
G1 X62.308 Y33.837 E51.68336
G1 X63.266 Y33.47 E51.80647
G1 X64.214 Y33.14 E51.92692
G1 X65.208 Y32.823 E52.05212
G1 X65.739 Y32.591 E52.12166
G1 X66.232 Y32.214 E52.19613
G1 X66.622 Y31.732 E52.27054
G1 X66.888 Y31.172 E52.34493
G1 X67.008 Y30.588 E52.41647
G1 X67.016 Y30.28 E52.45345
G1 X66.979 Y29.124 E52.59224
G1 X80.573 Y28.681 E54.22438
G1 X80.772 Y28.675 E54.24828
G1 X80.778 Y28.874 E54.26373
G1 X80.92 Y33.239 E54.78781
G1 X78.472 Y35.371 E55.17736
G1 X77.732 Y35.294 E55.26664
G1 X76.73 Y35.224 E55.38717
G1 X75.724 Y35.186 E55.50798
G1 X74.73 Y35.18 E55.62726
G1 X73.681 Y35.208 E55.75318
G1 X73.659 Y35.213 E55.75589
G1 X72.72 Y35.269 E55.86877
G1 X71.707 Y35.364 E55.99087
G1 X70.71 Y35.491 E56.11147
G1 X69.727 Y35.649 E56.23095
G1 X68.729 Y35.844 E56.35297
G1 X67.748 Y36.069 E56.47375
G1 X66.787 Y36.322 E56.593
G1 X65.812 Y36.615 E56.71517
G1 X64.859 Y36.934 E56.83576
G1 X63.913 Y37.289 E56.95701
G1 X62.987 Y37.668 E57.07708
G1 X62.069 Y38.081 E57.19787
G1 X61.167 Y38.524 E57.31846
G1 X60.277 Y38.996 E57.43935
G1 X59.402 Y39.498 E57.56041
G1 X58.549 Y40.026 E57.68079
G1 X57.711 Y40.582 E57.80147
G1 X56.893 Y41.166 E57.92208
G1 X56.096 Y41.777 E58.04259
G1 X55.322 Y42.41 E58.16258
G1 X54.559 Y43.077 E58.28419
G1 X53.824 Y43.763 E58.40484
G1 X53.112 Y44.474 E58.52558
G1 X52.424 Y45.207 E58.64622
G1 X51.759 Y45.962 E58.76695
G1 X51.12 Y46.74 E58.88777
G1 X50.508 Y47.538 E59.00844
G1 X49.922 Y48.355 E59.1291
G1 X49.363 Y49.192 E59.24988
G1 X48.831 Y50.045 E59.37051
G1 X48.328 Y50.917 E59.49131
G1 X47.854 Y51.803 E59.61189
G1 X47.409 Y52.706 E59.7327
G1 X46.994 Y53.622 E59.85337
G1 X46.611 Y54.552 E59.97406
G1 X46.257 Y55.493 E60.09471
G1 X45.934 Y56.446 E60.21546
G1 X45.644 Y57.409 E60.33615
G1 X45.385 Y58.381 E60.45686
G1 X45.157 Y59.36 E60.57748
G1 X44.962 Y60.348 E60.69833
G1 X44.8 Y61.342 E60.81918
G1 X44.67 Y62.337 E60.9396
G1 X44.576 Y63.323 E61.05845
G1 X44.51 Y64.339 E61.18063
G1 X44.48 Y65.35 E61.302
G1 X44.482 Y66.353 E61.42236
G1 X44.515 Y67.353 E61.54243
G1 X44.52 Y67.395 E61.5475
G1 X44.584 Y68.355 E61.66296
G1 X44.588 Y68.381 E61.66612
G1 X44.687 Y69.363 E61.78455
G1 X44.82 Y70.358 E61.90502
G1 X44.984 Y71.332 E62.02354
G1 X45.182 Y72.315 E62.14387
G1 X45.419 Y73.317 E62.26743
G1 X45.684 Y74.287 E62.38809
G1 X45.979 Y75.249 E62.50884
G1 X46.306 Y76.2 E62.62952
G1 X46.659 Y77.129 E62.74877
G1 X47.053 Y78.068 E62.87097
G1 X47.472 Y78.982 E62.99163
G1 X47.92 Y79.881 E63.11216
G1 X48.393 Y80.758 E63.23173
G1 X48.906 Y81.636 E63.35376
G1 X49.441 Y82.487 E63.47438
G1 X50.004 Y83.322 E63.59523
G1 X50.595 Y84.135 E63.71584
G1 X51.211 Y84.929 E63.83643
G1 X51.674 Y85.488 E63.92354
G1 X51.26 Y88.708 E64.31312
G1 X47.381 Y91.119 E64.86118
G1 X40.096 Y79.399 E66.51714
G1 X41.098 Y78.776 E66.65872
G1 X41.553 Y78.41 E66.7288
G1 X41.93 Y77.919 E66.80308
G1 X42.181 Y77.351 E66.8776
G1 X42.29 Y76.741 E66.95196
G1 X42.256 Y76.145 E67.0236
G1 X42.18 Y75.84 E67.06131
G1 X41.893 Y74.851 E67.18489
G1 X41.646 Y73.885 E67.30454
G1 X41.423 Y72.902 E67.4255
G1 X41.225 Y71.893 E67.54889
G1 X41.062 Y70.91 E67.66846
G1 X40.926 Y69.907 E67.78992
G1 X40.818 Y68.892 E67.91241
G1 X40.742 Y67.889 E68.03311
G1 X40.695 Y66.88 E68.15432
G1 X40.677 Y65.888 E68.27338
G1 X40.688 Y64.881 E68.39423
G1 X40.728 Y63.884 E68.51397
G1 X40.798 Y62.88 E68.63474
G1 X40.9 Y61.866 E68.75703
G1 X41.027 Y60.879 E68.87645
G1 X41.186 Y59.878 E68.99807
G1 X41.374 Y58.882 E69.11971
G1 X41.6 Y57.856 E69.24578
G1 X41.666 Y57.272 E69.3163
G1 X41.588 Y56.656 E69.39081
G0 F3600 X41.684 Y56.632
G0 X45.381 Y73.326
G0 X47.989 Y81.838
G0 X48.677 Y82.836
G0 X48.628 Y84.39
G0 X48.538 Y84.349
G1 F1800 X48.704 Y83.781 E69.46182
G1 X48.727 Y83.431 E69.50392
G1 X48.639 Y82.847 E69.57479
G1 X48.375 Y82.295 E69.64821
G1 X47.965 Y81.839 E69.7218
G1 X47.439 Y81.523 E69.79543
G1 X46.846 Y81.37 E69.86892
G1 X46.232 Y81.395 E69.94266
G1 X45.654 Y81.596 E70.0161
G1 X45.156 Y81.955 E70.08977
G1 X44.784 Y82.443 E70.1634
G1 X44.567 Y83.016 E70.23693
G1 X44.525 Y83.629 E70.31066
G1 X44.662 Y84.227 E70.38428
G1 X44.965 Y84.76 E70.45785
G1 X45.408 Y85.183 E70.53135
G1 X45.955 Y85.461 E70.60498
G1 X46.558 Y85.569 E70.6785
G1 X47.168 Y85.5 E70.75216
G1 X47.731 Y85.257 E70.82575
G1 X48.201 Y84.861 E70.8995
G1 X48.538 Y84.349 E70.97305
G0 F3600 X48.628 Y84.39
G0 X49.408 Y82.508
G0 X47.885 Y79.899
G0 X46.622 Y77.143
G0 X45.646 Y74.298
G0 X44.945 Y71.339
G0 X44.545 Y68.359
G0 X44.441 Y65.35
G0 X44.631 Y62.333
G0 X45.118 Y59.352
G0 X45.896 Y56.434
G0 X46.958 Y53.607
G0 X48.294 Y50.898
G0 X49.89 Y48.333
G0 X51.729 Y45.937
G0 X53.797 Y43.735
G0 X56.072 Y41.746
G0 X58.528 Y39.993
G0 X61.149 Y38.489
G0 X63.899 Y37.252
G0 X66.777 Y36.284
G0 X74.538 Y34.37
G0 X75.591 Y33.719
G0 X76.104 Y32.621
G0 X76.036 Y31.668
G0 X75.388 Y30.594
G0 X75.325 Y30.671
G1 F1800 X74.8 Y30.355 E71.04658
G1 X74.207 Y30.202 E71.12007
G1 X73.593 Y30.227 E71.19382
G1 X73.013 Y30.429 E71.26752
G1 X72.517 Y30.788 E71.34099
G1 X72.145 Y31.275 E71.41453
G1 X71.928 Y31.848 E71.48805
G1 X71.886 Y32.461 E71.56179
G1 X72.023 Y33.059 E71.63541
G1 X72.326 Y33.591 E71.70887
G1 X72.768 Y34.015 E71.78237
G1 X73.316 Y34.293 E71.85611
G1 X73.918 Y34.401 E71.9295
G1 X74.528 Y34.332 E72.00317
G1 X75.091 Y34.089 E72.07676
G1 X75.562 Y33.693 E72.1506
G1 X75.897 Y33.181 E72.22402
G1 X76.065 Y32.614 E72.29498
G1 X76.088 Y32.262 E72.33731
G1 X75.998 Y31.679 E72.4081
G1 X75.736 Y31.127 E72.48143
G1 X75.325 Y30.671 E72.55509
G0 F3600 X75.068 Y30.983
;TYPE:WALL-OUTER
G1 F1800 X74.644 Y30.728 E72.61446
G1 X74.164 Y30.604 E72.67396
G1 X73.668 Y30.624 E72.73352
G1 X73.2 Y30.787 E72.79299
G1 X72.799 Y31.078 E72.85245
G1 X72.498 Y31.471 E72.91185
G1 X72.323 Y31.934 E72.97125
G1 X72.289 Y32.429 E73.03079
G1 X72.4 Y32.912 E73.09026
G1 X72.645 Y33.343 E73.14975
G1 X73.002 Y33.685 E73.20908
G1 X73.445 Y33.91 E73.2687
G1 X73.931 Y33.997 E73.32795
G1 X74.424 Y33.941 E73.38749
G1 X74.879 Y33.745 E73.44694
G1 X75.259 Y33.425 E73.50655
G1 X75.53 Y33.011 E73.56593
G1 X75.669 Y32.543 E73.62451
G1 X75.686 Y32.28 E73.65614
G1 X75.612 Y31.798 E73.71466
G1 X75.4 Y31.351 E73.77403
G1 X75.068 Y30.983 E73.8335
G0 F3600 X74.897 Y30.88
G0 X75.155 Y30.453
G0 X74.211 Y30.163
G0 X73.109 Y30.354
G0 X45.053 Y47.838
G0 X45.217 Y48.31
G1 F1800 X44.75 Y48.473 E73.89286
G1 X44.348 Y48.763 E73.95234
G1 X44.047 Y49.157 E74.01184
G1 X43.872 Y49.62 E74.07123
G1 X43.838 Y50.115 E74.13077
G1 X43.948 Y50.598 E74.19022
G1 X44.193 Y51.029 E74.24971
G1 X44.551 Y51.371 E74.30912
G1 X44.993 Y51.596 E74.36864
G1 X45.481 Y51.683 E74.42812
G1 X45.973 Y51.626 E74.48756
G1 X46.428 Y51.43 E74.54701
G1 X46.808 Y51.111 E74.60654
G1 X47.079 Y50.697 E74.66592
G1 X47.218 Y50.228 E74.72462
G1 X47.235 Y49.966 E74.75613
G1 X47.161 Y49.484 E74.81465
G1 X46.949 Y49.036 E74.87412
G1 X46.616 Y48.669 E74.93359
G1 X46.192 Y48.414 E74.99296
G1 X45.713 Y48.29 E75.05234
G1 X45.217 Y48.31 E75.1119
G0 F3600 X45.028 Y48.375
G0 X44.864 Y47.904
G0 X44.039 Y48.445
G0 X43.535 Y49.272
G0 X41.664 Y56.575
G0 X41.197 Y56.755
G1 F1800 X41.008 Y56.265 E75.17493
G1 X40.71 Y55.835 E75.23771
G1 X40.328 Y55.493 E75.29923
G1 X40.106 Y55.356 E75.33054
G1 X38.917 Y54.722 E75.49223
G1 X38.741 Y54.628 E75.51618
G1 X38.835 Y54.452 E75.53164
G1 X45.532 Y41.928 E77.23589
G1 X45.626 Y41.752 E77.25984
G1 X45.802 Y41.846 E77.2753
G1 X46.998 Y42.486 E77.43808
G1 X47.476 Y42.672 E77.49962
G1 X47.996 Y42.74 E77.56256
G1 X48.516 Y42.684 E77.62532
G1 X49.009 Y42.506 E77.68821
G1 X49.439 Y42.224 E77.74992
G1 X49.632 Y42.037 E77.78217
G1 X50.336 Y41.305 E77.90404
G1 X51.065 Y40.591 E78.02649
G1 X51.818 Y39.893 E78.1497
G1 X52.592 Y39.218 E78.27294
G1 X53.376 Y38.573 E78.39477
G1 X54.186 Y37.947 E78.51761
G1 X55.015 Y37.343 E78.64069
G1 X55.859 Y36.766 E78.76338
G1 X56.71 Y36.22 E78.88471
G1 X57.586 Y35.694 E79.00733
G1 X58.455 Y35.206 E79.12692
G1 X59.378 Y34.721 E79.25204
G1 X60.298 Y34.273 E79.37484
G1 X61.222 Y33.855 E79.49654
