;FLAVOR:UltiGCode
;TIME:5807
;MATERIAL:11055
;MATERIAL2:0
;NOZZLE_DIAMETER:0.4
;MINX:25.5
;MINY:22.08
;MINZ:0.3
;MAXX:94.499
;MAXY:97.997
;MAXZ:24.9
;Generated with Cura_SteamEngine 4.5.0
M82 ;absolute extrusion mode

G92 E0
G92 E0
G10
;LAYER_COUNT:165
;LAYER:0
M107
G0 F3600 X26.502 Y25.564 Z0.3
;TYPE:SKIRT
G11
G1 F1800 X26.899 Y25.204 E0.06431
G1 X27.346 Y24.907 E0.12871
G1 X27.832 Y24.68 E0.19308
G1 X28.346 Y24.527 E0.25743
G1 X29.004 Y24.447 E0.33698
G1 X35.027 Y24.435 E1.05974
G1 X35.786 Y24.445 E1.15082
G1 X36.32 Y24.493 E1.21516
G1 X36.841 Y24.619 E1.27949
G1 X37.528 Y24.923 E1.36964
G1 X38.519 Y25.492 E1.50676
G1 X39.029 Y25.796 E1.57801
G1 X41.403 Y27.119 E1.90414
G1 X43.815 Y28.377 E2.23058
G1 X46.26 Y29.564 E2.55673
G1 X48.758 Y30.691 E2.88559
G1 X51.287 Y31.747 E3.21446
G1 X53.841 Y32.732 E3.54295
G1 X56.387 Y33.628 E3.86683
G1 X58.997 Y34.465 E4.19574
G1 X61.612 Y35.225 E4.52253
G1 X64.244 Y35.908 E4.84883
G1 X66.878 Y36.514 E5.17317
G1 X69.6 Y37.06 E5.50631
G1 X72.272 Y37.516 E5.83159
G1 X74.962 Y37.898 E6.15763
G1 X77.669 Y38.204 E6.48454
G1 X80.395 Y38.435 E6.81283
G1 X83.091 Y38.586 E7.13686
G1 X87.221 Y38.673 E7.63257
G1 X90.328 Y38.672 E8.00541
G1 X90.953 Y38.684 E8.08042
G1 X91.487 Y38.734 E8.14478
G1 X92.007 Y38.864 E8.2091
G1 X92.503 Y39.069 E8.2735
G1 X92.962 Y39.345 E8.33777
G1 X93.375 Y39.687 E8.40212
G1 X93.733 Y40.086 E8.46645
G1 X94.028 Y40.535 E8.53092
G1 X94.253 Y41.021 E8.59518
G1 X94.403 Y41.536 E8.65955
G1 X94.48 Y42.213 E8.74132
G1 X94.499 Y43.186 E8.8581
G1 X94.496 Y56.714 E10.48146
G1 X94.48 Y57.233 E10.54377
G1 X94.407 Y57.836 E10.61666
G1 X94.238 Y58.65 E10.71642
G1 X87.415 Y88.994 E14.44862
G1 X87.258 Y89.643 E14.52874
G1 X87.093 Y90.153 E14.59306
G1 X86.854 Y90.633 E14.65741
G1 X86.546 Y91.072 E14.72176
G1 X86.195 Y91.444 E14.78314
G1 X85.78 Y91.813 E14.84978
G1 X83.305 Y93.912 E15.2392
G1 X82.697 Y94.405 E15.33313
G1 X81.927 Y94.965 E15.44739
G1 X81.284 Y95.393 E15.54008
G1 X80.713 Y95.74 E15.62026
G1 X80.001 Y96.135 E15.71796
G1 X79.49 Y96.392 E15.7866
G1 X78.817 Y96.698 E15.87532
G1 X77.936 Y97.057 E15.98948
G1 X77.464 Y97.227 E16.04968
G1 X76.931 Y97.395 E16.11674
G1 X76.283 Y97.571 E16.19732
G1 X75.624 Y97.72 E16.2784
G1 X74.961 Y97.838 E16.35921
G1 X74.366 Y97.913 E16.43117
G1 X73.687 Y97.968 E16.51292
G1 X72.98 Y97.986 E16.59778
G1 X44.706 Y97.997 E19.99067
G1 X43.208 Y97.969 E20.17046
G1 X42.292 Y97.883 E20.28086
G1 X41.612 Y97.782 E20.36336
G1 X41.094 Y97.676 E20.4268
G1 X40.21 Y97.442 E20.53654
G1 X39.469 Y97.195 E20.63027
G1 X38.719 Y96.897 E20.72711
G1 X38.091 Y96.612 E20.80987
G1 X37.423 Y96.27 E20.89992
G1 X36.874 Y95.956 E20.97582
G1 X35.878 Y95.305 E21.1186
G1 X35.446 Y94.995 E21.18241
G1 X34.974 Y94.625 E21.25438
G1 X34.411 Y94.141 E21.34347
G1 X33.879 Y93.642 E21.431
G1 X33.054 Y92.781 E21.57409
G1 X29.45 Y88.902 E22.20948
G1 X28.947 Y88.345 E22.29954
G1 X28.619 Y87.921 E22.36386
G1 X28.357 Y87.453 E22.42823
G1 X28.168 Y86.951 E22.49259
G1 X28.055 Y86.427 E22.55692
G1 X28.001 Y84.991 E22.72936
G1 X28 Y76.748 E23.71852
G1 X27.961 Y73.967 E24.05227
G1 X27.845 Y71.238 E24.38005
G1 X27.651 Y68.509 E24.70836
G1 X27.386 Y65.832 E25.03117
G1 X27.036 Y63.094 E25.3624
G1 X26.615 Y60.416 E25.68771
G1 X26.118 Y57.742 E26.01408
G1 X25.746 Y56.029 E26.22443
G1 X25.583 Y55.234 E26.32182
G1 X25.512 Y54.637 E26.39396
G1 X25.5 Y28.716 E29.50448
G1 X25.51 Y27.991 E29.59149
G1 X25.558 Y27.457 E29.65583
G1 X25.685 Y26.936 E29.72018
G1 X25.888 Y26.44 E29.78449
G1 X26.162 Y25.979 E29.84885
G1 X26.502 Y25.564 E29.91322
G0 F3600 X26.894 Y25.737
G1 F1800 X27.285 Y25.417 E29.97386
G1 X27.722 Y25.162 E30.03457
G1 X28.193 Y24.979 E30.09521
G1 X28.687 Y24.873 E30.15584
G1 X29.321 Y24.837 E30.23204
G1 X35.027 Y24.835 E30.91676
G1 X35.78 Y24.845 E31.00713
G1 X36.284 Y24.892 E31.06787
G1 X36.773 Y25.018 E31.12847
G1 X37.328 Y25.27 E31.20161
G1 X38.319 Y25.839 E31.33874
G1 X38.794 Y26.122 E31.40509
G1 X41.217 Y27.473 E31.73799
G1 X43.663 Y28.747 E32.06894
G1 X46.099 Y29.931 E32.39396
G1 X48.575 Y31.048 E32.71991
G1 X51.137 Y32.118 E33.05309
G1 X53.701 Y33.107 E33.38286
G1 X56.269 Y34.01 E33.70952
G1 X58.869 Y34.844 E34.03718
G1 X61.514 Y35.613 E34.36772
G1 X64.125 Y36.291 E34.69143
G1 X66.842 Y36.916 E35.02599
G1 X69.499 Y37.449 E35.35118
G1 X72.22 Y37.912 E35.68239
G1 X74.892 Y38.292 E36.00626
G1 X77.627 Y38.602 E36.33656
G1 X80.372 Y38.834 E36.66713
G1 X83.09 Y38.986 E36.9938
G1 X87.212 Y39.073 E37.48855
G1 X90.328 Y39.072 E37.86247
G1 X90.945 Y39.084 E37.93653
G1 X91.448 Y39.134 E37.99719
G1 X91.937 Y39.262 E38.05784
G1 X92.399 Y39.466 E38.11845
G1 X92.824 Y39.74 E38.17913
G1 X93.2 Y40.078 E38.2398
G1 X93.519 Y40.471 E38.30054
G1 X93.771 Y40.909 E38.36118
G1 X93.951 Y41.381 E38.4218
G1 X94.055 Y41.876 E38.48249
G1 X94.099 Y43.194 E38.64074
G1 X94.096 Y56.714 E40.26314
G1 X94.08 Y57.219 E40.32377
G1 X94.015 Y57.755 E40.38856
G1 X93.846 Y58.569 E40.48833
G1 X87.025 Y88.906 E44.21965
G1 X86.869 Y89.548 E44.29893
G1 X86.711 Y90.028 E44.35957
G1 X86.48 Y90.478 E44.42027
G1 X86.18 Y90.885 E44.48094
G1 X85.753 Y91.306 E44.5529
G1 X83.046 Y93.607 E44.97924
G1 X82.446 Y94.093 E45.0719
G1 X81.694 Y94.64 E45.18348
G1 X81.063 Y95.059 E45.27438
G1 X80.507 Y95.397 E45.35246
G1 X79.808 Y95.784 E45.44834
G1 X79.312 Y96.034 E45.51499
G1 X78.653 Y96.333 E45.60183
G1 X77.786 Y96.686 E45.71416
G1 X76.811 Y97.014 E45.8376
G1 X76.181 Y97.184 E45.91591
G1 X75.537 Y97.329 E45.99512
G1 X74.894 Y97.444 E46.07351
G1 X74.319 Y97.516 E46.14305
G1 X73.662 Y97.568 E46.22213
G1 X72.975 Y97.586 E46.3046
G1 X44.706 Y97.597 E49.69688
G1 X43.216 Y97.569 E49.87571
G1 X42.336 Y97.486 E49.98178
G1 X41.69 Y97.39 E50.06015
G1 X41.186 Y97.287 E50.12188
G1 X40.32 Y97.057 E50.2294
G1 X39.598 Y96.816 E50.32074
G1 X38.87 Y96.527 E50.41474
G1 X38.259 Y96.249 E50.49529
G1 X37.607 Y95.915 E50.5832
G1 X37.076 Y95.61 E50.65668
G1 X36.098 Y94.971 E50.79687
G1 X35.221 Y94.31 E50.92865
G1 X34.673 Y93.84 E51.01529
G1 X34.155 Y93.352 E51.10069
G1 X33.344 Y92.506 E51.24132
G1 X29.743 Y88.63 E51.87619
G1 X29.244 Y88.077 E51.96558
G1 X28.936 Y87.676 E52.02625
G1 X28.696 Y87.231 E52.08692
G1 X28.528 Y86.754 E52.14761
G1 X28.437 Y86.257 E52.20824
G1 X28.401 Y84.983 E52.36118
G1 X28.4 Y76.742 E53.3501
G1 X28.36 Y73.944 E53.6859
G1 X28.245 Y71.227 E54.01223
G1 X28.05 Y68.481 E54.34258
G1 X27.782 Y65.775 E54.66889
G1 X27.434 Y63.053 E54.99819
G1 X27.009 Y60.352 E55.32629
G1 X26.507 Y57.65 E55.65608
G1 X26.137 Y55.944 E55.86556
G1 X25.975 Y55.154 E55.96233
G1 X25.912 Y54.623 E56.0265
G1 X25.9 Y28.716 E59.13534
G1 X25.91 Y27.997 E59.22163
G1 X25.958 Y27.494 E59.28226
G1 X26.084 Y27.004 E59.34298
G1 X26.286 Y26.541 E59.40359
G1 X26.558 Y26.115 E59.46425
G1 X26.894 Y25.737 E59.52494
G10
;MESH:slide_holder_2.stl
G0 F3600 X29.513 Y27.371
G0 X29.514 Y28.45
G0 X35.663 Y82.713
G0 X43.839 Y91.758
;TYPE:WALL-INNER
G11
G1 F1800 X51.368 Y91.757 E60.42842
G1 X51.921 Y91.745 E60.49479
G1 X52.867 Y91.651 E60.60887
G1 X53.802 Y91.465 E60.72327
G1 X54.725 Y91.19 E60.83884
G1 X55.643 Y90.824 E60.95743
G1 X56.515 Y90.379 E61.07491
G1 X57.366 Y89.846 E61.19541
G1 X58.147 Y89.255 E61.31294
G1 X58.548 Y88.908 E61.37657
G1 X83.501 Y66.337 E65.41418
G1 X83.907 Y65.95 E65.48149
G1 X84.313 Y65.508 E65.55351
G1 X84.692 Y65.037 E65.62605
G1 X85.035 Y64.539 E65.69862
G1 X85.342 Y64.019 E65.77108
G1 X85.611 Y63.478 E65.84358
G1 X85.843 Y62.921 E65.91599
G1 X86.032 Y62.356 E65.98748
G1 X87.496 Y57.274 E66.62212
G1 X87.5 Y42.873 E68.35024
G1 X90.1 Y42.872 E68.66224
G1 X90.3 Y42.872 E68.68624
G1 X90.3 Y43.072 E68.70178
G1 X90.3 Y56.703 E70.3375
G1 X90.293 Y57.054 E70.37963
G1 X83.227 Y88.472 E74.24396
G1 X80.676 Y90.639 E74.64562
G1 X80.094 Y91.121 E74.7363
G1 X79.663 Y91.444 E74.80094
G1 X79.251 Y91.727 E74.86092
G1 X78.768 Y92.031 E74.9294
G1 X78.315 Y92.293 E74.9922
G1 X77.813 Y92.555 E75.06015
G1 X77.362 Y92.77 E75.1201
G1 X76.854 Y92.986 E75.18635
G1 X76.362 Y93.174 E75.24955
G1 X75.85 Y93.343 E75.31425
G1 X75.377 Y93.477 E75.37324
G1 X74.874 Y93.594 E75.43521
G1 X74.395 Y93.683 E75.49368
G1 X73.93 Y93.746 E75.54999
G1 X73.412 Y93.786 E75.61233
G1 X43.755 Y93.797 E79.17117
G1 X43.271 Y93.779 E79.22929
G1 X42.366 Y93.663 E79.33878
G1 X41.898 Y93.561 E79.39626
G1 X41.447 Y93.438 E79.45236
G1 X40.904 Y93.257 E79.52104
G1 X40.457 Y93.082 E79.57865
G1 X40.002 Y92.88 E79.63838
G1 X39.51 Y92.633 E79.70445
G1 X39.023 Y92.359 E79.7715
G1 X38.596 Y92.089 E79.83213
G1 X38.146 Y91.779 E79.8977
G1 X37.707 Y91.444 E79.96397
G1 X37.28 Y91.084 E80.03099
G1 X36.878 Y90.711 E80.09679
G1 X36.518 Y90.341 E80.15874
G1 X32.2 Y85.69 E80.92031
G1 X32.2 Y57.858 E84.26015
G1 X32.178 Y57.059 E84.35607
G1 X31.988 Y56.254 E84.45532
G1 X31.613 Y55.499 E84.55648
G1 X31.072 Y54.851 E84.65778
G1 X30.396 Y54.348 E84.75889
G1 X29.7 Y54.048 E84.84984
G1 X29.7 Y28.636 E87.89928
G1 X35.3 Y28.635 E88.57128
G1 X35.5 Y28.635 E88.59528
G1 X35.5 Y28.835 E88.61082
G1 X35.5 Y82.777 E95.08386
G1 X43.839 Y91.758 E96.55452
G0 F3600 X72.153 Y91.595
G0 X79.138 Y86.304
G1 F1800 X81.514 Y78.054 E97.58476
G1 X81.608 Y77.367 E97.66797
G1 X81.5 Y76.627 E97.75771
G1 X81.183 Y75.947 E97.84774
G1 X80.685 Y75.386 E97.93776
G1 X80.039 Y74.986 E98.02894
G1 X79.316 Y74.79 E98.11883
G1 X78.566 Y74.806 E98.20885
G1 X77.854 Y75.038 E98.29871
G1 X77.272 Y75.435 E98.38325
G1 X64.677 Y87.091 E100.44256
G1 X64.264 Y87.545 E100.51621
G1 X63.944 Y88.079 E100.59091
G1 X63.737 Y88.657 E100.66459
G1 X63.658 Y89.246 E100.7359
G1 X63.707 Y89.844 E100.8079
G1 X63.893 Y90.396 E100.8778
G1 X64.207 Y90.897 E100.94875
G1 X64.634 Y91.293 E101.01863
G1 X65.15 Y91.579 E101.08943
G1 X65.729 Y91.734 E101.16136
G1 X72.193 Y91.757 E101.93704
G1 X72.503 Y91.594 E101.97907
G1 X79.138 Y86.304 E102.99735
G0 F3600 X78.789 Y86.071
;TYPE:WALL-OUTER
G1 F1800 X81.122 Y77.971 E104.00887
G1 X81.204 Y77.369 E104.08178
G1 X81.113 Y76.743 E104.15769
G1 X80.845 Y76.169 E104.2337
G1 X80.425 Y75.695 E104.3097
G1 X79.878 Y75.357 E104.38686
G1 X79.267 Y75.191 E104.46284
G1 X78.634 Y75.205 E104.53882
G1 X78.032 Y75.401 E104.61479
G1 X77.522 Y75.749 E104.68888
G1 X64.961 Y87.373 E106.74258
G1 X64.587 Y87.785 E106.80936
G1 X64.307 Y88.251 E106.87459
G1 X64.128 Y88.752 E106.93844
G1 X64.06 Y89.256 E106.99946
G1 X64.102 Y89.763 E107.06051
G1 X64.257 Y90.224 E107.11888
G1 X64.518 Y90.64 E107.17781
G1 X64.87 Y90.967 E107.23546
G1 X65.301 Y91.205 E107.29454
G1 X65.782 Y91.334 E107.3543
G1 X72.095 Y91.357 E108.11187
G1 X72.283 Y91.258 E108.13737
G1 X78.789 Y86.071 E109.13584
G0 F3600 X78.844 Y85.879
G0 X79.132 Y85.962
G0 X72.414 Y91.459
G0 X43.793 Y91.561
G0 X44.013 Y91.358
G1 F1800 X51.363 Y91.357 E110.01784
G1 X51.897 Y91.345 E110.08194
G1 X52.808 Y91.255 E110.19179
G1 X53.706 Y91.076 E110.30167
G1 X54.594 Y90.812 E110.41284
G1 X55.478 Y90.459 E110.52706
G1 X56.318 Y90.031 E110.6402
G1 X57.139 Y89.516 E110.75649
G1 X57.895 Y88.944 E110.87026
G1 X58.283 Y88.608 E110.93185
G1 X83.229 Y66.044 E114.96827
G1 X83.621 Y65.67 E115.03328
G1 X84.01 Y65.247 E115.10224
G1 X84.371 Y64.798 E115.17138
G1 X84.698 Y64.324 E115.24048
G1 X84.99 Y63.828 E115.30955
G1 X85.247 Y63.312 E115.37872
G1 X85.468 Y62.781 E115.44774
G1 X85.65 Y62.237 E115.51658
G1 X87.096 Y57.217 E116.14347
G1 X87.1 Y42.473 E117.91275
G1 X90.499 Y42.472 E118.32063
G1 X90.697 Y42.472 E118.34439
G1 X90.7 Y42.472 E118.34475
G1 X90.7 Y42.67 E118.36018
G1 X90.7 Y56.711 E120.0451
G1 X90.692 Y57.101 E120.09191
G1 X83.588 Y88.691 E123.97738
G1 X80.931 Y90.947 E124.39564
G1 X80.339 Y91.437 E124.48786
G1 X79.902 Y91.764 E124.55336
G1 X79.464 Y92.066 E124.6172
G1 X78.981 Y92.37 E124.68569
G1 X78.5 Y92.648 E124.75235
G1 X77.998 Y92.91 E124.8203
G1 X77.519 Y93.138 E124.88396
G1 X77.005 Y93.357 E124.95101
G1 X76.496 Y93.551 E125.01637
G1 X75.965 Y93.726 E125.08347
G1 X75.468 Y93.867 E125.14546
G1 X74.965 Y93.984 E125.20743
G1 X74.459 Y94.078 E125.26919
G1 X73.963 Y94.145 E125.32925
G1 X73.43 Y94.186 E125.3934
G1 X43.74 Y94.197 E128.9562
G1 X43.238 Y94.178 E129.01648
G1 X42.297 Y94.058 E129.13032
G1 X41.808 Y93.951 E129.19039
G1 X41.325 Y93.819 E129.25047
G1 X40.778 Y93.637 E129.31965
G1 X40.295 Y93.448 E129.38189
G1 X39.84 Y93.246 E129.44163
G1 X39.314 Y92.982 E129.51225
G1 X38.822 Y92.705 E129.58001
G1 X38.382 Y92.427 E129.64246
G1 X37.903 Y92.097 E129.71226
G1 X37.456 Y91.756 E129.77973
G1 X37.022 Y91.39 E129.84786
G1 X36.606 Y91.004 E129.91595
G1 X36.225 Y90.613 E129.98147
G1 X31.8 Y85.847 E130.76189
G1 X31.8 Y57.864 E134.11985
G1 X31.779 Y57.111 E134.21024
G1 X31.609 Y56.391 E134.29902
G1 X31.276 Y55.719 E134.38901
G1 X30.795 Y55.144 E134.47897
G1 X30.195 Y54.697 E134.56876
G1 X29.513 Y54.403 E134.65788
G1 X29.3 Y54.355 E134.68408
G1 X29.3 Y28.236 E137.81836
G1 X35.7 Y28.235 E138.58636
G1 X35.9 Y28.235 E138.61036
G1 X35.9 Y28.435 E138.6259
G1 X35.9 Y82.62 E145.1281
G1 X44.013 Y91.358 E146.55894
G0 F3600 X44.213 Y91.358
G0 X43.669 Y92.148
;TYPE:SKIN
G1 F1800 X51.372 Y92.147 E147.4833
G1 X51.944 Y92.135 E147.55195
G1 X52.924 Y92.037 E147.67014
G1 X53.896 Y91.844 E147.78906
G1 X54.853 Y91.559 E147.90888
G1 X55.805 Y91.179 E148.03188
G1 X56.708 Y90.718 E148.15355
G1 X57.588 Y90.168 E148.27808
G1 X58.393 Y89.559 E148.39921
G1 X58.807 Y89.2 E148.46496
G1 X83.766 Y66.623 E152.50359
G1 X84.186 Y66.223 E152.57319
G1 X84.609 Y65.762 E152.64827
G1 X85.004 Y65.271 E152.72389
G1 X85.364 Y64.749 E152.79998
G1 X85.685 Y64.205 E152.87578
G1 X85.966 Y63.64 E152.9515
G1 X86.208 Y63.058 E153.02714
G1 X86.404 Y62.472 E153.10128
G1 X87.886 Y57.329 E153.74356
G1 X87.89 Y43.263 E155.43148
G1 X89.91 Y43.262 E155.67388
G1 X89.91 Y56.695 E157.28584
G1 X89.903 Y57.01 E157.32365
G1 X82.875 Y88.26 E161.16731
G1 X80.517 Y90.264 E161.53866
G1 X79.852 Y90.815 E161.64229
G1 X79.442 Y91.122 E161.70375
G1 X79.036 Y91.401 E161.76287
G1 X78.56 Y91.701 E161.83039
G1 X78.134 Y91.948 E161.88948
G1 X77.645 Y92.203 E161.95566
G1 X77.194 Y92.417 E162.01556
G1 X76.709 Y92.624 E162.07884
G1 X76.239 Y92.804 E162.13923
G1 X75.735 Y92.97 E162.20291
G1 X75.28 Y93.099 E162.25966
G1 X74.802 Y93.21 E162.31855
G1 X74.323 Y93.299 E162.37701
G1 X73.881 Y93.36 E162.43055
G1 X73.408 Y93.396 E162.48748
G1 X43.769 Y93.407 E166.04416
G1 X43.29 Y93.389 E166.10168
G1 X42.442 Y93.28 E166.20428
G1 X41.991 Y93.182 E166.25966
G1 X41.561 Y93.065 E166.31314
G1 X41.036 Y92.89 E166.37954
G1 X40.615 Y92.725 E166.43381
G1 X40.169 Y92.527 E166.49236
G1 X39.693 Y92.288 E166.55628
G1 X39.233 Y92.029 E166.61963
G1 X38.805 Y91.759 E166.68035
G1 X38.367 Y91.458 E166.74413
G1 X37.951 Y91.14 E166.80696
G1 X37.543 Y90.796 E166.871
G1 X37.15 Y90.431 E166.93536
G1 X36.836 Y90.11 E166.98925
G1 X32.59 Y85.537 E167.73808
G1 X32.59 Y57.852 E171.06028
G1 X32.566 Y57.008 E171.1616
G1 X32.357 Y56.121 E171.27096
G1 X31.942 Y55.284 E171.38306
G1 X31.341 Y54.566 E171.49542
G1 X30.593 Y54.008 E171.60741
G1 X30.09 Y53.791 E171.67315
G1 X30.09 Y29.026 E174.64495
G1 X35.11 Y29.025 E175.24735
G1 X35.11 Y82.931 E181.71607
G1 X43.669 Y92.148 E183.22544
G0 F3600 X52.845 Y91.492
G0 X63.323 Y89.924
G1 F1800 X63.538 Y90.564 E183.30646
G1 X63.904 Y91.148 E183.38917
G1 X64.404 Y91.611 E183.47094
G1 X65.003 Y91.943 E183.55312
G1 X65.677 Y92.124 E183.63687
G1 X72.289 Y92.147 E184.43031
G1 X72.717 Y91.922 E184.48834
G1 X79.479 Y86.532 E185.52602
G1 X81.896 Y78.134 E186.57469
G1 X82.002 Y77.365 E186.66784
G1 X81.878 Y76.514 E186.77104
G1 X81.512 Y75.731 E186.87476
G1 X80.939 Y75.084 E186.97847
G1 X80.195 Y74.625 E187.08337
G1 X79.364 Y74.398 E187.18674
G1 X78.5 Y74.418 E187.29045
G1 X77.68 Y74.685 E187.39394
G1 X77.028 Y75.129 E187.48859
G1 X64.4 Y86.816 E189.55334
G1 X63.95 Y87.311 E189.63361
G1 X63.589 Y87.911 E189.71764
G1 X63.356 Y88.564 E189.80084
G1 X63.266 Y89.236 E189.8822
G1 X63.323 Y89.924 E189.96504
G0 F3600 X52.845 Y91.492
G0 X52.005 Y91.55
G0 X39.16 Y91.769
G1 F1800 X32.77 Y85.378 E191.04954
G0 F3600 X32.77 Y84.813
G1 F1800 X40.379 Y92.422 E192.34083
G1 X40.449 Y92.492
G0 F3600 X41.314 Y92.791
G1 F1800 X32.77 Y84.247 E193.7908
G0 F3600 X32.77 Y83.681
G1 F1800 X42.111 Y93.022 E195.37602
G0 F3600 X42.797 Y93.143
G1 F1800 X32.77 Y83.116 E197.07766
G0 F3600 X32.77 Y82.55
G1 F1800 X43.432 Y93.212 E198.88706
