;FLAVOR:UltiGCode
;TIME:7336
;MATERIAL:15052
;MATERIAL2:0
;NOZZLE_DIAMETER:0.4
;MINX:22.044
;MINY:17.485
;MINZ:0.3
;MAXX:96.845
;MAXY:102.513
;MAXZ:26.4
;Generated with Cura_SteamEngine 4.7.1
M82 ;absolute extrusion mode
G0 F3000 Y50 ;avoid prime blob
G92 E0
G92 E0
G10
;LAYER_COUNT:175
;LAYER:0
M107
G0 F3600 X55.822 Y21.409 Z0.3
;TYPE:SKIRT
G11
G1 F1800 X56.114 Y20.766 E0.08474
G1 X56.431 Y20.193 E0.16332
G1 X56.663 Y19.83 E0.21502
G1 X56.986 Y19.402 E0.27937
G1 X57.414 Y18.979 E0.35158
G1 X57.711 Y18.715 E0.39926
G1 X58.139 Y18.392 E0.46361
G1 X58.828 Y18.024 E0.55734
G1 X59.096 Y17.899 E0.59283
G1 X59.599 Y17.711 E0.65726
G1 X60.409 Y17.546 E0.75646
G1 X60.98 Y17.49 E0.82531
G1 X61.254 Y17.485 E0.85819
G1 X61.795 Y17.516 E0.92322
G1 X62.208 Y17.571 E0.97322
G1 X62.809 Y17.704 E1.04708
G1 X63.356 Y17.897 E1.11669
G1 X63.721 Y18.045 E1.16395
G1 X81.11 Y25.646 E3.44128
G1 X81.825 Y25.971 E3.53552
G1 X82.395 Y26.284 E3.61356
G1 X82.734 Y26.497 E3.6616
G1 X83.164 Y26.817 E3.72592
G1 X83.629 Y27.286 E3.80517
G1 X83.909 Y27.605 E3.85611
G1 X84.314 Y28.174 E3.93992
G1 X85.018 Y29.399 E4.10946
G1 X85.203 Y29.727 E4.15465
G1 X86.6 Y32.062 E4.48117
G1 X88.079 Y34.388 E4.81194
G1 X89.592 Y36.622 E5.13572
G1 X91.19 Y38.844 E5.46415
G1 X92.847 Y41.015 E5.79188
G1 X94.556 Y43.129 E6.11809
G1 X95.77 Y44.548 E6.34218
G1 X96.016 Y44.844 E6.38837
G1 X96.327 Y45.281 E6.45273
G1 X96.571 Y45.759 E6.51713
G1 X96.74 Y46.267 E6.58138
G1 X96.833 Y46.796 E6.64583
G1 X96.845 Y47.332 E6.71017
G1 X96.778 Y47.864 E6.77451
G1 X96.624 Y48.404 E6.8419
G1 X96.473 Y48.807 E6.89354
G1 X94.955 Y52.569 E7.38035
G1 X94.709 Y53.156 E7.45672
G1 X94.466 Y53.634 E7.52107
G1 X94.306 Y53.875 E7.55578
G1 X93.342 Y55.208 E7.75319
G1 X93.317 Y55.252 E7.75926
G1 X92.528 Y56.34 E7.92054
G1 X90.987 Y58.591 E8.24789
G1 X89.504 Y60.897 E8.57689
G1 X88.121 Y63.188 E8.89802
G1 X86.749 Y65.609 E9.23195
G1 X85.491 Y67.986 E9.55468
G1 X84.28 Y70.438 E9.88284
G1 X83.141 Y72.919 E10.21044
G1 X82.721 Y73.889 E10.33728
G1 X82.585 Y74.172 E10.37496
G1 X82.31 Y74.632 E10.43927
G1 X81.97 Y75.047 E10.50365
G1 X81.572 Y75.406 E10.56797
G1 X80.972 Y75.783 E10.653
G1 X80.457 Y76.04 E10.72207
G1 X79.028 Y76.727 E10.91234
G1 X76.565 Y77.996 E11.24482
G1 X74.231 Y79.284 E11.56472
G1 X71.869 Y80.677 E11.89378
G1 X69.544 Y82.137 E12.22323
G1 X67.288 Y83.645 E12.54886
G1 X65.052 Y85.232 E12.87789
G1 X62.885 Y86.865 E13.2035
G1 X60.752 Y88.569 E13.53111
G1 X58.673 Y90.328 E13.8579
G1 X56.646 Y92.146 E14.18465
G1 X54.648 Y94.04 E14.51501
G1 X52.741 Y95.953 E14.83915
G1 X50.872 Y97.937 E15.16623
G1 X48.768 Y100.312 E15.54698
G1 X48.296 Y100.85 E15.63287
G1 X48.035 Y101.111 E15.67716
G1 X47.574 Y101.469 E15.7472
G1 X47.025 Y101.817 E15.8252
G1 X46.548 Y102.062 E15.88955
G1 X45.807 Y102.308 E15.98324
G1 X45.533 Y102.385 E16.0174
G1 X45.006 Y102.486 E16.08179
G1 X44.258 Y102.513 E16.17161
G1 X43.935 Y102.507 E16.21037
G1 X43.402 Y102.454 E16.27465
G1 X42.752 Y102.289 E16.35512
G1 X42.394 Y102.177 E16.40014
G1 X41.85 Y101.955 E16.47064
G1 X41.405 Y101.709 E16.53166
G1 X40.88 Y101.382 E16.60588
G1 X25.05 Y90.949 E18.88094
G1 X24.507 Y90.579 E18.95979
G1 X23.973 Y90.154 E19.04168
G1 X23.474 Y89.682 E19.12411
G1 X23.451 Y89.657 E19.12818
G1 X23.089 Y89.193 E19.1988
G1 X22.736 Y88.636 E19.27794
G1 X22.492 Y88.158 E19.34234
G1 X22.248 Y87.422 E19.43539
G1 X22.172 Y87.151 E19.46916
G1 X22.071 Y86.624 E19.53355
G1 X22.044 Y85.876 E19.62337
G1 X22.05 Y85.553 E19.66214
G1 X22.103 Y85.02 E19.72641
G1 X22.268 Y84.37 E19.80689
G1 X22.379 Y84.015 E19.85152
G1 X22.602 Y83.467 E19.92252
G1 X22.851 Y83.017 E19.98423
G1 X23.207 Y82.451 E20.06447
G1 X26.407 Y77.597 E20.76214
G1 X26.832 Y76.971 E20.85293
G1 X27.225 Y76.485 E20.92793
G1 X28.021 Y75.658 E21.06568
G1 X29.887 Y73.665 E21.3933
G1 X31.679 Y71.638 E21.71797
G1 X33.442 Y69.527 E22.04801
G1 X35.141 Y67.373 E22.37722
G1 X36.739 Y65.222 E22.69877
G1 X38.329 Y62.952 E23.03135
G1 X39.812 Y60.699 E23.35502
G1 X41.248 Y58.38 E23.68234
G1 X42.628 Y56.003 E24.01216
G1 X43.927 Y53.613 E24.33859
G1 X45.149 Y51.2 E24.66316
G1 X46.323 Y48.716 E24.99285
G1 X47.41 Y46.233 E25.31812
G1 X48.44 Y43.689 E25.64747
G1 X49.385 Y41.148 E25.97279
G1 X50.26 Y38.578 E26.29858
G1 X51.075 Y35.94 E26.6299
G1 X51.801 Y33.335 E26.95441
G1 X52.456 Y30.693 E27.28105
G1 X52.86 Y28.882 E27.50371
G1 X53.068 Y27.914 E27.62252
G1 X53.24 Y27.347 E27.69363
G1 X53.461 Y26.813 E27.76298
G1 X55.822 Y21.409 E28.47065
G0 F3600 X56.186 Y21.575
G1 F1800 X56.478 Y20.932 E28.55539
G1 X56.774 Y20.399 E28.62855
G1 X56.999 Y20.046 E28.67878
G1 X57.306 Y19.645 E28.73939
G1 X57.687 Y19.271 E28.80345
G1 X57.975 Y19.016 E28.84961
G1 X58.38 Y18.713 E28.91031
G1 X59.007 Y18.382 E28.99539
G1 X59.263 Y18.262 E29.02932
G1 X59.738 Y18.088 E29.09002
G1 X60.48 Y17.939 E29.18084
G1 X60.988 Y17.89 E29.24208
G1 X61.262 Y17.885 E29.27497
G1 X62.155 Y17.967 E29.38258
G1 X62.69 Y18.085 E29.44832
G1 X63.207 Y18.269 E29.51417
G1 X63.561 Y18.412 E29.55999
G1 X80.99 Y26.031 E31.84257
G1 X81.66 Y26.335 E31.93086
G1 X82.19 Y26.628 E32.00354
G1 X82.52 Y26.835 E32.05028
G1 X82.924 Y27.139 E32.11095
G1 X83.336 Y27.559 E32.18155
G1 X83.607 Y27.867 E32.23078
G1 X83.967 Y28.374 E32.3054
G1 X84.657 Y29.574 E32.47151
G1 X84.862 Y29.935 E32.52133
G1 X86.278 Y32.303 E32.85242
G1 X87.727 Y34.581 E33.17639
G1 X89.28 Y36.874 E33.50872
G1 X90.863 Y39.074 E33.83396
G1 X92.533 Y41.264 E34.16445
G1 X94.242 Y43.378 E34.49066
G1 X95.462 Y44.804 E34.71586
G1 X95.708 Y45.1 E34.76204
G1 X96 Y45.513 E34.82274
G1 X96.224 Y45.967 E34.88349
G1 X96.373 Y46.45 E34.94415
G1 X96.444 Y46.95 E35.00475
G1 X96.435 Y47.456 E35.06548
G1 X96.347 Y47.954 E35.12616
G1 X96.133 Y48.576 E35.2051
G1 X96.102 Y48.658 E35.21562
G1 X94.586 Y52.415 E35.70178
G1 X94.34 Y53.002 E35.77815
G1 X93.982 Y53.64 E35.86594
G1 X93.034 Y54.952 E36.06018
G1 X92.993 Y55.017 E36.0694
G1 X92.206 Y56.101 E36.23015
G1 X90.664 Y58.354 E36.55777
G1 X89.169 Y60.68 E36.88957
G1 X87.764 Y63.006 E37.21566
G1 X86.408 Y65.4 E37.54582
G1 X85.122 Y67.829 E37.87563
G1 X83.915 Y70.273 E38.20273
G1 X82.784 Y72.737 E38.52807
G1 X82.354 Y73.73 E38.65792
G1 X82.227 Y73.993 E38.69297
G1 X81.966 Y74.426 E38.75364
G1 X81.64 Y74.812 E38.81427
G1 X81.257 Y75.143 E38.87501
G1 X80.794 Y75.425 E38.94007
G1 X80.284 Y75.679 E39.00844
G1 X78.835 Y76.375 E39.20134
G1 X76.41 Y77.626 E39.52878
G1 X74.014 Y78.946 E39.85704
G1 X71.658 Y80.336 E40.1853
G1 X69.331 Y81.798 E40.51508
G1 X67.064 Y83.314 E40.84234
G1 X64.825 Y84.902 E41.17174
G1 X62.618 Y86.566 E41.50342
G1 X60.51 Y88.249 E41.82711
G1 X58.411 Y90.026 E42.15713
G1 X56.349 Y91.874 E42.4894
G1 X54.415 Y93.707 E42.80916
G1 X52.432 Y95.697 E43.14628
G1 X50.578 Y97.665 E43.47073
G1 X48.503 Y100.007 E43.84621
G1 X47.999 Y100.582 E43.93797
G1 X47.764 Y100.816 E43.97776
G1 X47.355 Y101.134 E44.03993
G1 X46.816 Y101.475 E44.11647
G1 X46.365 Y101.705 E44.17722
G1 X45.69 Y101.926 E44.26245
G1 X45.428 Y101.999 E44.29509
G1 X44.931 Y102.092 E44.35576
G1 X44.254 Y102.113 E44.43704
G1 X43.945 Y102.107 E44.47413
G1 X43.442 Y102.055 E44.53481
G1 X42.862 Y101.904 E44.60673
G1 X42.514 Y101.795 E44.65049
G1 X42.031 Y101.598 E44.71309
G1 X41.53 Y101.318 E44.78196
G1 X41.096 Y101.045 E44.84349
G1 X25.275 Y90.618 E47.11724
G1 X24.666 Y90.202 E47.20575
G1 X24.234 Y89.851 E47.27254
G1 X23.768 Y89.412 E47.34937
G1 X23.745 Y89.387 E47.35344
G1 X23.423 Y88.973 E47.41638
G1 X23.078 Y88.427 E47.49389
G1 X22.849 Y87.976 E47.55458
G1 X22.63 Y87.305 E47.63928
G1 X22.558 Y87.046 E47.67154
G1 X22.465 Y86.549 E47.73222
G1 X22.444 Y85.872 E47.8135
G1 X22.45 Y85.563 E47.85058
G1 X22.502 Y85.06 E47.91126
G1 X22.653 Y84.48 E47.98318
G1 X22.761 Y84.135 E48.02657
G1 X22.959 Y83.648 E48.08965
G1 X23.242 Y83.142 E48.15922
G1 X23.542 Y82.669 E48.22644
G1 X26.737 Y77.822 E48.92307
G1 X27.162 Y77.196 E49.01387
G1 X27.513 Y76.763 E49.08076
G1 X28.309 Y75.936 E49.2185
G1 X30.178 Y73.939 E49.54672
G1 X32.002 Y71.876 E49.87716
G1 X33.733 Y69.804 E50.20115
G1 X35.46 Y67.613 E50.53593
G1 X37.084 Y65.428 E50.86262
G1 X38.647 Y63.196 E51.1896
G1 X40.154 Y60.908 E51.51837
G1 X41.591 Y58.586 E51.84605
G1 X42.967 Y56.216 E52.17491
G1 X44.298 Y53.766 E52.50949
G1 X45.51 Y51.373 E52.83138
G1 X46.674 Y48.911 E53.15818
G1 X47.788 Y46.364 E53.49177
G1 X48.81 Y43.842 E53.81832
G1 X49.767 Y41.268 E54.14786
G1 X50.646 Y38.688 E54.47493
G1 X51.447 Y36.093 E54.80083
G1 X52.188 Y33.433 E55.13218
G1 X52.847 Y30.78 E55.46022
G1 X53.251 Y28.969 E55.68288
G1 X53.46 Y27.998 E55.80207
G1 X53.612 Y27.494 E55.86524
G1 X53.828 Y26.971 E55.93314
G1 X56.186 Y21.575 E56.63979
G10
;MESH:end_holder_4.stl
G0 F3600 X58.508 Y22.592
G0 X59.685 Y23.106
G0 X63.17 Y23.792
G0 X64.517 Y24.546
G0 X64.443 Y24.612
;TYPE:WALL-INNER
G11
G1 F1800 X63.858 Y24.127 E56.73097
G1 X63.16 Y23.83 E56.822
G1 X62.406 Y23.747 E56.91303
G1 X61.66 Y23.885 E57.00407
G1 X60.985 Y24.232 E57.09514
G1 X60.438 Y24.759 E57.18629
G1 X60.066 Y25.421 E57.27741
G1 X59.902 Y26.162 E57.36849
G1 X59.957 Y26.919 E57.45957
G1 X60.228 Y27.628 E57.55065
G1 X60.692 Y28.229 E57.64176
G1 X61.31 Y28.671 E57.73294
G1 X62.028 Y28.916 E57.82398
G1 X62.786 Y28.943 E57.91499
G1 X63.521 Y28.751 E58.00615
G1 X64.169 Y28.355 E58.09728
G1 X64.675 Y27.79 E58.1883
G1 X64.988 Y27.123 E58.27671
G1 X65.08 Y26.709 E58.3276
G1 X65.08 Y25.973 E58.41592
G1 X64.861 Y25.246 E58.50704
G1 X64.443 Y24.612 E58.59816
G0 F3600 X64.517 Y24.546
G0 X73.886 Y33.683
G0 X73.973 Y33.635
G1 F1800 X74.437 Y34.235 E58.68918
G1 X75.053 Y34.677 E58.78016
G1 X75.771 Y34.923 E58.87124
G1 X76.53 Y34.951 E58.96238
G1 X77.265 Y34.758 E59.05357
G1 X77.912 Y34.363 E59.14454
G1 X78.42 Y33.798 E59.23571
G1 X78.733 Y33.13 E59.32424
G1 X78.824 Y32.716 E59.3751
G1 X78.824 Y31.98 E59.46342
G1 X78.606 Y31.254 E59.55438
G1 X78.187 Y30.62 E59.64558
G1 X77.604 Y30.134 E59.73666
G1 X76.905 Y29.838 E59.82775
G1 X76.151 Y29.755 E59.91878
G1 X75.404 Y29.893 E60.00993
G1 X74.729 Y30.24 E60.10101
G1 X74.183 Y30.766 E60.19199
G1 X73.811 Y31.428 E60.28311
G1 X73.646 Y32.17 E60.37432
G1 X73.703 Y32.926 E60.4653
G1 X73.973 Y33.635 E60.55634
G0 F3600 X73.886 Y33.683
G0 X66.367 Y42.606
G0 X66.425 Y42.687
G1 F1800 X66.068 Y43.111 E60.62286
G1 X65.959 Y43.65 E60.68885
G1 X66.092 Y44.097 E60.74481
G1 X72.421 Y54.752 E62.23196
G1 X72.721 Y55.108 E62.28783
G1 X73.159 Y55.378 E62.34957
G1 X73.662 Y55.494 E62.41152
G1 X74.146 Y55.449 E62.46985
G1 X74.379 Y55.371 E62.49933
G1 X82.941 Y51.705 E63.61699
G1 X83.35 Y51.436 E63.67574
G1 X83.679 Y51.007 E63.74061
G1 X83.845 Y50.495 E63.8052
G1 X83.839 Y49.971 E63.86809
G1 X83.654 Y49.464 E63.93285
G1 X83.315 Y49.047 E63.99734
G1 X82.901 Y48.792 E64.05569
G1 X67.417 Y42.55 E66.05906
G1 X66.945 Y42.487 E66.11621
G1 X66.425 Y42.687 E66.18306
G0 F3600 X66.367 Y42.606
G0 X65.92 Y43.651
G0 X70.34 Y56.821
G0 X70.259 Y57.673
G0 X69.889 Y58.389
G0 X69.821 Y58.316
G1 F1800 X70.15 Y57.883 E66.24832
G1 X70.315 Y57.372 E66.31276
G1 X70.301 Y56.828 E66.37806
G1 X70.125 Y56.368 E66.43716
G1 X66.148 Y49.673 E67.37162
G1 X65.84 Y49.311 E67.42865
G1 X65.392 Y49.043 E67.4913
G1 X64.884 Y48.932 E67.5537
G1 X64.373 Y48.987 E67.61537
G1 X63.897 Y49.206 E67.67825
G1 X63.52 Y49.565 E67.74072
G1 X63.3 Y49.981 E67.79719
G1 X60.007 Y59.753 E69.03462
G1 X59.931 Y60.231 E69.0927
G1 X60.024 Y60.753 E69.15633
G1 X60.279 Y61.211 E69.21923
G1 X60.657 Y61.56 E69.28097
G1 X61.138 Y61.774 E69.34414
G1 X61.665 Y61.82 E69.40762
G1 X62.126 Y61.707 E69.46458
G1 X69.404 Y58.59 E70.41467
G1 X69.821 Y58.316 E70.47454
G0 F3600 X69.889 Y58.389
G0 X74.975 Y59.179
G0 X75.07 Y59.209
G1 F1800 X75.186 Y59.405 E70.50187
G1 X79.499 Y66.665 E71.51521
G1 X78.978 Y67.36 E71.61944
G1 X78.81 Y71.744 E72.14591
G1 X78.803 Y71.943 E72.16981
G1 X78.604 Y71.936 E72.18527
G1 X65.696 Y71.442 E73.73536
G1 X65.118 Y71.439 E73.80472
G1 X64.522 Y71.478 E73.87639
G1 X63.905 Y71.564 E73.95115
G1 X63.32 Y71.686 E74.02286
G1 X62.738 Y71.853 E74.09552
G1 X62.186 Y72.05 E74.16585
G1 X61.621 Y72.302 E74.24009
G1 X61.106 Y72.574 E74.30998
G1 X60.579 Y72.902 E74.38447
G1 X60.097 Y73.251 E74.45588
G1 X59.636 Y73.637 E74.52803
G1 X59.202 Y74.056 E74.60042
G1 X58.801 Y74.5 E74.67221
G1 X58.43 Y74.973 E74.74435
G1 X58.094 Y75.472 E74.81654
G1 X57.798 Y75.982 E74.8873
G1 X49.32 Y91.892 E77.05064
G1 X45.507 Y97.678 E77.88217
G1 X45.226 Y97.997 E77.93319
G1 X44.888 Y98.211 E77.98119
G1 X44.497 Y98.322 E78.02997
G1 X44.112 Y98.319 E78.07617
G1 X43.711 Y98.198 E78.12643
G1 X43.524 Y98.094 E78.15211
G1 X26.879 Y87.125 E80.54422
G1 X26.56 Y86.844 E80.59523
G1 X26.346 Y86.506 E80.64324
G1 X26.235 Y86.115 E80.69201
G1 X26.238 Y85.73 E80.73822
G1 X26.359 Y85.329 E80.78848
G1 X26.463 Y85.142 E80.81416
G1 X30.239 Y79.413 E81.63753
G1 X46.442 Y67.752 E84.03308
G1 X47.26 Y67.137 E84.15588
G1 X48.056 Y66.484 E84.27943
G1 X48.824 Y65.799 E84.40292
G1 X49.563 Y65.082 E84.52648
G1 X50.272 Y64.335 E84.65007
G1 X50.948 Y63.559 E84.77357
G1 X51.592 Y62.756 E84.89709
G1 X52.202 Y61.925 E85.02079
G1 X52.775 Y61.07 E85.1443
G1 X53.313 Y60.192 E85.26787
G1 X53.813 Y59.292 E85.39142
G1 X54.276 Y58.371 E85.51512
G1 X54.699 Y57.433 E85.63859
G1 X55.082 Y56.478 E85.76207
G1 X55.426 Y55.507 E85.88568
G1 X55.728 Y54.522 E86.00931
G1 X55.976 Y53.575 E86.12679
G1 X55.988 Y53.537 E86.13157
G1 X56.209 Y52.52 E86.25646
G1 X56.385 Y51.506 E86.37995
G1 X56.52 Y50.486 E86.50342
G1 X56.604 Y49.527 E86.61894
G1 X56.611 Y49.472 E86.6256
G1 X56.66 Y48.438 E86.74982
G1 X57.173 Y28.805 E89.10658
G1 X59.914 Y22.534 E89.92784
G1 X60.138 Y22.171 E89.97903
G1 X60.432 Y21.905 E90.02661
G1 X60.797 Y21.73 E90.07518
G1 X61.182 Y21.668 E90.12198
G1 X61.597 Y21.718 E90.17214
G1 X61.801 Y21.789 E90.19806
G1 X80.064 Y29.773 E92.58989
G1 X80.426 Y29.996 E92.64091
G1 X80.692 Y30.291 E92.68857
G1 X80.867 Y30.656 E92.73715
G1 X80.929 Y31.042 E92.78406
G1 X80.88 Y31.459 E92.83445
G1 X80.82 Y31.631 E92.85631
G1 X77.989 Y38.109 E93.70466
G1 X77.845 Y38.903 E93.80149
G1 X77.881 Y39.722 E93.89986
G1 X78.104 Y40.513 E93.99848
G1 X78.501 Y41.232 E94.09704
G1 X79.048 Y41.842 E94.19536
G1 X79.707 Y42.304 E94.29194
G1 X80.079 Y42.479 E94.34127
G1 X92.295 Y47.405 E95.92189
G1 X92.48 Y47.479 E95.9458
G1 X92.406 Y47.664 E95.96127
G1 X90.862 Y51.491 E96.45648
G1 X89.808 Y52.897 E96.66734
G1 X75.279 Y59.12 E98.56401
G1 X75.07 Y59.209 E98.58101
G0 F3600 X74.975 Y59.179
G0 X62.776 Y64.431
G0 X62.409 Y64.769
G1 F1800 X62.195 Y65.285 E98.64804
G1 X62.251 Y65.832 E98.71402
G1 X62.572 Y66.295 E98.78163
G1 X63.026 Y66.517 E98.84227
G1 X63.232 Y66.544 E98.86721
G1 X72.393 Y66.894 E99.96733
G1 X72.868 Y66.833 E100.0248
G1 X73.344 Y66.598 E100.0885
G1 X73.718 Y66.22 E100.15231
G1 X73.946 Y65.742 E100.21586
G1 X74.009 Y65.218 E100.27919
G1 X73.903 Y64.726 E100.33959
G1 X73.79 Y64.496 E100.37034
G1 X72.236 Y61.881 E100.73537
G1 X71.938 Y61.525 E100.79108
G1 X71.498 Y61.253 E100.85315
G1 X70.995 Y61.138 E100.91507
G1 X70.51 Y61.183 E100.97352
G1 X70.279 Y61.261 E101.00278
G1 X62.796 Y64.465 E101.97959
G1 X62.409 Y64.769 E102.03864
G0 F3600 X62.33 Y64.709
G0 X41.463 Y91.821
G0 X41.542 Y91.882
G1 F1800 X41.17 Y92.546 E102.12997
G1 X41.006 Y93.287 E102.22105
G1 X41.061 Y94.044 E102.31212
G1 X41.332 Y94.753 E102.40321
G1 X41.796 Y95.354 E102.49432
G1 X42.414 Y95.796 E102.5855
G1 X43.132 Y96.041 E102.67653
G1 X43.89 Y96.068 E102.76755
G1 X44.625 Y95.876 E102.85871
G1 X45.273 Y95.48 E102.94984
G1 X45.779 Y94.915 E103.04086
G1 X46.092 Y94.248 E103.12927
G1 X46.184 Y93.834 E103.18016
G1 X46.184 Y93.098 E103.26848
G1 X45.965 Y92.371 E103.3596
G1 X45.547 Y91.737 E103.45072
G1 X44.962 Y91.252 E103.54191
G1 X44.264 Y90.955 E103.63294
G1 X43.51 Y90.872 E103.72397
G1 X42.764 Y91.01 E103.815
G1 X42.09 Y91.357 E103.90597
G1 X41.542 Y91.882 E103.99704
G0 F3600 X41.463 Y91.821
G0 X33.337 Y86.717
G0 X33.254 Y86.662
G1 F1800 X33.566 Y85.995 E104.08541
G1 X33.659 Y85.582 E104.13621
G1 X33.659 Y84.844 E104.22477
G1 X33.44 Y84.116 E104.31599
G1 X33.022 Y83.484 E104.40692
G1 X32.438 Y82.998 E104.49809
G1 X31.739 Y82.701 E104.58923
G1 X30.984 Y82.619 E104.68036
G1 X30.238 Y82.757 E104.7714
G1 X29.563 Y83.104 E104.86248
G1 X29.017 Y83.63 E104.95346
G1 X28.645 Y84.292 E105.04458
