;FLAVOR:UltiGCode
;TIME:603
;MATERIAL:743
;MATERIAL2:0
;NOZZLE_DIAMETER:0.4
;MINX:37.685
;MINY:48.269
;MINZ:0.3
;MAXX:82.98
;MAXY:71.729
;MAXZ:3
;Generated with Cura_SteamEngine 4.5.0
M82 ;absolute extrusion mode

G92 E0
G92 E0
G10
;LAYER_COUNT:28
;LAYER:0
M107
G0 F3600 X41.924 Y50.971 Z0.3
;TYPE:SKIRT
G11
G1 F1800 X42.58 Y50.467 E0.09927
G1 X43.26 Y50.015 E0.19725
G1 X43.945 Y49.622 E0.29202
G1 X44.576 Y49.313 E0.37633
G1 X45.44 Y48.963 E0.4882
G1 X46.083 Y48.75 E0.56948
G1 X46.888 Y48.543 E0.66922
G1 X47.678 Y48.397 E0.76563
G1 X48.473 Y48.305 E0.86166
G1 X49.223 Y48.269 E0.95177
G1 X50.094 Y48.287 E1.05631
G1 X50.905 Y48.358 E1.154
G1 X53.641 Y48.588 E1.48348
G1 X56.35 Y48.739 E1.80906
G1 X59.089 Y48.814 E2.13787
G1 X61.797 Y48.812 E2.46283
G1 X64.507 Y48.732 E2.78817
G1 X67.183 Y48.579 E3.10981
G1 X70.347 Y48.301 E3.49096
G1 X71.049 Y48.269 E3.57528
G1 X71.926 Y48.287 E3.68055
G1 X72.616 Y48.346 E3.76365
G1 X73.464 Y48.478 E3.86663
G1 X74.236 Y48.653 E3.96162
G1 X74.962 Y48.869 E4.05252
G1 X75.772 Y49.172 E4.1563
G1 X76.397 Y49.454 E4.23858
G1 X77.181 Y49.876 E4.34542
G1 X77.826 Y50.281 E4.43681
G1 X78.433 Y50.72 E4.52671
G1 X79.092 Y51.27 E4.62971
G1 X79.631 Y51.783 E4.719
G1 X80.154 Y52.355 E4.81201
G1 X80.713 Y53.059 E4.91988
G1 X81.078 Y53.584 E4.99661
G1 X81.535 Y54.352 E5.10385
G1 X81.906 Y55.082 E5.20212
G1 X82.169 Y55.694 E5.28205
G1 X82.474 Y56.573 E5.3937
G1 X82.662 Y57.251 E5.47813
G1 X82.827 Y58.065 E5.5778
G1 X82.931 Y58.854 E5.6733
G1 X82.98 Y59.605 E5.76361
G1 X82.978 Y60.45 E5.86501
G1 X82.923 Y61.22 E5.95765
G1 X82.818 Y61.983 E6.05007
G1 X82.643 Y62.815 E6.15209
G1 X82.455 Y63.49 E6.23618
G1 X82.154 Y64.341 E6.3445
G1 X81.876 Y64.986 E6.42878
G1 X81.512 Y65.693 E6.5242
G1 X81.051 Y66.454 E6.63097
G1 X80.664 Y67.01 E6.71226
G1 X80.122 Y67.68 E6.81568
G1 X79.588 Y68.259 E6.91019
G1 X79.056 Y68.762 E6.99805
G1 X78.385 Y69.315 E7.10239
G1 X77.772 Y69.757 E7.19308
G1 X77.107 Y70.169 E7.28696
G1 X76.359 Y70.564 E7.38846
G1 X75.706 Y70.857 E7.47435
G1 X74.903 Y71.15 E7.57692
G1 X74.166 Y71.366 E7.66908
G1 X73.428 Y71.53 E7.7598
G1 X72.535 Y71.662 E7.86813
G1 X71.871 Y71.717 E7.94808
G1 X70.99 Y71.729 E8.05381
G1 X70.148 Y71.684 E8.15499
G1 X67.077 Y71.422 E8.52485
G1 X64.335 Y71.268 E8.85441
G1 X61.664 Y71.193 E9.17506
G1 X58.92 Y71.195 E9.50434
G1 X56.248 Y71.272 E9.82511
G1 X53.5 Y71.428 E10.1554
G1 X50.86 Y71.659 E10.47341
G1 X50.022 Y71.717 E10.57421
G1 X49.15 Y71.729 E10.67886
G1 X48.414 Y71.691 E10.7673
G1 X47.618 Y71.595 E10.86351
G1 X46.857 Y71.449 E10.9565
G1 X46.004 Y71.224 E11.06236
G1 X45.39 Y71.021 E11.13996
G1 X44.522 Y70.662 E11.25268
G1 X43.89 Y70.351 E11.3372
G1 X43.201 Y69.952 E11.43275
G1 X42.518 Y69.49 E11.5317
G1 X41.87 Y68.983 E11.63043
G1 X41.331 Y68.501 E11.7172
G1 X40.765 Y67.924 E11.81419
G1 X40.234 Y67.301 E11.91242
G1 X39.75 Y66.649 E12.00986
G1 X39.355 Y66.034 E12.09757
G1 X38.954 Y65.305 E12.19741
G1 X38.616 Y64.58 E12.29341
G1 X38.342 Y63.873 E12.38439
G1 X38.109 Y63.123 E12.47864
G1 X37.913 Y62.3 E12.58016
G1 X37.791 Y61.573 E12.66862
G1 X37.709 Y60.747 E12.76823
G1 X37.685 Y59.968 E12.86175
G1 X37.712 Y59.199 E12.95409
G1 X37.802 Y58.35 E13.05654
G1 X37.922 Y57.647 E13.14212
G1 X38.125 Y56.821 E13.24419
G1 X38.365 Y56.062 E13.33971
G1 X38.648 Y55.344 E13.43232
G1 X38.973 Y54.656 E13.52363
G1 X39.394 Y53.903 E13.62716
G1 X39.791 Y53.291 E13.71469
G1 X40.277 Y52.643 E13.81189
G1 X40.806 Y52.031 E13.90897
G1 X41.367 Y51.464 E14.00468
G1 X41.924 Y50.971 E14.09394
G0 F3600 X42.185 Y51.274
G1 F1800 X42.82 Y50.787 E14.18997
G1 X43.478 Y50.35 E14.28476
G1 X44.14 Y49.971 E14.3763
G1 X44.747 Y49.674 E14.45739
G1 X45.586 Y49.335 E14.56598
G1 X46.203 Y49.131 E14.64396
G1 X46.984 Y48.932 E14.74067
G1 X47.746 Y48.791 E14.83367
G1 X48.514 Y48.703 E14.92643
G1 X49.238 Y48.668 E15.01341
G1 X50.082 Y48.687 E15.11472
G1 X53.622 Y48.988 E15.54105
G1 X56.318 Y49.139 E15.86508
G1 X59.079 Y49.214 E16.19652
G1 X61.808 Y49.212 E16.524
G1 X64.507 Y49.133 E16.84802
G1 X67.24 Y48.976 E17.17652
G1 X70.382 Y48.7 E17.55501
G1 X71.065 Y48.669 E17.63705
G1 X71.913 Y48.687 E17.73884
G1 X72.578 Y48.744 E17.81893
G1 X73.398 Y48.872 E17.91852
G1 X74.143 Y49.042 E18.01022
G1 X74.843 Y49.251 E18.09788
G1 X75.627 Y49.545 E18.19836
G1 X76.229 Y49.817 E18.27763
G1 X76.987 Y50.226 E18.38099
G1 X77.61 Y50.618 E18.46932
G1 X78.195 Y51.042 E18.55602
G1 X78.833 Y51.574 E18.6557
G1 X79.351 Y52.069 E18.74168
G1 X79.856 Y52.622 E18.83155
G1 X80.397 Y53.304 E18.93601
G1 X80.747 Y53.808 E19.00964
G1 X81.19 Y54.553 E19.11365
G1 X81.547 Y55.259 E19.20859
G1 X81.8 Y55.847 E19.2854
G1 X82.095 Y56.7 E19.39371
G1 X82.275 Y57.353 E19.47499
G1 X82.434 Y58.139 E19.57122
G1 X82.534 Y58.902 E19.66357
G1 X82.581 Y59.627 E19.75075
G1 X82.578 Y60.444 E19.84879
G1 X82.525 Y61.187 E19.93818
G1 X82.423 Y61.924 E20.02746
G1 X82.253 Y62.728 E20.12607
G1 X82.071 Y63.378 E20.20707
G1 X81.778 Y64.204 E20.31224
G1 X81.511 Y64.822 E20.39303
G1 X81.158 Y65.506 E20.4854
G1 X80.711 Y66.243 E20.58883
G1 X80.339 Y66.776 E20.66683
G1 X79.814 Y67.426 E20.76709
G1 X79.297 Y67.984 E20.85838
G1 X78.785 Y68.468 E20.94292
G1 X78.134 Y69.003 E21.04404
G1 X77.541 Y69.43 E21.13173
G1 X76.901 Y69.826 E21.22204
G1 X76.176 Y70.208 E21.32038
G1 X75.547 Y70.489 E21.40305
G1 X74.77 Y70.773 E21.50232
G1 X74.058 Y70.981 E21.59133
G1 X73.347 Y71.138 E21.67871
G1 X72.481 Y71.266 E21.78376
G1 X71.843 Y71.318 E21.86057
G1 X70.989 Y71.329 E21.96306
G1 X70.174 Y71.284 E22.06101
G1 X67.098 Y71.022 E22.43146
G1 X64.405 Y70.87 E22.75514
G1 X61.639 Y70.793 E23.08719
G1 X58.944 Y70.795 E23.41059
G1 X56.179 Y70.874 E23.74252
G1 X53.478 Y71.028 E24.06717
G1 X50.826 Y71.26 E24.38662
G1 X49.994 Y71.318 E24.48671
G1 X49.149 Y71.329 E24.58811
G1 X48.44 Y71.292 E24.67331
G1 X47.671 Y71.198 E24.76628
G1 X46.937 Y71.057 E24.85597
G1 X46.11 Y70.839 E24.9586
G1 X45.521 Y70.643 E25.03309
G1 X44.68 Y70.294 E25.14235
G1 X44.071 Y69.994 E25.22382
G1 X43.406 Y69.608 E25.31609
G1 X42.746 Y69.161 E25.41174
G1 X42.12 Y68.671 E25.50714
G1 X41.601 Y68.206 E25.59076
G1 X41.053 Y67.647 E25.6847
G1 X40.541 Y67.045 E25.77953
G1 X40.074 Y66.414 E25.87373
G1 X39.694 Y65.823 E25.95805
G1 X39.306 Y65.116 E26.05482
G1 X38.981 Y64.415 E26.14754
G1 X38.717 Y63.732 E26.23541
G1 X38.493 Y63.009 E26.32624
G1 X38.303 Y62.211 E26.42468
G1 X38.186 Y61.512 E26.50973
G1 X38.107 Y60.712 E26.60619
G1 X38.085 Y59.961 E26.69635
G1 X38.112 Y59.218 E26.78557
G1 X38.199 Y58.396 E26.88476
G1 X38.316 Y57.72 E26.96709
G1 X38.512 Y56.921 E27.06581
G1 X38.745 Y56.187 E27.15822
G1 X39.018 Y55.495 E27.24749
G1 X39.333 Y54.831 E27.33568
G1 X39.741 Y54.102 E27.43593
G1 X40.124 Y53.513 E27.52024
G1 X40.595 Y52.887 E27.61425
G1 X41.106 Y52.295 E27.70809
G1 X41.648 Y51.748 E27.8005
G1 X42.185 Y51.274 E27.88645
G0 F3600 X42.446 Y51.577
G1 F1800 X43.06 Y51.108 E27.97917
G1 X43.696 Y50.685 E28.07083
G1 X44.335 Y50.32 E28.15913
G1 X44.919 Y50.035 E28.23711
G1 X45.732 Y49.708 E28.34227
G1 X46.324 Y49.513 E28.41706
G1 X47.079 Y49.32 E28.51058
G1 X47.814 Y49.185 E28.60025
G1 X48.555 Y49.101 E28.68974
G1 X49.253 Y49.068 E28.7736
G1 X50.069 Y49.087 E28.87154
G1 X53.6 Y49.387 E29.29679
G1 X56.32 Y49.539 E29.6237
G1 X59.068 Y49.614 E29.95358
G1 X61.786 Y49.612 E30.27974
G1 X64.542 Y49.531 E30.6106
G1 X67.265 Y49.375 E30.9379
G1 X70.417 Y49.098 E31.3176
G1 X71.08 Y49.068 E31.39724
G1 X71.9 Y49.087 E31.49566
G1 X72.539 Y49.142 E31.57263
G1 X73.332 Y49.267 E31.66896
G1 X74.049 Y49.431 E31.75723
G1 X74.725 Y49.633 E31.84189
G1 X75.482 Y49.918 E31.93895
G1 X76.06 Y50.179 E32.01506
G1 X76.794 Y50.576 E32.1152
G1 X77.393 Y50.954 E32.20019
G1 X77.957 Y51.363 E32.28379
G1 X78.573 Y51.879 E32.38022
G1 X79.072 Y52.355 E32.46298
G1 X79.557 Y52.888 E32.54945
G1 X80.081 Y53.55 E32.65077
G1 X80.416 Y54.032 E32.7212
G1 X80.844 Y54.754 E32.82192
G1 X81.188 Y55.435 E32.91348
G1 X81.43 Y56.001 E32.98735
G1 X81.715 Y56.827 E33.0922
G1 X81.889 Y57.456 E33.17051
G1 X82.041 Y58.214 E33.26329
G1 X82.137 Y58.95 E33.35235
G1 X82.181 Y59.648 E33.43628
G1 X82.178 Y60.439 E33.5312
G1 X82.126 Y61.154 E33.61723
G1 X82.027 Y61.865 E33.70337
G1 X81.862 Y62.641 E33.79857
G1 X81.687 Y63.266 E33.87646
G1 X81.402 Y64.067 E33.97848
G1 X81.146 Y64.659 E34.05588
G1 X80.804 Y65.319 E34.14508
G1 X80.371 Y66.032 E34.24518
G1 X80.014 Y66.543 E34.31998
G1 X79.505 Y67.171 E34.41699
G1 X79.006 Y67.709 E34.50504
G1 X78.514 Y68.174 E34.58628
G1 X77.883 Y68.692 E34.68425
G1 X77.311 Y69.103 E34.76877
G1 X76.695 Y69.483 E34.85562
G1 X75.993 Y69.852 E34.95079
G1 X75.388 Y70.122 E35.03029
G1 X74.637 Y70.396 E35.12622
G1 X73.949 Y70.596 E35.2122
G1 X73.265 Y70.747 E35.29626
G1 X72.427 Y70.869 E35.39788
G1 X71.815 Y70.919 E35.47156
G1 X70.987 Y70.929 E35.57093
G1 X70.2 Y70.885 E35.66551
G1 X67.12 Y70.623 E36.03645
G1 X64.401 Y70.47 E36.36325
G1 X61.651 Y70.393 E36.69338
G1 X58.932 Y70.395 E37.01966
G1 X56.179 Y70.474 E37.35015
G1 X53.454 Y70.629 E37.67768
G1 X50.791 Y70.862 E37.99846
G1 X49.967 Y70.919 E38.09758
G1 X49.148 Y70.929 E38.19586
G1 X48.466 Y70.892 E38.27782
G1 X47.723 Y70.801 E38.36765
G1 X47.017 Y70.665 E38.45393
G1 X46.216 Y70.453 E38.55336
G1 X45.651 Y70.265 E38.62481
G1 X44.837 Y69.926 E38.73063
G1 X44.252 Y69.637 E38.80892
G1 X43.61 Y69.264 E38.89802
G1 X42.974 Y68.833 E38.99022
G1 X42.37 Y68.358 E39.08243
G1 X41.871 Y67.911 E39.16282
G1 X41.342 Y67.37 E39.25362
G1 X40.848 Y66.789 E39.34513
G1 X40.397 Y66.179 E39.43616
G1 X40.034 Y65.611 E39.51705
G1 X39.659 Y64.926 E39.61077
G1 X39.346 Y64.251 E39.70005
G1 X39.091 Y63.592 E39.78484
G1 X38.876 Y62.895 E39.87237
G1 X38.693 Y62.123 E39.96758
G1 X38.581 Y61.45 E40.04945
G1 X38.506 Y60.677 E40.14265
G1 X38.485 Y59.954 E40.22944
G1 X38.512 Y59.237 E40.31554
G1 X38.596 Y58.442 E40.41148
G1 X38.709 Y57.792 E40.49065
G1 X38.9 Y57.02 E40.58608
G1 X39.125 Y56.312 E40.67523
G1 X39.388 Y55.647 E40.76104
G1 X39.692 Y55.005 E40.84628
G1 X40.088 Y54.301 E40.94321
G1 X40.457 Y53.736 E41.02419
G1 X40.912 Y53.13 E41.11512
G1 X41.406 Y52.56 E41.20564
G1 X41.929 Y52.032 E41.29482
G1 X42.446 Y51.577 E41.37746
G10
;MESH:wheel_shift_1.stl(1)
G0 F3600 X47.864 Y51.729
G0 X48.571 Y52.92
G0 X50.48 Y53.03
G0 X50.495 Y52.932
;TYPE:WALL-INNER
G11
G1 F1800 X50.98 Y53.023 E41.43668
G1 X51.45 Y53.145 E41.49495
G1 X51.894 Y53.293 E41.55111
G1 X52.345 Y53.477 E41.60956
G1 X52.79 Y53.695 E41.66902
G1 X53.197 Y53.931 E41.72548
G1 X53.603 Y54.203 E41.78412
G1 X53.978 Y54.493 E41.84101
G1 X54.336 Y54.811 E41.89847
G1 X54.69 Y55.17 E41.95897
G1 X55.002 Y55.534 E42.0165
G1 X55.275 Y55.899 E42.0712
G1 X55.55 Y56.324 E42.13194
G1 X55.787 Y56.752 E42.19065
G1 X55.99 Y57.183 E42.24782
G1 X56.162 Y57.626 E42.30485
G1 X56.309 Y58.097 E42.36406
G1 X56.421 Y58.56 E42.42122
G1 X56.501 Y59.026 E42.47796
G1 X56.55 Y59.509 E42.53621
G1 X56.568 Y59.993 E42.59433
G1 X56.55 Y60.488 E42.65377
G1 X56.502 Y60.967 E42.71154
G1 X56.421 Y61.438 E42.76889
G1 X56.31 Y61.899 E42.82579
G1 X56.16 Y62.378 E42.88603
G1 X55.99 Y62.817 E42.94252
G1 X55.787 Y63.248 E42.99969
G1 X55.55 Y63.675 E43.05829
G1 X55.285 Y64.085 E43.11687
G1 X54.994 Y64.475 E43.17526
G1 X54.69 Y64.83 E43.23135
G1 X54.339 Y65.186 E43.29134
G1 X53.978 Y65.507 E43.34931
G1 X53.603 Y65.797 E43.4062
G1 X53.197 Y66.069 E43.46484
G1 X52.79 Y66.305 E43.5213
G1 X52.341 Y66.525 E43.5813
G1 X51.9 Y66.705 E43.63846
G1 X51.45 Y66.855 E43.69538
G1 X50.98 Y66.977 E43.75365
G1 X50.495 Y67.068 E43.81286
G1 X50.018 Y67.124 E43.87049
G1 X49.542 Y67.149 E43.92769
G1 X49.057 Y67.14 E43.9859
G1 X48.569 Y67.099 E44.04467
G1 X48.105 Y67.028 E44.101
G1 X47.618 Y66.92 E44.16086
G1 X47.162 Y66.785 E44.21793
G1 X46.716 Y66.62 E44.27499
G1 X46.264 Y66.416 E44.3345
G1 X45.84 Y66.191 E44.3921
G1 X45.435 Y65.938 E44.4494
G1 X45.035 Y65.65 E44.50855
G1 X44.668 Y65.343 E44.56597
G1 X44.325 Y65.018 E44.62267
G1 X43.987 Y64.65 E44.68263
G1 X43.691 Y64.281 E44.7394
G1 X43.41 Y63.876 E44.79855
G1 X43.166 Y63.47 E44.85539
G1 X42.95 Y63.048 E44.91228
G1 X42.752 Y62.585 E44.9727
G1 X42.596 Y62.141 E45.02918
G1 X42.467 Y61.675 E45.0872
G1 X42.366 Y61.183 E45.14747
G1 X42.305 Y60.734 E45.20185
G1 X42.272 Y60.237 E45.26162
G1 X42.272 Y59.763 E45.3185
G1 X42.305 Y59.266 E45.37827
G1 X42.366 Y58.817 E45.43264
G1 X42.467 Y58.325 E45.49292
G1 X42.597 Y57.856 E45.55132
G1 X42.752 Y57.415 E45.60741
G1 X42.951 Y56.95 E45.66811
G1 X43.167 Y56.528 E45.72499
G1 X43.41 Y56.124 E45.78157
G1 X43.691 Y55.719 E45.84072
G1 X43.996 Y55.338 E45.89929
G1 X44.317 Y54.99 E45.9561
G1 X44.668 Y54.657 E46.01416
G1 X45.048 Y54.34 E46.07354
G1 X45.425 Y54.068 E46.12933
G1 X45.84 Y53.809 E46.18803
G1 X46.264 Y53.584 E46.24563
G1 X46.716 Y53.38 E46.30514
G1 X47.15 Y53.22 E46.36064
G1 X47.646 Y53.073 E46.42272
G1 X48.09 Y52.974 E46.47731
G1 X48.569 Y52.901 E46.53546
G1 X49.057 Y52.86 E46.59422
G1 X49.542 Y52.851 E46.65243
G1 X50.018 Y52.876 E46.70963
G1 X50.495 Y52.932 E46.76726
G0 F3600 X50.48 Y53.03
G0 X52.09 Y54.999
G0 X54.147 Y57.607
G0 X54.058 Y57.652
G1 F1800 X53.71 Y57.066 E46.84905
G1 X53.291 Y56.531 E46.93059
G1 X52.851 Y56.095 E47.00493
G1 X52.312 Y55.68 E47.08656
G1 X51.722 Y55.339 E47.16833
G1 X51.092 Y55.077 E47.25021
G1 X50.433 Y54.9 E47.33209
G1 X49.759 Y54.811 E47.41367
G1 X49.141 Y54.808 E47.48783
G1 X48.467 Y54.888 E47.56928
G1 X47.806 Y55.056 E47.65112
G1 X47.174 Y55.309 E47.73282
G1 X46.579 Y55.643 E47.8147
G1 X46.034 Y56.052 E47.89646
G1 X45.588 Y56.484 E47.97097
G1 X45.162 Y57.012 E48.05238
G1 X44.808 Y57.593 E48.13403
G1 X44.532 Y58.219 E48.21612
G1 X44.341 Y58.873 E48.29788
G1 X44.237 Y59.546 E48.3796
G1 X44.222 Y60.163 E48.45366
G1 X44.286 Y60.84 E48.53526
G1 X44.44 Y61.503 E48.61694
G1 X44.68 Y62.141 E48.69874
G1 X45 Y62.743 E48.78055
G1 X45.397 Y63.297 E48.86234
G1 X45.818 Y63.751 E48.93664
G1 X46.337 Y64.189 E49.01813
G1 X46.912 Y64.556 E49.09999
G1 X47.529 Y64.845 E49.18175
G1 X48.18 Y65.051 E49.26369
G1 X48.851 Y65.169 E49.34544
G1 X49.467 Y65.199 E49.41945
G1 X50.144 Y65.148 E49.50092
G1 X50.812 Y65.009 E49.5828
G1 X51.455 Y64.784 E49.66455
G1 X52.064 Y64.477 E49.74639
G1 X52.626 Y64.092 E49.82813
G1 X53.134 Y63.638 E49.90989
G1 X53.54 Y63.169 E49.98433
G1 X53.917 Y62.604 E50.06584
G1 X54.22 Y61.994 E50.14757
G1 X54.44 Y61.348 E50.22946
G1 X54.572 Y60.684 E50.3107
G1 X54.614 Y60.159 E50.3739
G1 X54.599 Y59.546 E50.44748
G1 X54.507 Y58.934 E50.52175
G1 X54.325 Y58.281 E50.6031
G1 X54.058 Y57.652 E50.68509
G0 F3600 X54.147 Y57.607
G0 X50.48 Y53.03
G0 X50.559 Y52.537
;TYPE:WALL-OUTER
G1 F1800 X51.064 Y52.632 E50.74676
G1 X51.559 Y52.76 E50.80811
G1 X52.042 Y52.921 E50.86921
G1 X52.506 Y53.111 E50.92937
G1 X52.976 Y53.341 E50.99216
G1 X53.413 Y53.594 E51.05276
G1 X53.836 Y53.878 E51.1139
G1 X54.237 Y54.188 E51.17472
G1 X54.614 Y54.523 E51.23524
G1 X54.981 Y54.896 E51.29803
G1 X55.309 Y55.278 E51.35845
G1 X55.611 Y55.682 E51.41898
G1 X55.895 Y56.121 E51.48172
G1 X56.142 Y56.567 E51.5429
G1 X56.359 Y57.029 E51.60415
G1 X56.539 Y57.492 E51.66377
G1 X56.695 Y57.991 E51.7265
G1 X56.812 Y58.474 E51.78614
G1 X56.898 Y58.976 E51.84726
G1 X56.95 Y59.484 E51.90854
G1 X56.968 Y59.993 E51.96965
G1 X56.95 Y60.511 E52.03185
G1 X56.899 Y61.018 E52.093
G1 X56.812 Y61.524 E52.15461
G1 X56.695 Y62.009 E52.21448
G1 X56.539 Y62.507 E52.2771
G1 X56.359 Y62.971 E52.33683
G1 X56.142 Y63.433 E52.39808
G1 X55.895 Y63.879 E52.45926
G1 X55.612 Y64.316 E52.52173
G1 X55.309 Y64.722 E52.58252
G1 X54.981 Y65.104 E52.64294
G1 X54.615 Y65.476 E52.70557
G1 X54.237 Y65.812 E52.76626
G1 X53.836 Y66.122 E52.82708
G1 X53.413 Y66.406 E52.88822
G1 X52.976 Y66.659 E52.94881
G1 X52.507 Y66.889 E53.0115
G1 X52.042 Y67.079 E53.07177
G1 X51.559 Y67.24 E53.13287
G1 X51.064 Y67.368 E53.19422
G1 X50.559 Y67.463 E53.25589
G1 X50.053 Y67.522 E53.31702
G1 X49.542 Y67.549 E53.37842
G1 X49.031 Y67.54 E53.43975
G1 X48.533 Y67.498 E53.49973
G1 X48.018 Y67.419 E53.56225
G1 X47.531 Y67.311 E53.62211
G1 X47.036 Y67.164 E53.68407
G1 X46.551 Y66.985 E53.74611
G1 X46.099 Y66.781 E53.80562
G1 X45.642 Y66.538 E53.86773
G1 X45.204 Y66.265 E53.92966
G1 X44.801 Y65.975 E53.98924
G1 X44.403 Y65.643 E54.05144
G1 X44.03 Y65.289 E54.11315
G1 X43.692 Y64.921 E54.17311
G1 X43.366 Y64.515 E54.23559
