;FLAVOR:UltiGCode
;TIME:1786
;MATERIAL:3509
;MATERIAL2:0
;NOZZLE_DIAMETER:0.4
;MINX:25.141
;MINY:25.141
;MINZ:0.3
;MAXX:94.859
;MAXY:94.859
;MAXZ:4.95
;Generated with Cura_SteamEngine 4.7.0
M82 ;absolute extrusion mode
G0 F3000 Y50 ;avoid prime blob
G92 E0
G92 E0
G10
;LAYER_COUNT:32
;LAYER:0
M107
G0 F3600 X44.874 Y29.079 Z0.3
;TYPE:SKIRT
G11
G1 F1800 X45.146 Y28.655 E0.06045
G1 X45.489 Y28.2 E0.12883
G1 X45.686 Y27.954 E0.16664
G1 X46.026 Y27.585 E0.22686
G1 X46.432 Y27.202 E0.29383
G1 X46.69 Y26.972 E0.33531
G1 X47.101 Y26.658 E0.39738
G1 X47.558 Y26.359 E0.46291
G1 X47.872 Y26.167 E0.50708
G1 X48.318 Y25.937 E0.56729
G1 X48.871 Y25.702 E0.6394
G1 X49.146 Y25.594 E0.67485
G1 X49.644 Y25.439 E0.73744
G1 X50.199 Y25.311 E0.80579
G1 X50.5 Y25.249 E0.84267
G1 X51.019 Y25.181 E0.90548
G1 X51.626 Y25.148 E0.97842
G1 X51.919 Y25.141 E1.0136
G1 X52.423 Y25.164 E1.07414
G1 X53.02 Y25.236 E1.1463
G1 X53.304 Y25.278 E1.18075
G1 X53.822 Y25.394 E1.24445
G1 X54.31 Y25.542 E1.30564
G1 X54.661 Y25.658 E1.35
G1 X55.142 Y25.859 E1.41256
G1 X55.716 Y26.15 E1.48978
G1 X55.944 Y26.274 E1.52093
G1 X56.382 Y26.555 E1.58338
G1 X56.847 Y26.906 E1.65329
G1 X57.409 Y27.353 E1.73946
G1 X59.625 Y29.065 E2.07549
G1 X61.812 Y30.659 E2.40024
G1 X64.048 Y32.192 E2.72557
G1 X66.352 Y33.679 E3.05463
G1 X68.684 Y35.092 E3.38183
G1 X71.038 Y36.429 E3.7067
G1 X73.452 Y37.711 E4.03469
G1 X75.93 Y38.939 E4.36656
G1 X78.375 Y40.064 E4.68953
G1 X80.894 Y41.139 E5.01819
G1 X83.404 Y42.128 E5.34192
G1 X85.989 Y43.062 E5.67175
G1 X88.755 Y43.957 E6.02062
G1 X89.626 Y44.249 E6.13085
G1 X90.108 Y44.45 E6.19352
G1 X90.578 Y44.688 E6.25674
G1 X90.932 Y44.88 E6.30506
G1 X91.359 Y45.155 E6.36601
G1 X91.77 Y45.465 E6.42779
G1 X92.035 Y45.676 E6.46844
G1 X92.409 Y46.019 E6.52933
G1 X92.788 Y46.42 E6.59554
G1 X93.042 Y46.706 E6.64145
G1 X93.345 Y47.106 E6.70166
G1 X93.634 Y47.548 E6.76503
G1 X93.831 Y47.868 E6.81013
G1 X94.063 Y48.318 E6.87088
G1 X94.298 Y48.871 E6.94298
G1 X94.406 Y49.146 E6.97844
G1 X94.561 Y49.644 E7.04103
G1 X94.689 Y50.199 E7.10937
G1 X94.751 Y50.5 E7.14625
G1 X94.819 Y51.019 E7.20906
G1 X94.852 Y51.626 E7.28201
G1 X94.859 Y51.918 E7.31706
G1 X94.836 Y52.421 E7.37749
G1 X94.765 Y53.013 E7.44903
G1 X94.724 Y53.294 E7.48311
G1 X94.607 Y53.819 E7.54766
G1 X94.458 Y54.31 E7.60923
G1 X94.342 Y54.661 E7.65359
G1 X94.141 Y55.142 E7.71615
G1 X93.852 Y55.712 E7.79284
G1 X93.73 Y55.937 E7.82355
G1 X93.449 Y56.376 E7.8861
G1 X93.101 Y56.838 E7.95551
G1 X92.647 Y57.409 E8.04305
G1 X90.935 Y59.625 E8.37908
G1 X89.353 Y61.796 E8.70143
G1 X87.802 Y64.058 E9.03055
G1 X86.316 Y66.36 E9.35935
G1 X84.908 Y68.684 E9.68542
G1 X83.571 Y71.038 E10.01028
G1 X82.289 Y73.452 E10.33828
G1 X81.061 Y75.93 E10.67015
G1 X79.936 Y78.375 E10.99311
G1 X78.861 Y80.894 E11.32177
G1 X77.872 Y83.404 E11.64551
G1 X76.938 Y85.989 E11.97533
G1 X76.044 Y88.754 E12.32405
G1 X75.753 Y89.623 E12.43402
G1 X75.551 Y90.106 E12.49684
G1 X75.312 Y90.578 E12.56033
G1 X75.126 Y90.921 E12.60715
G1 X74.854 Y91.345 E12.6676
G1 X74.512 Y91.799 E12.73581
G1 X74.316 Y92.044 E12.77346
G1 X73.976 Y92.413 E12.83367
G1 X73.569 Y92.797 E12.90082
G1 X73.31 Y93.028 E12.94246
G1 X72.899 Y93.342 E13.00453
G1 X72.442 Y93.641 E13.07007
G1 X72.128 Y93.833 E13.11423
G1 X71.682 Y94.063 E13.17445
G1 X71.129 Y94.298 E13.24655
G1 X70.854 Y94.406 E13.28201
G1 X70.356 Y94.561 E13.34459
G1 X69.801 Y94.689 E13.41294
G1 X69.5 Y94.751 E13.44982
G1 X68.981 Y94.819 E13.51263
G1 X68.374 Y94.852 E13.58558
G1 X68.081 Y94.859 E13.62075
G1 X67.577 Y94.836 E13.68129
G1 X66.98 Y94.764 E13.75345
G1 X66.696 Y94.722 E13.7879
G1 X66.178 Y94.606 E13.8516
G1 X65.69 Y94.458 E13.9128
G1 X65.339 Y94.342 E13.95716
G1 X64.858 Y94.141 E14.01971
G1 X64.284 Y93.85 E14.09694
G1 X64.056 Y93.726 E14.12808
G1 X63.618 Y93.445 E14.19053
G1 X63.153 Y93.094 E14.26044
G1 X62.591 Y92.647 E14.34661
G1 X60.375 Y90.935 E14.68265
G1 X58.188 Y89.341 E15.0074
G1 X55.952 Y87.808 E15.33272
G1 X53.648 Y86.321 E15.66179
G1 X51.316 Y84.908 E15.98899
G1 X48.962 Y83.571 E16.31385
G1 X46.548 Y82.289 E16.64185
G1 X44.07 Y81.061 E16.97372
G1 X41.625 Y79.936 E17.29669
G1 X39.106 Y78.861 E17.62534
G1 X36.596 Y77.872 E17.94908
G1 X34.011 Y76.938 E18.27891
G1 X31.245 Y76.043 E18.62777
G1 X30.374 Y75.751 E18.73801
G1 X29.892 Y75.55 E18.80067
G1 X29.422 Y75.312 E18.86389
G1 X29.072 Y75.122 E18.91168
G1 X28.651 Y74.851 E18.97177
G1 X28.201 Y74.512 E19.03937
G1 X27.956 Y74.316 E19.07702
G1 X27.587 Y73.976 E19.13723
G1 X27.203 Y73.569 E19.20438
G1 X26.972 Y73.31 E19.24603
G1 X26.658 Y72.899 E19.30809
G1 X26.359 Y72.442 E19.37363
G1 X26.167 Y72.128 E19.41779
G1 X25.937 Y71.682 E19.47801
G1 X25.701 Y71.127 E19.55038
G1 X25.592 Y70.849 E19.58622
G1 X25.438 Y70.351 E19.64877
G1 X25.311 Y69.801 E19.7165
G1 X25.249 Y69.5 E19.75338
G1 X25.181 Y68.981 E19.81619
G1 X25.148 Y68.374 E19.88914
G1 X25.141 Y68.082 E19.92419
G1 X25.164 Y67.579 E19.98462
G1 X25.235 Y66.987 E20.05616
G1 X25.276 Y66.706 E20.09024
G1 X25.393 Y66.181 E20.15479
G1 X25.542 Y65.69 E20.21636
G1 X25.658 Y65.339 E20.26072
G1 X25.859 Y64.858 E20.32328
G1 X26.148 Y64.288 E20.39997
G1 X26.27 Y64.063 E20.43068
G1 X26.552 Y63.623 E20.49339
G1 X26.906 Y63.153 E20.564
G1 X27.353 Y62.591 E20.65017
G1 X29.065 Y60.375 E20.98621
G1 X30.647 Y58.204 E21.30856
G1 X32.201 Y55.937 E21.63838
G1 X33.684 Y53.64 E21.96647
G1 X35.092 Y51.316 E22.29254
G1 X36.429 Y48.962 E22.61741
G1 X37.711 Y46.548 E22.9454
G1 X38.939 Y44.07 E23.27727
G1 X40.064 Y41.625 E23.60024
G1 X41.139 Y39.106 E23.9289
G1 X42.128 Y36.596 E24.25263
G1 X43.062 Y34.011 E24.58246
G1 X43.956 Y31.246 E24.93117
G1 X44.247 Y30.377 E25.04115
G1 X44.449 Y29.894 E25.10397
G1 X44.688 Y29.422 E25.16746
G1 X44.874 Y29.079 E25.21428
G0 F3600 X45.045 Y29.602
G1 F1800 X45.467 Y28.895 E25.31308
G1 X45.801 Y28.45 E25.37985
G1 X46.3 Y27.876 E25.47112
G1 X46.706 Y27.493 E25.5381
G1 X47.32 Y26.993 E25.63312
G1 X47.777 Y26.694 E25.69865
G1 X48.476 Y26.305 E25.79465
G1 X49.017 Y26.074 E25.86524
G1 X49.735 Y25.829 E25.95627
G1 X50.279 Y25.703 E26.02328
G1 X51.042 Y25.58 E26.11603
G1 X51.636 Y25.548 E26.18741
G1 X51.929 Y25.541 E26.22258
G1 X52.864 Y25.619 E26.33517
G1 X53.706 Y25.777 E26.43797
G1 X54.281 Y25.952 E26.5101
G1 X54.962 Y26.216 E26.59774
G1 X55.439 Y26.457 E26.66187
G1 X56.142 Y26.875 E26.76002
G1 X56.598 Y27.219 E26.82856
G1 X57.192 Y27.692 E26.91968
G1 X59.35 Y29.359 E27.24691
G1 X61.573 Y30.979 E27.57699
G1 X63.852 Y32.541 E27.90854
G1 X66.133 Y34.014 E28.23437
G1 X68.486 Y35.439 E28.56447
G1 X70.874 Y36.796 E28.89407
G1 X73.266 Y38.065 E29.219
G1 X75.722 Y39.283 E29.54797
G1 X78.23 Y40.437 E29.87926
G1 X80.739 Y41.508 E30.20663
G1 X83.26 Y42.502 E30.53181
G1 X85.848 Y43.436 E30.86198
G1 X88.628 Y44.336 E31.21262
G1 X89.499 Y44.628 E31.32286
G1 X89.928 Y44.807 E31.37864
G1 X90.398 Y45.045 E31.44186
G1 X91.119 Y45.475 E31.5426
G1 X91.521 Y45.778 E31.60301
G1 X92.119 Y46.294 E31.69779
G1 X92.498 Y46.695 E31.764
G1 X93.01 Y47.325 E31.86142
G1 X93.299 Y47.767 E31.92479
G1 X93.695 Y48.476 E32.02224
G1 X93.926 Y49.017 E32.09283
G1 X94.171 Y49.735 E32.18387
G1 X94.297 Y50.279 E32.25088
G1 X94.42 Y51.042 E32.34362
G1 X94.452 Y51.635 E32.41488
G1 X94.438 Y52.374 E32.50358
G1 X94.369 Y52.955 E32.57379
G1 X94.224 Y53.703 E32.66522
G1 X94.048 Y54.281 E32.73773
G1 X93.784 Y54.962 E32.82537
G1 X93.543 Y55.439 E32.8895
G1 X93.128 Y56.137 E32.98695
G1 X92.788 Y56.589 E33.05482
G1 X92.302 Y57.2 E33.14851
G1 X90.641 Y59.35 E33.47453
G1 X89.004 Y61.596 E33.80804
G1 X87.48 Y63.819 E34.13147
G1 X85.981 Y66.142 E34.46323
G1 X84.569 Y68.472 E34.79016
G1 X83.204 Y70.874 E35.1217
G1 X81.935 Y73.266 E35.44663
G1 X80.717 Y75.722 E35.7756
G1 X79.563 Y78.23 E36.10689
G1 X78.492 Y80.739 E36.43425
G1 X77.498 Y83.26 E36.75944
G1 X76.564 Y85.848 E37.08961
G1 X75.664 Y88.627 E37.44014
G1 X75.373 Y89.496 E37.55011
G1 X75.194 Y89.926 E37.606
G1 X74.955 Y90.398 E37.66949
G1 X74.533 Y91.105 E37.76829
G1 X74.2 Y91.549 E37.83489
G1 X73.701 Y92.123 E37.92616
G1 X73.294 Y92.507 E37.99331
G1 X72.68 Y93.007 E38.08833
G1 X72.223 Y93.306 E38.15386
G1 X71.524 Y93.695 E38.24986
G1 X70.983 Y93.926 E38.32045
G1 X70.265 Y94.171 E38.41149
G1 X69.721 Y94.297 E38.47849
G1 X68.958 Y94.42 E38.57124
G1 X68.364 Y94.452 E38.64262
G1 X67.624 Y94.438 E38.73144
G1 X67.039 Y94.369 E38.80212
G1 X66.294 Y94.223 E38.89322
G1 X65.719 Y94.048 E38.96535
G1 X65.038 Y93.784 E39.05299
G1 X64.561 Y93.543 E39.11712
G1 X63.858 Y93.125 E39.21527
G1 X63.402 Y92.781 E39.28382
G1 X62.8 Y92.302 E39.37613
G1 X60.65 Y90.641 E39.70216
G1 X58.427 Y89.021 E40.03224
G1 X56.148 Y87.459 E40.36379
G1 X53.867 Y85.986 E40.68962
G1 X51.514 Y84.561 E41.01972
G1 X49.126 Y83.204 E41.34932
G1 X46.734 Y81.935 E41.67425
G1 X44.278 Y80.717 E42.00322
G1 X41.77 Y79.563 E42.33451
G1 X39.261 Y78.492 E42.66188
G1 X36.74 Y77.498 E42.98706
G1 X34.152 Y76.564 E43.31723
G1 X31.372 Y75.664 E43.66788
G1 X30.501 Y75.372 E43.77811
G1 X30.072 Y75.193 E43.83389
G1 X29.602 Y74.955 E43.89711
G1 X28.891 Y74.53 E43.99651
G1 X28.451 Y74.2 E44.06251
G1 X27.877 Y73.701 E44.15378
G1 X27.493 Y73.294 E44.22093
G1 X26.993 Y72.68 E44.31595
G1 X26.694 Y72.223 E44.38148
G1 X26.305 Y71.524 E44.47748
G1 X26.074 Y70.981 E44.54829
G1 X25.827 Y70.26 E44.63975
G1 X25.703 Y69.721 E44.70612
G1 X25.58 Y68.958 E44.79886
G1 X25.548 Y68.365 E44.87012
G1 X25.562 Y67.626 E44.95882
G1 X25.631 Y67.045 E45.02903
G1 X25.776 Y66.297 E45.12046
G1 X25.952 Y65.719 E45.19296
G1 X26.216 Y65.038 E45.28061
G1 X26.457 Y64.561 E45.34474
G1 X26.873 Y63.862 E45.44235
G1 X27.219 Y63.402 E45.51142
G1 X27.698 Y62.8 E45.60374
G1 X29.359 Y60.65 E45.92976
G1 X30.996 Y58.404 E46.26328
G1 X32.52 Y56.181 E46.5867
G1 X34.019 Y53.858 E46.91846
G1 X35.439 Y51.514 E47.24733
G1 X36.796 Y49.126 E47.57693
G1 X38.065 Y46.734 E47.90186
G1 X39.283 Y44.278 E48.23083
G1 X40.437 Y41.77 E48.56212
G1 X41.513 Y39.25 E48.89094
G1 X42.502 Y36.74 E49.21467
G1 X43.436 Y34.152 E49.54484
G1 X44.336 Y31.373 E49.89537
G1 X44.627 Y30.504 E50.00534
G1 X44.806 Y30.074 E50.06124
G1 X45.045 Y29.602 E50.12472
G10
;MESH:bearing_shell_3.stl
G0 F3600 X47.418 Y30.526
G0 X48.554 Y31.124
G0 X51.385 Y31.058
G0 X51.404 Y31.156
;TYPE:WALL-INNER
G11
G1 F1800 X50.8 Y31.377 E50.2019
G1 X50.291 Y31.767 E50.27885
G1 X49.922 Y32.296 E50.35625
G1 X49.73 Y32.91 E50.43345
G1 X49.732 Y33.554 E50.51073
G1 X49.929 Y34.165 E50.58776
G1 X50.301 Y34.691 E50.66507
G1 X50.814 Y35.078 E50.74219
G1 X51.42 Y35.294 E50.81939
G1 X52.065 Y35.316 E50.89683
G1 X52.683 Y35.141 E50.97391
G1 X53.221 Y34.791 E51.05093
G1 X53.629 Y34.293 E51.12818
G1 X53.858 Y33.716 E51.20268
G1 X53.91 Y33.367 E51.24502
G1 X53.863 Y32.738 E51.32071
G1 X53.621 Y32.14 E51.39812
G1 X53.21 Y31.645 E51.47533
G1 X52.668 Y31.298 E51.55256
G1 X52.048 Y31.13 E51.62964
G1 X51.404 Y31.156 E51.70698
G0 F3600 X51.385 Y31.058
G0 X52.684 Y31.262
G0 X56.648 Y35.775
G0 X58.735 Y42.659
G0 X59.042 Y43.407
G0 X59.505 Y44.126
G0 X60.091 Y44.747
G0 X60.781 Y45.251
G0 X71.771 Y51.094
G0 X72.58 Y51.39
G0 X74.282 Y51.578
G0 X74.272 Y51.479
G1 F1800 X75.072 Y51.314 E51.805
G1 X85.632 Y48.087 E53.13005
G1 X86.279 Y47.949 E53.20944
G1 X86.97 Y47.921 E53.29243
G1 X87.635 Y48.011 E53.37295
G1 X88.279 Y48.217 E53.45409
G1 X88.886 Y48.538 E53.53649
G1 X89.422 Y48.95 E53.61761
G1 X89.878 Y49.454 E53.69917
G1 X90.238 Y50.024 E53.78007
G1 X90.495 Y50.653 E53.86161
G1 X90.641 Y51.319 E53.94343
G1 X90.669 Y52.007 E54.02606
G1 X90.579 Y52.672 E54.10659
G1 X90.372 Y53.319 E54.1881
G1 X90.055 Y53.921 E54.26975
G1 X89.64 Y54.459 E54.35128
G1 X89.14 Y54.912 E54.43224
G1 X88.559 Y55.277 E54.51458
G1 X87.89 Y55.551 E54.60133
G1 X77.354 Y58.772 E55.92342
G1 X76.611 Y59.077 E56.0198
G1 X75.898 Y59.536 E56.12155
G1 X75.283 Y60.117 E56.22308
G1 X74.783 Y60.801 E56.32475
G1 X74.419 Y61.568 E56.42663
G1 X74.208 Y62.352 E56.52406
G1 X74.078 Y63.031 E56.60702
G1 X73.92 Y63.687 E56.68799
G1 X73.737 Y64.318 E56.76683
G1 X73.521 Y64.954 E56.84743
G1 X73.295 Y65.533 E56.92201
G1 X73.018 Y66.156 E57.00383
G1 X72.716 Y66.756 E57.08444
G1 X72.388 Y67.341 E57.16492
G1 X72.041 Y67.897 E57.24356
G1 X71.667 Y68.439 E57.32259
G1 X71.261 Y68.974 E57.40318
G1 X70.85 Y69.468 E57.48029
G1 X70.386 Y69.975 E57.56277
G1 X69.897 Y70.461 E57.6455
G1 X69.373 Y71.06 E57.741
G1 X68.942 Y71.788 E57.84252
G1 X68.648 Y72.59 E57.94503
G1 X68.509 Y73.424 E58.04649
G1 X68.521 Y74.272 E58.14826
G1 X68.686 Y75.072 E58.24628
G1 X71.913 Y85.63 E59.57109
G1 X72.051 Y86.279 E59.65072
G1 X72.079 Y86.97 E59.7337
G1 X71.989 Y87.635 E59.81423
G1 X71.783 Y88.279 E59.89537
G1 X71.462 Y88.886 E59.97777
G1 X71.049 Y89.422 E60.05897
G1 X70.546 Y89.878 E60.14044
G1 X69.972 Y90.24 E60.22187
G1 X69.344 Y90.497 E60.3033
G1 X68.682 Y90.641 E60.3846
G1 X67.993 Y90.669 E60.46734
G1 X67.328 Y90.579 E60.54787
G1 X66.681 Y90.372 E60.62939
G1 X66.079 Y90.055 E60.71103
G1 X65.541 Y89.64 E60.79257
G1 X65.088 Y89.14 E60.87353
G1 X64.723 Y88.559 E60.95587
G1 X64.449 Y87.89 E61.04262
G1 X61.228 Y77.354 E62.3647
G1 X60.923 Y76.611 E62.46108
G1 X60.464 Y75.898 E62.56284
G1 X59.883 Y75.283 E62.66436
G1 X59.199 Y74.783 E62.76603
G1 X58.432 Y74.419 E62.86791
G1 X57.648 Y74.208 E62.96534
G1 X56.956 Y74.075 E63.0499
G1 X56.313 Y73.92 E63.12927
G1 X55.681 Y73.737 E63.20823
G1 X55.06 Y73.525 E63.28697
G1 X54.45 Y73.287 E63.36554
G1 X53.837 Y73.014 E63.44607
G1 X53.244 Y72.716 E63.52571
G1 X52.659 Y72.388 E63.60619
G1 X52.098 Y72.038 E63.68554
G1 X51.561 Y71.667 E63.76386
G1 X51.026 Y71.261 E63.84445
G1 X50.521 Y70.84 E63.92335
G1 X50.024 Y70.385 E64.00421
G1 X49.539 Y69.897 E64.08677
G1 X48.94 Y69.373 E64.18227
G1 X48.212 Y68.942 E64.28379
G1 X47.41 Y68.648 E64.3863
G1 X46.576 Y68.509 E64.48776
G1 X45.728 Y68.521 E64.58953
G1 X44.928 Y68.686 E64.68755
G1 X34.368 Y71.913 E66.0126
G1 X33.721 Y72.051 E66.09198
G1 X33.03 Y72.079 E66.17497
G1 X32.365 Y71.989 E66.2555
G1 X31.721 Y71.783 E66.33663
G1 X31.114 Y71.462 E66.41903
G1 X30.578 Y71.049 E66.50023
G1 X30.122 Y70.546 E66.5817
G1 X29.76 Y69.972 E66.66314
G1 X29.503 Y69.344 E66.74456
G1 X29.359 Y68.682 E66.82586
G1 X29.331 Y67.993 E66.90861
G1 X29.421 Y67.328 E66.98914
G1 X29.628 Y66.681 E67.07065
G1 X29.945 Y66.079 E67.1523
G1 X30.36 Y65.541 E67.23383
G1 X30.86 Y65.088 E67.3148
G1 X31.441 Y64.723 E67.39713
G1 X32.11 Y64.449 E67.48388
G1 X42.646 Y61.228 E68.80597
G1 X43.389 Y60.923 E68.90235
G1 X44.102 Y60.464 E69.0041
G1 X44.717 Y59.883 E69.10563
G1 X45.217 Y59.199 E69.2073
G1 X45.581 Y58.432 E69.30918
G1 X45.792 Y57.648 E69.40661
G1 X45.922 Y56.969 E69.48957
G1 X46.081 Y56.308 E69.57115
G1 X46.263 Y55.682 E69.64938
G1 X46.479 Y55.046 E69.72998
G1 X46.705 Y54.467 E69.80457
G1 X46.982 Y53.844 E69.88638
G1 X47.284 Y53.244 E69.96699
G1 X47.612 Y52.659 E70.04747
G1 X47.962 Y52.098 E70.12682
G1 X48.333 Y51.561 E70.20514
G1 X48.739 Y51.026 E70.28573
G1 X49.15 Y50.532 E70.36285
G1 X49.615 Y50.024 E70.44549
G1 X50.103 Y49.539 E70.52805
G1 X50.627 Y48.94 E70.62355
G1 X51.058 Y48.212 E70.72508
G1 X51.352 Y47.41 E70.82758
G1 X51.491 Y46.576 E70.92904
G1 X51.479 Y45.728 E71.03081
G1 X51.314 Y44.928 E71.12883
G1 X48.087 Y34.368 E72.45388
G1 X47.949 Y33.721 E72.53326
G1 X47.921 Y33.03 E72.61625
G1 X48.011 Y32.365 E72.69678
G1 X48.217 Y31.721 E72.77792
G1 X48.538 Y31.114 E72.86032
G1 X48.951 Y30.578 E72.94151
G1 X49.454 Y30.122 E73.02299
G1 X50.028 Y29.76 E73.10442
G1 X50.656 Y29.503 E73.18585
G1 X51.318 Y29.359 E73.26714
G1 X52.007 Y29.331 E73.34989
G1 X52.672 Y29.421 E73.43042
G1 X53.319 Y29.628 E73.51194
G1 X53.921 Y29.945 E73.59358
G1 X54.459 Y30.36 E73.67512
G1 X54.912 Y30.86 E73.75608
G1 X55.277 Y31.441 E73.83842
G1 X55.551 Y32.11 E73.92517
G1 X58.772 Y42.646 E75.24725
G1 X59.077 Y43.389 E75.34363
G1 X59.536 Y44.102 E75.44539
G1 X60.117 Y44.717 E75.54691
G1 X60.801 Y45.217 E75.64858
G1 X61.568 Y45.581 E75.75046
G1 X62.352 Y45.792 E75.84789
G1 X63.044 Y45.925 E75.93245
G1 X63.687 Y46.08 E76.01182
G1 X64.318 Y46.263 E76.09066
G1 X64.954 Y46.479 E76.17126
G1 X65.539 Y46.708 E76.24665
G1 X66.163 Y46.986 E76.32862
G1 X66.756 Y47.284 E76.40826
G1 X67.341 Y47.612 E76.48874
G1 X67.902 Y47.962 E76.56809
G1 X68.439 Y48.333 E76.64641
G1 X68.974 Y48.739 E76.72701
G1 X69.468 Y49.15 E76.80412
