;FLAVOR:UltiGCode
;TIME:2723
;MATERIAL:4768
;MATERIAL2:0
;NOZZLE_DIAMETER:0.4
;MINX:27.621
;MINY:32.145
;MINZ:0.3
;MAXX:98.525
;MAXY:93.219
;MAXZ:16.95
;Generated with Cura_SteamEngine 4.7.1
M82 ;absolute extrusion mode
G0 F3000 Y50 ;avoid prime blob
G92 E0
G92 E0
G10
;LAYER_COUNT:112
;LAYER:0
M107
G0 F3600 X29.014 Y37.868 Z0.3
;TYPE:SKIRT
G11
G1 F1800 X29.46 Y37.57 E0.06437
G1 X29.945 Y37.342 E0.12868
G1 X30.459 Y37.188 E0.19307
G1 X31.129 Y37.106 E0.27407
G1 X31.551 Y37.096 E0.32472
G1 X34.565 Y37.096 E0.6864
G1 X35.27 Y37.106 E0.77101
G1 X35.699 Y37.124 E0.82253
G1 X37.85 Y37.246 E1.08107
G1 X40.62 Y37.325 E1.4136
G1 X43.314 Y37.325 E1.73688
G1 X46.082 Y37.248 E2.06917
G1 X48.767 Y37.096 E2.39189
G1 X51.497 Y36.864 E2.72067
G1 X54.207 Y36.557 E3.04795
G1 X56.91 Y36.173 E3.37557
G1 X59.57 Y35.718 E3.6994
G1 X62.263 Y35.178 E4.029
G1 X64.898 Y34.574 E4.3534
G1 X67.569 Y33.878 E4.68462
G1 X70.19 Y33.117 E5.01213
G1 X72.44 Y32.398 E5.29558
G1 X72.654 Y32.327 E5.32264
G1 X73.175 Y32.197 E5.38707
G1 X73.708 Y32.145 E5.45134
G1 X74.244 Y32.173 E5.51574
G1 X74.769 Y32.28 E5.58004
G1 X75.048 Y32.372 E5.61529
G1 X75.945 Y32.707 E5.73019
G1 X76.653 Y32.984 E5.82142
G1 X79.22 Y33.906 E6.14873
G1 X81.801 Y34.751 E6.47463
G1 X84.411 Y35.525 E6.80131
G1 X87.046 Y36.225 E7.12848
G1 X89.694 Y36.85 E7.45497
G1 X92.361 Y37.4 E7.78174
G1 X93.12 Y37.538 E7.87432
G1 X93.621 Y37.639 E7.93565
G1 X94.138 Y37.784 E8.00008
G1 X94.627 Y38.004 E8.06442
G1 X95.078 Y38.294 E8.12877
G1 X95.481 Y38.648 E8.19314
G1 X95.683 Y38.872 E8.22933
G1 X96.322 Y39.645 E8.34968
G1 X97.34 Y40.923 E8.54575
G1 X97.761 Y41.467 E8.62829
G1 X98.057 Y41.914 E8.69263
G1 X98.283 Y42.4 E8.75695
G1 X98.434 Y42.915 E8.82135
G1 X98.511 Y43.516 E8.89406
G1 X98.525 Y44.206 E8.97687
G1 X98.525 Y83.982 E13.74999
G1 X98.515 Y84.709 E13.83724
G1 X98.467 Y85.243 E13.90158
G1 X98.341 Y85.764 E13.9659
G1 X98.139 Y86.261 E14.03028
G1 X97.865 Y86.722 E14.09463
G1 X97.526 Y87.137 E14.15894
G1 X97.129 Y87.498 E14.22333
G1 X96.683 Y87.795 E14.28763
G1 X96.197 Y88.023 E14.35205
G1 X95.683 Y88.176 E14.4164
G1 X95.016 Y88.258 E14.49705
G1 X94.595 Y88.268 E14.54758
G1 X91.581 Y88.268 E14.90926
G1 X90.876 Y88.258 E14.99387
G1 X90.422 Y88.239 E15.0484
G1 X88.3 Y88.118 E15.30345
G1 X85.534 Y88.039 E15.6355
G1 X82.839 Y88.039 E15.9589
G1 X80.071 Y88.116 E16.29119
G1 X77.383 Y88.268 E16.61427
G1 X74.658 Y88.499 E16.94244
G1 X71.947 Y88.806 E17.26984
G1 X69.249 Y89.189 E17.59685
G1 X66.578 Y89.646 E17.92202
G1 X63.89 Y90.185 E18.25101
G1 X61.246 Y90.791 E18.57651
G1 X58.593 Y91.481 E18.90546
G1 X55.963 Y92.245 E19.23411
G1 X53.702 Y92.967 E19.51893
G1 X53.487 Y93.038 E19.5461
G1 X52.967 Y93.168 E19.61042
G1 X52.433 Y93.219 E19.67479
G1 X51.897 Y93.19 E19.7392
G1 X51.372 Y93.082 E19.80352
G1 X51.1 Y92.993 E19.83787
G1 X50.142 Y92.635 E19.96059
G1 X49.398 Y92.344 E20.05646
G1 X46.846 Y91.431 E20.38171
G1 X44.242 Y90.581 E20.71041
G1 X41.652 Y89.816 E21.03449
G1 X38.998 Y89.112 E21.36398
G1 X36.331 Y88.486 E21.69272
G1 X33.684 Y87.943 E22.01697
G1 X32.961 Y87.812 E22.10514
G1 X32.524 Y87.724 E22.15864
G1 X32.008 Y87.579 E22.22296
G1 X31.519 Y87.36 E22.28725
G1 X31.068 Y87.07 E22.35159
G1 X30.665 Y86.716 E22.41596
G1 X30.461 Y86.49 E22.4525
G1 X29.841 Y85.739 E22.56936
G1 X28.815 Y84.452 E22.76687
G1 X28.384 Y83.895 E22.85138
G1 X28.088 Y83.448 E22.91572
G1 X27.862 Y82.961 E22.98014
G1 X27.711 Y82.447 E23.04443
G1 X27.633 Y81.815 E23.12085
G1 X27.621 Y81.128 E23.2033
G1 X27.621 Y41.347 E27.97702
G1 X27.63 Y40.658 E28.05971
G1 X27.677 Y40.124 E28.12403
G1 X27.803 Y39.602 E28.18847
G1 X28.005 Y39.106 E28.25274
G1 X28.278 Y38.644 E28.31713
G1 X28.617 Y38.229 E28.38144
G1 X29.014 Y37.868 E28.44583
G0 F3600 X29.4 Y38.08
G1 F1800 X29.836 Y37.824 E28.5065
G1 X30.307 Y37.641 E28.56714
G1 X30.801 Y37.534 E28.62779
G1 X31.461 Y37.497 E28.70712
G1 X34.559 Y37.496 E29.07888
G1 X35.264 Y37.506 E29.16348
G1 X35.677 Y37.523 E29.21309
G1 X37.853 Y37.646 E29.47462
G1 X40.609 Y37.725 E29.80548
G1 X43.326 Y37.725 E30.13152
G1 X46.078 Y37.648 E30.46189
G1 X48.824 Y37.493 E30.79193
G1 X51.504 Y37.265 E31.1147
G1 X54.272 Y36.952 E31.44897
G1 X56.962 Y36.57 E31.77501
G1 X59.644 Y36.111 E32.10153
G1 X62.359 Y35.567 E32.43381
G1 X64.991 Y34.963 E32.75786
G1 X67.667 Y34.266 E33.08969
G1 X70.319 Y33.495 E33.42111
G1 X72.566 Y32.778 E33.70414
G1 X72.78 Y32.707 E33.7312
G1 X73.271 Y32.586 E33.79188
G1 X73.775 Y32.544 E33.85257
G1 X74.279 Y32.582 E33.91322
G1 X74.908 Y32.746 E33.99122
G1 X75.754 Y33.062 E34.09959
G1 X76.477 Y33.345 E34.19276
G1 X79.107 Y34.29 E34.52812
G1 X81.668 Y35.128 E34.85147
G1 X84.3 Y35.909 E35.18092
G1 X86.949 Y36.613 E35.50984
G1 X89.635 Y37.246 E35.84099
G1 X92.29 Y37.794 E36.1663
G1 X93.041 Y37.93 E36.25789
G1 X93.542 Y38.031 E36.31922
G1 X94.029 Y38.17 E36.37999
G1 X94.487 Y38.383 E36.44061
G1 X94.906 Y38.667 E36.50135
G1 X95.375 Y39.127 E36.58018
G1 X96.009 Y39.894 E36.69959
G1 X97.024 Y41.168 E36.89506
G1 X97.445 Y41.712 E36.97761
G1 X97.722 Y42.135 E37.03828
G1 X97.928 Y42.596 E37.09887
G1 X98.06 Y43.084 E37.15954
G1 X98.117 Y43.673 E37.23055
G1 X98.125 Y44.21 E37.29499
G1 X98.125 Y83.976 E42.06691
G1 X98.115 Y84.703 E42.15416
G1 X98.068 Y85.206 E42.21479
G1 X97.942 Y85.696 E42.2755
G1 X97.741 Y86.16 E42.33618
G1 X97.469 Y86.586 E42.39683
G1 X97.134 Y86.965 E42.45753
G1 X96.743 Y87.285 E42.51816
G1 X96.307 Y87.54 E42.57877
G1 X95.836 Y87.724 E42.63945
G1 X95.341 Y87.83 E42.7002
G1 X94.685 Y87.867 E42.77904
G1 X91.587 Y87.868 E43.1508
G1 X90.882 Y87.858 E43.23541
G1 X90.444 Y87.84 E43.28802
G1 X88.297 Y87.718 E43.54607
G1 X85.545 Y87.639 E43.87645
G1 X82.827 Y87.639 E44.20261
G1 X80.075 Y87.716 E44.53298
G1 X77.36 Y87.869 E44.85929
G1 X74.616 Y88.101 E45.18975
G1 X71.882 Y88.411 E45.51993
G1 X69.191 Y88.793 E45.84609
G1 X66.51 Y89.252 E46.17249
G1 X63.794 Y89.796 E46.50488
G1 X61.153 Y90.402 E46.83004
G1 X58.486 Y91.096 E47.16074
G1 X55.844 Y91.863 E47.49087
G1 X53.576 Y92.588 E47.77659
G1 X53.361 Y92.659 E47.80376
G1 X52.87 Y92.779 E47.86442
G1 X52.366 Y92.82 E47.9251
G1 X51.862 Y92.781 E47.98576
G1 X51.239 Y92.618 E48.06304
G1 X50.287 Y92.262 E48.185
G1 X49.561 Y91.978 E48.27855
G1 X46.968 Y91.05 E48.60904
G1 X44.374 Y90.204 E48.93645
G1 X41.729 Y89.422 E49.26744
G1 X39.087 Y88.722 E49.59541
G1 X36.431 Y88.099 E49.92279
G1 X33.755 Y87.549 E50.25062
G1 X33.04 Y87.42 E50.3378
G1 X32.603 Y87.332 E50.3913
G1 X32.117 Y87.193 E50.45195
G1 X31.659 Y86.98 E50.51257
G1 X31.24 Y86.697 E50.57324
G1 X30.769 Y86.235 E50.65241
G1 X30.153 Y85.489 E50.76851
G1 X29.131 Y84.207 E50.96525
G1 X28.7 Y83.65 E51.04976
G1 X28.423 Y83.227 E51.11044
G1 X28.217 Y82.766 E51.17103
G1 X28.085 Y82.278 E51.23169
G1 X28.029 Y81.684 E51.30329
G1 X28.021 Y81.123 E51.37062
G1 X28.021 Y41.352 E56.14314
G1 X28.03 Y40.663 E56.22582
G1 X28.077 Y40.16 E56.28645
G1 X28.202 Y39.67 E56.34713
G1 X28.403 Y39.206 E56.40781
G1 X28.674 Y38.779 E56.4685
G1 X29.009 Y38.401 E56.52911
G1 X29.4 Y38.08 E56.58981
G10
;MESH:odrive_tester_1.stl
G0 F3600 X31.835 Y40.031
G0 X31.835 Y41.31
G0 X34.651 Y76.818
G0 X35.201 Y77.905
G0 X36.182 Y78.63
G0 X38.003 Y78.789
G0 X37.975 Y78.694
;TYPE:WALL-INNER
G11
G1 F1800 X38.529 Y78.452 E56.66236
G1 X39.007 Y78.096 E56.73388
G1 X39.397 Y77.652 E56.8048
G1 X73.862 Y36.578 E63.23898
G1 X75.855 Y38.25 E63.55115
G1 X76.008 Y38.378 E63.57509
G1 X75.88 Y38.531 E63.59055
G1 X38.573 Y82.991 E70.55521
G1 X38.009 Y83.664 E70.66058
G1 X33.512 Y83.606 E71.20026
G1 X31.821 Y81.486 E71.52568
G1 X31.821 Y41.296 E76.34848
G1 X34.621 Y41.296 E76.68448
G1 X34.621 Y76.243 E80.87812
G1 X34.689 Y76.809 E80.94653
G1 X34.898 Y77.376 E81.01904
G1 X35.231 Y77.88 E81.09153
G1 X35.672 Y78.294 E81.16412
G1 X36.197 Y78.594 E81.23668
G1 X36.777 Y78.766 E81.30927
G1 X37.38 Y78.799 E81.38174
G1 X37.975 Y78.694 E81.45424
G0 F3600 X37.859 Y78.308
;TYPE:WALL-OUTER
G1 F1800 X38.327 Y78.104 E81.51551
G1 X38.734 Y77.8 E81.57647
G1 X39.094 Y77.391 E81.64185
G1 X73.813 Y36.015 E88.12339
G1 X76.418 Y38.201 E88.53147
G1 X76.571 Y38.329 E88.55541
G1 X76.443 Y38.482 E88.57086
G1 X38.879 Y83.248 E95.58347
G1 X38.193 Y84.066 E95.71158
G1 X33.318 Y84.004 E96.29663
G1 X31.421 Y81.626 E96.66167
G1 X31.421 Y40.896 E101.54927
G1 X35.021 Y40.896 E101.98127
G1 X35.021 Y76.219 E106.22003
G1 X35.081 Y76.715 E106.27998
G1 X35.257 Y77.194 E106.34122
G1 X35.539 Y77.62 E106.40252
G1 X35.912 Y77.97 E106.4639
G1 X36.355 Y78.224 E106.52518
G1 X36.846 Y78.369 E106.58662
G1 X37.356 Y78.397 E106.64791
G1 X37.859 Y78.308 E106.70921
G0 F3600 X38.042 Y78.228
G0 X38.088 Y79.07
;TYPE:SKIN
G1 F1800 X38.726 Y78.791 E106.79277
G1 X39.273 Y78.384 E106.87458
G1 X39.693 Y77.906 E106.95094
G1 X73.91 Y37.128 E113.33878
G1 X75.458 Y38.426 E113.5812
G1 X38.274 Y82.74 E120.52295
G1 X37.829 Y83.272 E120.60618
G1 X33.702 Y83.218 E121.10146
G1 X32.211 Y81.349 E121.38837
G1 X32.211 Y41.686 E126.14793
G1 X34.231 Y41.686 E126.39033
G1 X34.231 Y76.266 E130.53993
G1 X34.307 Y76.901 E130.61667
G1 X34.547 Y77.553 E130.70004
G1 X34.931 Y78.133 E130.78352
G1 X35.438 Y78.61 E130.86705
G1 X36.043 Y78.955 E130.95062
G1 X36.71 Y79.152 E131.03408
G1 X37.403 Y79.191 E131.11737
G1 X38.088 Y79.07 E131.20085
G0 F3600 X33.823 Y83.038
G1 F1800 X33.649 Y82.863 E131.23046
G0 F3600 X34.397 Y83.046
G1 F1800 X32.391 Y81.04 E131.57089
G0 F3600 X32.391 Y80.474
G1 F1800 X34.969 Y83.053 E132.00848
G0 F3600 X35.543 Y83.061
G1 F1800 X32.391 Y79.908 E132.54347
G0 F3600 X32.391 Y79.343
G1 F1800 X36.116 Y83.068 E133.17563
G0 F3600 X36.689 Y83.075
G1 F1800 X32.391 Y78.777 E133.90502
G0 F3600 X32.391 Y78.211
G1 F1800 X37.263 Y83.083 E134.73183
G0 F3600 X37.786 Y83.041
G1 F1800 X32.391 Y77.645 E135.64747
G0 F3600 X32.391 Y77.08
G1 F1800 X38.044 Y82.733 E136.60682
G0 F3600 X38.302 Y82.426
G1 F1800 X32.391 Y76.514 E137.61003
G0 F3600 X32.391 Y75.948
G1 F1800 X38.56 Y82.118 E138.65703
G0 F3600 X38.818 Y81.81
G1 F1800 X36.194 Y79.186 E139.10234
G0 F3600 X36.916 Y79.343
G1 F1800 X39.076 Y81.503 E139.4689
G0 F3600 X39.334 Y81.195
G1 F1800 X37.496 Y79.357 E139.78082
G0 F3600 X37.977 Y79.272
G1 F1800 X39.593 Y80.888 E140.05507
G0 F3600 X39.851 Y80.58
G1 F1800 X38.4 Y79.13 E140.30123
G0 F3600 X38.793 Y78.957
G1 F1800 X40.109 Y80.272 E140.52447
G0 F3600 X40.367 Y79.965
G1 F1800 X39.122 Y78.72 E140.73576
G0 F3600 X39.436 Y78.469
G1 F1800 X40.625 Y79.657 E140.93745
G0 F3600 X40.883 Y79.35
G1 F1800 X39.701 Y78.167 E141.13813
G0 F3600 X39.962 Y77.863
G1 F1800 X41.141 Y79.042 E141.33821
G0 F3600 X41.399 Y78.734
G1 F1800 X40.22 Y77.555 E141.5383
G0 F3600 X40.479 Y77.248
G1 F1800 X41.657 Y78.427 E141.73829
G0 F3600 X41.915 Y78.119
G1 F1800 X40.737 Y76.94 E141.93829
G0 F3600 X40.995 Y76.633
G1 F1800 X42.173 Y77.812 E142.13829
G0 F3600 X42.432 Y77.504
G1 F1800 X41.253 Y76.325 E142.33837
G0 F3600 X41.511 Y76.018
G1 F1800 X42.69 Y77.196 E142.53837
G0 F3600 X42.948 Y76.889
G1 F1800 X41.769 Y75.71 E142.73845
G0 F3600 X42.027 Y75.403
G1 F1800 X43.206 Y76.581 E142.93845
G0 F3600 X43.464 Y76.274
G1 F1800 X42.285 Y75.095 E143.13853
G0 F3600 X42.543 Y74.787
G1 F1800 X43.722 Y75.966 E143.33862
G0 F3600 X43.98 Y75.659
G1 F1800 X42.801 Y74.48 E143.5387
G0 F3600 X43.059 Y74.172
G1 F1800 X44.238 Y75.351 E143.73878
G0 F3600 X44.496 Y75.043
G1 F1800 X43.318 Y73.865 E143.9387
G0 F3600 X43.576 Y73.557
G1 F1800 X44.754 Y74.736 E144.13869
G0 F3600 X45.013 Y74.428
G1 F1800 X43.834 Y73.249 E144.33878
G0 F3600 X44.092 Y72.942
G1 F1800 X45.271 Y74.121 E144.53886
G0 F3600 X45.529 Y73.813
G1 F1800 X44.35 Y72.634 E144.73894
G0 F3600 X44.608 Y72.327
G1 F1800 X45.787 Y73.505 E144.93894
G0 F3600 X46.045 Y73.198
G1 F1800 X44.866 Y72.019 E145.13902
G0 F3600 X45.124 Y71.711
G1 F1800 X46.303 Y72.89 E145.33911
G0 F3600 X46.561 Y72.583
G1 F1800 X45.382 Y71.404 E145.53919
G0 F3600 X45.64 Y71.096
G1 F1800 X46.819 Y72.275 E145.73927
G0 F3600 X47.077 Y71.967
G1 F1800 X45.899 Y70.789 E145.93919
G0 F3600 X46.157 Y70.481
G1 F1800 X47.335 Y71.66 E146.13918
G0 F3600 X47.593 Y71.352
G1 F1800 X46.415 Y70.173 E146.33918
G0 F3600 X46.673 Y69.866
G1 F1800 X47.852 Y71.045 E146.53927
G0 F3600 X48.11 Y70.737
G1 F1800 X46.931 Y69.558 E146.73935
G0 F3600 X47.189 Y69.251
G1 F1800 X48.368 Y70.429 E146.93935
G0 F3600 X48.626 Y70.122
G1 F1800 X47.447 Y68.943 E147.13943
G0 F3600 X47.705 Y68.636
G1 F1800 X48.884 Y69.814 E147.33943
G0 F3600 X49.142 Y69.507
G1 F1800 X47.963 Y68.328 E147.53951
G0 F3600 X48.221 Y68.02
G1 F1800 X49.4 Y69.199 E147.73959
G0 F3600 X49.658 Y68.891
G1 F1800 X48.479 Y67.713 E147.93959
G0 F3600 X48.738 Y67.405
G1 F1800 X49.916 Y68.584 E148.13959
G0 F3600 X50.174 Y68.276
G1 F1800 X48.996 Y67.098 E148.3395
G0 F3600 X49.254 Y66.79
G1 F1800 X50.432 Y67.969 E148.5395
G0 F3600 X50.691 Y67.661
G1 F1800 X49.512 Y66.482 E148.73958
G0 F3600 X49.77 Y66.175
G1 F1800 X50.949 Y67.354 E148.93967
G0 F3600 X51.207 Y67.046
G1 F1800 X50.028 Y65.867 E149.13975
G0 F3600 X50.286 Y65.56
G1 F1800 X51.465 Y66.738 E149.33975
G0 F3600 X51.723 Y66.431
G1 F1800 X50.544 Y65.252 E149.53983
G0 F3600 X50.802 Y64.944
G1 F1800 X51.981 Y66.123 E149.73991
G0 F3600 X52.239 Y65.816
G1 F1800 X51.06 Y64.637 E149.94
G0 F3600 X51.318 Y64.329
G1 F1800 X52.497 Y65.508 E150.14008
G0 F3600 X52.755 Y65.2
G1 F1800 X51.577 Y64.022 E150.33999
G0 F3600 X51.835 Y63.714
G1 F1800 X53.013 Y64.893 E150.53999
G0 F3600 X53.272 Y64.585
G1 F1800 X52.093 Y63.406 E150.74007
G0 F3600 X52.351 Y63.099
G1 F1800 X53.53 Y64.278 E150.94016
G0 F3600 X53.788 Y63.97
G1 F1800 X52.609 Y62.791 E151.14024
G0 F3600 X52.867 Y62.484
G1 F1800 X54.046 Y63.662 E151.34024
G0 F3600 X54.304 Y63.355
G1 F1800 X53.125 Y62.176 E151.54032
G0 F3600 X53.383 Y61.869
G1 F1800 X54.562 Y63.047 E151.74032
G0 F3600 X54.82 Y62.74
G1 F1800 X53.641 Y61.561 E151.9404
G0 F3600 X53.899 Y61.253
G1 F1800 X55.078 Y62.432 E152.14048
G0 F3600 X55.336 Y62.124
G1 F1800 X54.158 Y60.946 E152.3404
G0 F3600 X54.416 Y60.638
G1 F1800 X55.594 Y61.817 E152.5404
G0 F3600 X55.852 Y61.509
G1 F1800 X54.674 Y60.331 E152.74031
G0 F3600 X54.932 Y60.023
G1 F1800 X56.111 Y61.202 E152.94039
G0 F3600 X56.369 Y60.894
G1 F1800 X55.19 Y59.715 E153.14048
G0 F3600 X55.448 Y59.408
G1 F1800 X56.627 Y60.587 E153.34056
G0 F3600 X56.885 Y60.279
G1 F1800 X55.706 Y59.1 E153.54064
G0 F3600 X55.964 Y58.793
G1 F1800 X57.143 Y59.971 E153.74064
G0 F3600 X57.401 Y59.664
G1 F1800 X56.222 Y58.485 E153.94072
G0 F3600 X56.48 Y58.177
G1 F1800 X57.659 Y59.356 E154.14081
G0 F3600 X57.917 Y59.049
G1 F1800 X56.738 Y57.87 E154.34089
G0 F3600 X56.997 Y57.562
G1 F1800 X58.175 Y58.741 E154.54089
G0 F3600 X58.433 Y58.433
G1 F1800 X57.255 Y57.255 E154.7408
G0 F3600 X57.513 Y56.947
G1 F1800 X58.691 Y58.126 E154.9408
G0 F3600 X58.95 Y57.818
G1 F1800 X57.771 Y56.639 E155.14088
G0 F3600 X58.029 Y56.332
G1 F1800 X59.208 Y57.511 E155.34096
G0 F3600 X59.466 Y57.203
G1 F1800 X58.287 Y56.024 E155.54105
G0 F3600 X58.545 Y55.717
G1 F1800 X59.724 Y56.895 E155.74104
G0 F3600 X59.982 Y56.588
G1 F1800 X58.803 Y55.409 E155.94113
G0 F3600 X59.061 Y55.102
G1 F1800 X60.24 Y56.28 E156.14113
G0 F3600 X60.498 Y55.973
G1 F1800 X59.319 Y54.794 E156.34121
G0 F3600 X59.577 Y54.486
G1 F1800 X60.756 Y55.665 E156.54129
G0 F3600 X61.014 Y55.357
G1 F1800 X59.836 Y54.179 E156.7412
G0 F3600 X60.094 Y53.871
G1 F1800 X61.272 Y55.05 E156.9412
G0 F3600 X61.531 Y54.742
G1 F1800 X60.352 Y53.564 E157.1412
G0 F3600 X60.61 Y53.256
G1 F1800 X61.789 Y54.435 E157.34128
G0 F3600 X62.047 Y54.127
G1 F1800 X60.868 Y52.948 E157.54137
G0 F3600 X61.126 Y52.641
G1 F1800 X62.305 Y53.82 E157.74145
G0 F3600 X62.563 Y53.512
G1 F1800 X61.384 Y52.333 E157.94153
G0 F3600 X61.642 Y52.026
G1 F1800 X62.821 Y53.204 E158.14153
G0 F3600 X63.079 Y52.897
G1 F1800 X61.9 Y51.718 E158.34161
G0 F3600 X62.158 Y51.41
G1 F1800 X63.337 Y52.589 E158.5417
G0 F3600 X63.595 Y52.282
G1 F1800 X62.417 Y51.103 E158.74169
G0 F3600 X62.675 Y50.795
G1 F1800 X63.853 Y51.974 E158.94169
G0 F3600 X64.111 Y51.666
G1 F1800 X62.933 Y50.488 E159.14161
G0 F3600 X63.191 Y50.18
G1 F1800 X64.37 Y51.359 E159.34169
G0 F3600 X64.628 Y51.051
G1 F1800 X63.449 Y49.872 E159.54177
G0 F3600 X63.707 Y49.565
G1 F1800 X64.886 Y50.744 E159.74185
G0 F3600 X65.144 Y50.436
G1 F1800 X63.966 Y49.258 E159.94177
G0 F3600 X64.224 Y48.95
