;FLAVOR:UltiGCode
;TIME:2290
;MATERIAL:4646
;MATERIAL2:0
;NOZZLE_DIAMETER:0.4
;MINX:28.172
;MINY:28.172
;MINZ:0.3
;MAXX:91.828
;MAXY:91.828
;MAXZ:6.45
;Generated with Cura_SteamEngine 4.7.1
M82 ;absolute extrusion mode
G0 F3000 Y50 ;avoid prime blob
G92 E0
G92 E0
G10
;LAYER_COUNT:42
;LAYER:0
M107
G0 F3600 X38.916 Y31.126 Z0.3
;TYPE:SKIRT
G11
G1 F1800 X39.271 Y30.73 E0.06382
G1 X39.539 Y30.448 E0.1105
G1 X39.913 Y30.109 E0.17108
G1 X40.375 Y29.748 E0.24143
G1 X40.6 Y29.582 E0.27499
G1 X41.037 Y29.306 E0.33701
G1 X41.526 Y29.044 E0.40358
G1 X41.858 Y28.878 E0.44812
G1 X42.324 Y28.689 E0.50847
G1 X42.837 Y28.521 E0.57325
G1 X43.166 Y28.422 E0.61447
G1 X43.68 Y28.31 E0.6776
G1 X44.179 Y28.239 E0.73809
G1 X44.576 Y28.193 E0.78604
G1 X45.1 Y28.172 E0.84897
G1 X45.641 Y28.191 E0.91393
G1 X45.942 Y28.209 E0.95012
G1 X46.466 Y28.28 E1.01357
G1 X47.043 Y28.401 E1.08432
G1 X47.386 Y28.483 E1.12664
G1 X47.864 Y28.636 E1.18687
G1 X48.376 Y28.842 E1.25309
G1 X49.036 Y29.13 E1.3395
G1 X51.544 Y30.181 E1.66582
G1 X54.077 Y31.16 E1.9917
G1 X56.678 Y32.08 E2.32276
G1 X59.26 Y32.913 E2.64833
G1 X61.869 Y33.673 E2.97442
G1 X64.52 Y34.365 E3.3032
G1 X67.144 Y34.972 E3.6264
G1 X69.832 Y35.514 E3.95545
G1 X72.532 Y35.979 E4.28422
G1 X75.219 Y36.363 E4.60994
G1 X77.947 Y36.675 E4.93943
G1 X80.655 Y36.908 E5.26559
G1 X83.542 Y37.057 E5.61249
G1 X84.532 Y37.118 E5.73152
G1 X85.051 Y37.188 E5.79436
G1 X85.627 Y37.309 E5.86499
G1 X85.969 Y37.391 E5.90719
G1 X86.448 Y37.544 E5.96753
G1 X86.935 Y37.741 E6.03057
G1 X87.257 Y37.882 E6.07276
G1 X87.707 Y38.119 E6.13379
G1 X88.166 Y38.403 E6.19856
G1 X88.471 Y38.604 E6.24239
G1 X88.874 Y38.916 E6.30355
G1 X89.27 Y39.271 E6.36737
G1 X89.695 Y39.685 E6.43857
G1 X90.183 Y40.284 E6.53128
G1 X90.418 Y40.6 E6.57854
G1 X90.694 Y41.037 E6.64056
G1 X90.956 Y41.526 E6.70713
G1 X91.118 Y41.849 E6.7505
G1 X91.31 Y42.32 E6.81153
G1 X91.479 Y42.836 E6.87669
G1 X91.582 Y43.181 E6.91989
G1 X91.69 Y43.68 E6.98116
G1 X91.761 Y44.176 E7.04129
G1 X91.807 Y44.569 E7.08877
G1 X91.828 Y45.096 E7.15206
G1 X91.809 Y45.641 E7.2175
G1 X91.791 Y45.942 E7.25368
G1 X91.72 Y46.466 E7.31714
G1 X91.599 Y47.043 E7.38788
G1 X91.52 Y47.377 E7.42907
G1 X91.365 Y47.863 E7.49028
G1 X91.158 Y48.376 E7.55667
G1 X90.87 Y49.036 E7.64308
G1 X89.819 Y51.544 E7.9694
G1 X88.84 Y54.077 E8.29527
G1 X87.92 Y56.678 E8.62634
G1 X87.087 Y59.26 E8.9519
G1 X86.327 Y61.869 E9.278
G1 X85.635 Y64.52 E9.60678
G1 X85.028 Y67.144 E9.92997
G1 X84.486 Y69.832 E10.25902
G1 X84.021 Y72.532 E10.58779
G1 X83.637 Y75.219 E10.91351
G1 X83.325 Y77.947 E11.243
G1 X83.093 Y80.646 E11.56808
G1 X82.942 Y83.56 E11.91823
G1 X82.882 Y84.532 E12.03509
G1 X82.812 Y85.049 E12.09769
G1 X82.691 Y85.626 E12.16844
G1 X82.612 Y85.96 E12.20963
G1 X82.456 Y86.448 E12.27111
G1 X82.261 Y86.93 E12.3335
G1 X82.121 Y87.251 E12.37552
G1 X81.881 Y87.708 E12.43747
G1 X81.596 Y88.168 E12.5024
G1 X81.396 Y88.471 E12.54597
G1 X81.084 Y88.874 E12.60713
G1 X80.729 Y89.27 E12.67095
G1 X80.461 Y89.552 E12.71763
G1 X80.086 Y89.892 E12.77837
G1 X79.628 Y90.249 E12.84806
G1 X79.402 Y90.416 E12.88178
G1 X78.963 Y90.694 E12.94413
G1 X78.474 Y90.956 E13.01071
G1 X78.142 Y91.122 E13.05525
G1 X77.676 Y91.311 E13.11559
G1 X77.068 Y91.509 E13.19232
G1 X76.839 Y91.577 E13.22099
G1 X76.32 Y91.69 E13.28473
G1 X75.82 Y91.761 E13.34533
G1 X75.424 Y91.807 E13.39317
G1 X74.9 Y91.828 E13.4561
G1 X74.359 Y91.809 E13.52106
G1 X74.058 Y91.791 E13.55725
G1 X73.534 Y91.72 E13.6207
G1 X72.957 Y91.599 E13.69145
G1 X72.616 Y91.518 E13.7335
G1 X72.133 Y91.363 E13.79438
G1 X71.624 Y91.158 E13.86022
G1 X70.964 Y90.87 E13.94664
G1 X68.456 Y89.819 E14.27295
G1 X65.923 Y88.84 E14.59883
G1 X63.322 Y87.92 E14.9299
G1 X60.74 Y87.087 E15.25546
G1 X58.131 Y86.327 E15.58155
G1 X55.48 Y85.635 E15.91033
G1 X52.856 Y85.028 E16.23353
G1 X50.168 Y84.486 E16.56258
G1 X47.468 Y84.021 E16.89135
G1 X44.781 Y83.637 E17.21707
G1 X42.053 Y83.325 E17.54656
G1 X39.345 Y83.092 E17.87272
G1 X36.458 Y82.943 E18.21962
G1 X35.468 Y82.882 E18.33865
G1 X34.949 Y82.812 E18.40149
G1 X34.373 Y82.691 E18.47212
G1 X34.031 Y82.609 E18.51432
G1 X33.552 Y82.456 E18.57466
G1 X33.065 Y82.259 E18.6377
G1 X32.743 Y82.118 E18.67989
G1 X32.293 Y81.881 E18.74092
G1 X31.834 Y81.597 E18.80569
G1 X31.529 Y81.396 E18.84952
G1 X31.126 Y81.084 E18.91068
G1 X30.73 Y80.729 E18.9745
G1 X30.445 Y80.458 E19.02169
G1 X30.105 Y80.083 E19.08244
G1 X29.747 Y79.624 E19.15229
G1 X29.579 Y79.396 E19.18627
G1 X29.303 Y78.958 E19.2484
G1 X29.043 Y78.472 E19.31454
G1 X28.877 Y78.14 E19.35908
G1 X28.687 Y77.672 E19.41969
G1 X28.52 Y77.161 E19.48421
G1 X28.423 Y76.839 E19.52456
G1 X28.31 Y76.32 E19.5883
G1 X28.226 Y75.721 E19.66088
G1 X28.193 Y75.431 E19.69591
G1 X28.172 Y74.904 E19.7592
G1 X28.191 Y74.359 E19.82464
G1 X28.209 Y74.058 E19.86082
G1 X28.28 Y73.534 E19.92428
G1 X28.401 Y72.957 E19.99502
G1 X28.48 Y72.623 E20.03621
G1 X28.635 Y72.137 E20.09742
G1 X28.842 Y71.624 E20.16381
G1 X29.13 Y70.964 E20.25022
G1 X30.181 Y68.456 E20.57654
G1 X31.16 Y65.923 E20.90241
G1 X32.08 Y63.322 E21.23348
G1 X32.913 Y60.74 E21.55904
G1 X33.673 Y58.131 E21.88514
G1 X34.365 Y55.48 E22.21392
G1 X34.972 Y52.856 E22.53711
G1 X35.514 Y50.168 E22.86616
G1 X35.979 Y47.468 E23.19493
G1 X36.363 Y44.781 E23.52065
G1 X36.675 Y42.053 E23.85014
G1 X36.908 Y39.345 E24.1763
G1 X37.057 Y36.458 E24.5232
G1 X37.118 Y35.468 E24.64223
G1 X37.188 Y34.949 E24.70507
G1 X37.309 Y34.373 E24.7757
G1 X37.388 Y34.04 E24.81677
G1 X37.544 Y33.552 E24.87825
G1 X37.739 Y33.07 E24.94064
G1 X37.879 Y32.749 E24.98267
G1 X38.119 Y32.292 E25.04461
G1 X38.404 Y31.832 E25.10955
G1 X38.604 Y31.529 E25.15311
G1 X38.916 Y31.126 E25.21427
G0 F3600 X39.214 Y31.393
G1 F1800 X39.569 Y30.997 E25.27809
G1 X40.16 Y30.423 E25.37696
G1 X40.612 Y30.07 E25.44578
G1 X41.226 Y29.658 E25.53451
G1 X41.715 Y29.396 E25.60108
G1 X42.448 Y29.069 E25.6974
G1 X43.05 Y28.873 E25.77337
G1 X43.736 Y28.706 E25.85809
G1 X44.235 Y28.635 E25.91858
G1 X45.086 Y28.572 E26.02097
G1 X45.617 Y28.591 E26.08474
G1 X46.384 Y28.671 E26.17727
G1 X46.961 Y28.792 E26.24802
G1 X47.715 Y29.007 E26.34211
G1 X48.216 Y29.209 E26.40693
G1 X48.876 Y29.497 E26.49334
G1 X51.382 Y30.547 E26.81939
G1 X53.937 Y31.534 E27.14807
G1 X56.538 Y32.455 E27.47918
G1 X59.163 Y33.301 E27.81014
G1 X61.761 Y34.058 E28.13486
G1 X64.408 Y34.75 E28.46318
G1 X67.065 Y35.364 E28.79042
G1 X69.757 Y35.906 E29.11994
G1 X72.474 Y36.374 E29.45078
G1 X75.194 Y36.763 E29.78051
G1 X77.9 Y37.073 E30.10735
G1 X80.602 Y37.305 E30.43278
G1 X83.518 Y37.456 E30.78317
G1 X84.508 Y37.517 E30.9022
G1 X84.969 Y37.579 E30.95801
G1 X85.545 Y37.7 E31.02864
G1 X86.299 Y37.916 E31.12276
G1 X86.775 Y38.108 E31.18435
G1 X87.497 Y38.459 E31.28069
G1 X87.956 Y38.743 E31.34546
G1 X88.607 Y39.214 E31.44188
G1 X89.003 Y39.569 E31.5057
G1 X89.401 Y39.957 E31.5724
G1 X89.869 Y40.532 E31.66137
G1 X90.342 Y41.226 E31.76215
G1 X90.604 Y41.715 E31.82872
G1 X90.93 Y42.445 E31.92466
G1 X91.099 Y42.961 E31.98982
G1 X91.294 Y43.737 E32.08583
G1 X91.365 Y44.233 E32.14596
G1 X91.428 Y45.083 E32.24824
G1 X91.409 Y45.617 E32.31236
G1 X91.329 Y46.384 E32.4049
G1 X91.208 Y46.961 E32.47565
G1 X90.993 Y47.714 E32.56962
G1 X90.791 Y48.216 E32.63455
G1 X90.503 Y48.876 E32.72096
G1 X89.453 Y51.382 E33.04701
G1 X88.466 Y53.937 E33.37569
G1 X87.545 Y56.538 E33.7068
G1 X86.699 Y59.163 E34.03776
G1 X85.942 Y61.761 E34.36248
G1 X85.25 Y64.408 E34.6908
G1 X84.636 Y67.065 E35.01804
G1 X84.094 Y69.757 E35.34756
G1 X83.626 Y72.474 E35.67841
G1 X83.237 Y75.194 E36.00813
G1 X82.927 Y77.9 E36.33497
G1 X82.695 Y80.602 E36.6604
G1 X82.543 Y83.533 E37.0126
G1 X82.483 Y84.507 E37.1297
G1 X82.421 Y84.967 E37.1854
G1 X82.3 Y85.544 E37.25614
G1 X82.085 Y86.299 E37.35034
G1 X81.894 Y86.77 E37.41134
G1 X81.541 Y87.497 E37.50832
G1 X81.197 Y88.05 E37.58647
G1 X80.786 Y88.607 E37.66953
G1 X80.431 Y89.003 E37.73335
G1 X79.839 Y89.577 E37.8323
G1 X79.391 Y89.928 E37.9006
G1 X78.774 Y90.342 E37.98976
G1 X78.285 Y90.604 E38.05633
G1 X77.552 Y90.931 E38.15265
G1 X76.954 Y91.126 E38.22813
G1 X76.264 Y91.294 E38.31335
G1 X75.672 Y91.377 E38.38508
G1 X74.914 Y91.428 E38.47625
G1 X74.383 Y91.409 E38.54001
G1 X73.616 Y91.329 E38.63255
G1 X73.039 Y91.208 E38.70329
G1 X72.281 Y90.992 E38.79787
G1 X71.784 Y90.791 E38.86221
G1 X71.124 Y90.503 E38.94862
G1 X68.618 Y89.453 E39.27467
G1 X66.063 Y88.466 E39.60335
G1 X63.462 Y87.545 E39.93446
G1 X60.837 Y86.699 E40.26542
G1 X58.239 Y85.942 E40.59014
G1 X55.592 Y85.25 E40.91846
G1 X52.935 Y84.636 E41.2457
G1 X50.243 Y84.094 E41.57522
G1 X47.526 Y83.626 E41.90606
G1 X44.806 Y83.237 E42.23578
G1 X42.1 Y82.927 E42.56263
G1 X39.398 Y82.695 E42.88806
G1 X36.482 Y82.544 E43.23845
G1 X35.492 Y82.483 E43.35747
G1 X35.031 Y82.421 E43.41329
G1 X34.455 Y82.3 E43.48392
G1 X33.701 Y82.084 E43.57804
G1 X33.225 Y81.892 E43.63963
G1 X32.503 Y81.541 E43.73597
G1 X32.044 Y81.257 E43.80074
G1 X31.393 Y80.786 E43.89716
G1 X30.997 Y80.431 E43.96098
G1 X30.42 Y79.836 E44.06044
G1 X30.069 Y79.386 E44.12892
G1 X29.655 Y78.769 E44.21809
G1 X29.395 Y78.283 E44.28423
G1 X29.067 Y77.548 E44.38081
G1 X28.874 Y76.954 E44.45576
G1 X28.706 Y76.264 E44.54098
G1 X28.635 Y75.764 E44.60158
G1 X28.572 Y74.917 E44.7035
G1 X28.591 Y74.383 E44.76762
G1 X28.671 Y73.616 E44.86016
G1 X28.792 Y73.039 E44.93091
G1 X29.007 Y72.286 E45.02488
G1 X29.209 Y71.784 E45.08981
G1 X29.497 Y71.124 E45.17622
G1 X30.547 Y68.618 E45.50227
G1 X31.534 Y66.063 E45.83096
G1 X32.455 Y63.462 E46.16207
G1 X33.301 Y60.837 E46.49302
G1 X34.058 Y58.239 E46.81775
G1 X34.75 Y55.592 E47.14606
G1 X35.364 Y52.935 E47.4733
G1 X35.906 Y50.243 E47.80283
G1 X36.374 Y47.526 E48.13367
G1 X36.763 Y44.806 E48.46339
G1 X37.073 Y42.1 E48.79023
G1 X37.305 Y39.398 E49.11566
G1 X37.456 Y36.482 E49.46605
G1 X37.517 Y35.492 E49.58508
G1 X37.579 Y35.031 E49.6409
G1 X37.7 Y34.455 E49.71153
G1 X37.915 Y33.701 E49.80561
G1 X38.106 Y33.23 E49.8666
G1 X38.459 Y32.503 E49.96358
G1 X38.803 Y31.95 E50.04173
G1 X39.214 Y31.393 E50.1248
G10
;MESH:bearing_shell_3_new.stl
G0 F3600 X41.155 Y33.006
G0 X42.097 Y33.879
G0 X42.962 Y36.077
G0 X43.061 Y36.085
;TYPE:WALL-INNER
G11
G1 F1800 X43.11 Y36.727 E50.20207
G1 X43.347 Y37.324 E50.27914
G1 X43.755 Y37.822 E50.3564
G1 X44.293 Y38.173 E50.43348
G1 X44.913 Y38.347 E50.51076
G1 X45.556 Y38.325 E50.58796
G1 X46.161 Y38.109 E50.66505
G1 X46.674 Y37.722 E50.74216
G1 X47.047 Y37.196 E50.81954
G1 X47.243 Y36.584 E50.89666
G1 X47.245 Y35.941 E50.97382
G1 X47.055 Y35.328 E51.05083
G1 X46.687 Y34.798 E51.12826
G1 X46.175 Y34.407 E51.20557
G1 X45.57 Y34.187 E51.28282
G1 X44.951 Y34.161 E51.35716
G1 X44.59 Y34.231 E51.40129
G1 X44.024 Y34.481 E51.47554
G1 X43.541 Y34.909 E51.55298
G1 X43.212 Y35.46 E51.62999
G1 X43.061 Y36.085 E51.70715
G0 F3600 X42.962 Y36.077
G0 X43.313 Y37.344
G0 X56.143 Y45.243
G0 X56.923 Y45.61
G0 X56.95 Y45.514
G1 F1800 X57.784 Y45.667 E51.8089
G1 X58.596 Y45.668 E51.90634
G1 X59.292 Y45.618 E51.99007
G1 X59.962 Y45.6 E52.0705
G1 X60.622 Y45.614 E52.14972
G1 X61.276 Y45.657 E52.22837
G1 X61.926 Y45.73 E52.30686
G1 X62.591 Y45.836 E52.38767
G1 X63.231 Y45.968 E52.46608
G1 X63.89 Y46.135 E52.54766
G1 X64.499 Y46.321 E52.62408
G1 X65.141 Y46.549 E52.70583
G1 X65.745 Y46.795 E52.78409
G1 X66.344 Y47.073 E52.86334
G1 X66.94 Y47.383 E52.94395
G1 X67.543 Y47.733 E53.02762
G1 X68.26 Y48.084 E53.12341
G1 X69.075 Y48.313 E53.225
G1 X69.923 Y48.389 E53.32717
G1 X70.768 Y48.309 E53.42902
G1 X71.582 Y48.073 E53.53073
G1 X72.313 Y47.707 E53.62883
G1 X81.672 Y41.86 E54.95306
G1 X82.273 Y41.554 E55.03399
G1 X82.923 Y41.354 E55.1156
G1 X83.592 Y41.27 E55.19651
G1 X84.279 Y41.301 E55.27904
G1 X84.94 Y41.453 E55.36043
G1 X85.564 Y41.715 E55.44164
G1 X86.133 Y42.082 E55.52289
G1 X86.636 Y42.548 E55.60517
G1 X87.044 Y43.085 E55.6861
G1 X87.354 Y43.691 E55.76779
G1 X87.554 Y44.34 E55.84928
G1 X87.638 Y45.009 E55.93019
G1 X87.607 Y45.694 E56.01247
G1 X87.454 Y46.359 E56.09436
G1 X87.196 Y46.976 E56.17461
G1 X86.824 Y47.552 E56.25689
G1 X86.359 Y48.052 E56.33883
G1 X85.808 Y48.471 E56.4219
G1 X76.447 Y54.321 E57.74653
G1 X75.806 Y54.81 E57.84328
G1 X75.235 Y55.438 E57.94513
G1 X74.792 Y56.16 E58.04678
G1 X74.486 Y56.95 E58.14844
G1 X74.333 Y57.784 E58.25019
G1 X74.332 Y58.596 E58.34763
G1 X74.382 Y59.285 E58.43053
G1 X74.4 Y59.965 E58.51216
G1 X74.386 Y60.622 E58.59102
G1 X74.344 Y61.267 E58.66858
G1 X74.27 Y61.926 E58.74816
G1 X74.165 Y62.588 E58.82859
G1 X74.034 Y63.225 E58.90663
G1 X73.865 Y63.89 E58.98897
G1 X73.681 Y64.494 E59.06473
G1 X73.451 Y65.141 E59.14713
G1 X73.209 Y65.736 E59.22421
G1 X72.931 Y66.336 E59.30357
G1 X72.619 Y66.935 E59.38461
G1 X72.267 Y67.543 E59.46892
G1 X71.916 Y68.26 E59.56471
G1 X71.687 Y69.075 E59.6663
G1 X71.611 Y69.923 E59.76847
G1 X71.691 Y70.768 E59.87032
G1 X71.927 Y71.582 E59.97203
G1 X72.293 Y72.313 E60.07013
G1 X78.142 Y81.675 E61.3948
G1 X78.446 Y82.273 E61.4753
G1 X78.646 Y82.923 E61.55691
G1 X78.73 Y83.592 E61.63782
G1 X78.699 Y84.279 E61.72034
G1 X78.547 Y84.94 E61.80173
G1 X78.285 Y85.564 E61.88294
G1 X77.918 Y86.133 E61.96419
G1 X77.452 Y86.636 E62.04648
G1 X76.915 Y87.044 E62.12741
G1 X76.309 Y87.354 E62.20909
G1 X75.66 Y87.554 E62.29058
G1 X74.991 Y87.638 E62.37149
G1 X74.304 Y87.607 E62.45402
G1 X73.641 Y87.455 E62.53564
G1 X73.024 Y87.196 E62.61594
G1 X72.448 Y86.824 E62.69822
G1 X71.948 Y86.359 E62.78016
G1 X71.529 Y85.808 E62.86322
G1 X65.679 Y76.447 E64.18786
G1 X65.19 Y75.806 E64.2846
G1 X64.562 Y75.235 E64.38646
G1 X63.84 Y74.792 E64.48811
G1 X63.05 Y74.486 E64.58977
G1 X62.216 Y74.333 E64.69152
G1 X61.404 Y74.332 E64.78896
G1 X60.708 Y74.382 E64.8727
G1 X60.038 Y74.4 E64.95312
G1 X59.378 Y74.386 E65.03234
G1 X58.724 Y74.343 E65.11099
G1 X58.074 Y74.27 E65.18948
G1 X57.409 Y74.164 E65.27029
G1 X56.77 Y74.032 E65.34859
G1 X56.11 Y73.865 E65.43028
G1 X55.501 Y73.679 E65.5067
G1 X54.856 Y73.45 E65.58883
G1 X54.254 Y73.204 E65.66687
G1 X53.654 Y72.926 E65.74622
G1 X53.06 Y72.617 E65.82657
G1 X52.457 Y72.267 E65.91024
G1 X51.74 Y71.916 E66.00603
G1 X50.925 Y71.687 E66.10762
G1 X50.077 Y71.611 E66.20979
G1 X49.232 Y71.691 E66.31164
G1 X48.418 Y71.927 E66.41334
G1 X47.687 Y72.293 E66.51144
G1 X38.328 Y78.14 E67.83568
G1 X37.727 Y78.446 E67.91661
G1 X37.077 Y78.646 E67.99822
G1 X36.408 Y78.73 E68.07913
G1 X35.721 Y78.699 E68.16166
G1 X35.06 Y78.547 E68.24305
G1 X34.436 Y78.285 E68.32426
G1 X33.867 Y77.918 E68.40551
G1 X33.364 Y77.452 E68.48779
G1 X32.956 Y76.915 E68.56872
G1 X32.646 Y76.309 E68.6504
G1 X32.446 Y75.66 E68.7319
G1 X32.362 Y74.991 E68.81281
G1 X32.393 Y74.303 E68.89545
G1 X32.545 Y73.641 E68.97696
G1 X32.804 Y73.024 E69.05726
G1 X33.176 Y72.448 E69.13954
G1 X33.641 Y71.948 E69.22148
G1 X34.192 Y71.529 E69.30454
G1 X43.553 Y65.679 E70.62917
G1 X44.194 Y65.19 E70.72592
G1 X44.765 Y64.562 E70.82778
G1 X45.208 Y63.84 E70.92942
G1 X45.514 Y63.05 E71.03109
G1 X45.667 Y62.216 E71.13284
G1 X45.668 Y61.404 E71.23028
G1 X45.618 Y60.708 E71.31401
G1 X45.6 Y60.035 E71.3948
G1 X45.614 Y59.374 E71.47414
G1 X45.656 Y58.733 E71.55122
G1 X45.73 Y58.074 E71.6308
G1 X45.835 Y57.412 E71.71123
G1 X45.966 Y56.775 E71.78927
G1 X46.136 Y56.107 E71.87199
G1 X46.321 Y55.498 E71.94837
G1 X46.549 Y54.859 E72.02978
G1 X46.791 Y54.264 E72.10686
G1 X47.069 Y53.664 E72.18621
G1 X47.383 Y53.06 E72.2679
G1 X47.733 Y52.457 E72.35157
G1 X48.084 Y51.74 E72.44737
G1 X48.313 Y50.925 E72.54895
G1 X48.389 Y50.077 E72.65112
G1 X48.309 Y49.232 E72.75297
G1 X48.073 Y48.418 E72.85468
G1 X47.707 Y47.687 E72.95278
G1 X41.858 Y38.325 E74.27745
G1 X41.554 Y37.727 E74.35795
G1 X41.354 Y37.077 E74.43956
G1 X41.27 Y36.408 E74.52047
G1 X41.301 Y35.721 E74.60299
G1 X41.453 Y35.06 E74.68438
G1 X41.715 Y34.436 E74.76559
G1 X42.082 Y33.867 E74.84685
G1 X42.548 Y33.364 E74.92913
G1 X43.085 Y32.956 E75.01006
G1 X43.691 Y32.646 E75.09174
G1 X44.34 Y32.446 E75.17323
G1 X45.009 Y32.362 E75.25414
G1 X45.696 Y32.393 E75.33667
G1 X46.359 Y32.545 E75.41829
G1 X46.976 Y32.804 E75.49859
G1 X47.552 Y33.176 E75.58087
G1 X48.052 Y33.641 E75.66281
G1 X48.468 Y34.187 E75.74518
G1 X54.321 Y43.553 E77.07051
G1 X54.81 Y44.194 E77.16726
G1 X55.438 Y44.765 E77.26911
G1 X56.16 Y45.208 E77.37076
