;FLAVOR:UltiGCode
;TIME:3183
;MATERIAL:5850
;MATERIAL2:0
;NOZZLE_DIAMETER:0.4
;MINX:12.76
;MINY:30.808
;MINZ:0.3
;MAXX:108.706
;MAXY:88.85
;MAXZ:6
;Generated with Cura_SteamEngine 4.7.1
M82 ;absolute extrusion mode
G0 F3000 Y50 ;avoid prime blob
G92 E0
G92 E0
G10
;LAYER_COUNT:39
;LAYER:0
M107
G0 F3600 X26.215 Y32.368 Z0.3
;TYPE:SKIRT
G11
G1 F1800 X26.723 Y31.998 E0.07542
G1 X27.184 Y31.718 E0.14014
G1 X27.717 Y31.449 E0.21178
G1 X28.198 Y31.251 E0.2742
G1 X28.803 Y31.058 E0.35041
G1 X29.347 Y30.933 E0.41739
G1 X29.957 Y30.844 E0.49136
G1 X30.512 Y30.808 E0.5581
G1 X30.665 Y30.808 E0.57646
G1 X31.445 Y30.842 E0.67015
G1 X32.246 Y30.975 E0.76759
G1 X32.558 Y31.048 E0.80604
G1 X35.136 Y31.79 E1.12796
G1 X37.801 Y32.476 E1.45818
G1 X40.446 Y33.078 E1.7837
G1 X43.157 Y33.614 E2.11532
G1 X45.849 Y34.069 E2.44294
G1 X48.573 Y34.449 E2.77299
G1 X51.274 Y34.749 E3.0991
G1 X54.018 Y34.975 E3.42949
G1 X56.735 Y35.122 E3.75601
G1 X59.484 Y35.192 E4.086
G1 X62.239 Y35.185 E4.4166
G1 X64.953 Y35.102 E4.74243
G1 X67.659 Y34.941 E5.06772
G1 X71.297 Y34.606 E5.50613
G1 X71.942 Y34.547 E5.58385
G1 X72.696 Y34.546 E5.67434
G1 X73.348 Y34.612 E5.75297
G1 X73.899 Y34.71 E5.82013
G1 X74.418 Y34.848 E5.88458
G1 X75.007 Y35.057 E5.95957
G1 X75.513 Y35.284 E6.02612
G1 X78.057 Y36.64 E6.37206
G1 X80.525 Y37.868 E6.70286
G1 X82.985 Y39.006 E7.02812
G1 X85.522 Y40.093 E7.35932
G1 X88.04 Y41.09 E7.68431
G1 X90.663 Y42.043 E8.0192
G1 X93.207 Y42.887 E8.34084
G1 X95.874 Y43.688 E8.675
G1 X98.482 Y44.393 E8.9992
G1 X101.151 Y45.033 E9.32855
G1 X102.801 Y45.385 E9.53101
G1 X103.348 Y45.519 E9.59859
G1 X103.914 Y45.692 E9.66961
G1 X104.442 Y45.901 E9.73776
G1 X104.96 Y46.158 E9.80715
G1 X105.402 Y46.42 E9.8688
G1 X105.932 Y46.795 E9.94671
G1 X106.355 Y47.151 E10.01306
G1 X106.787 Y47.576 E10.08578
G1 X107.159 Y48.013 E10.15465
G1 X107.517 Y48.508 E10.22795
G1 X107.798 Y48.972 E10.29305
G1 X108.065 Y49.499 E10.36394
G1 X108.267 Y49.994 E10.4281
G1 X108.456 Y50.587 E10.50278
G1 X108.578 Y51.11 E10.56723
G1 X108.67 Y51.726 E10.64197
G1 X108.706 Y52.295 E10.71039
G1 X108.697 Y52.886 E10.78131
G1 X108.639 Y53.46 E10.85054
G1 X108.538 Y54.029 E10.91989
G1 X108.402 Y54.546 E10.98404
G1 X108.2 Y55.123 E11.0574
G1 X107.964 Y55.65 E11.12669
G1 X107.911 Y55.753 E11.14059
G1 X106.605 Y58.201 E11.47355
G1 X105.392 Y60.641 E11.80053
G1 X104.232 Y63.148 E12.13201
G1 X103.151 Y65.667 E12.46095
G1 X102.152 Y68.191 E12.78669
G1 X101.209 Y70.785 E13.1179
G1 X100.336 Y73.421 E13.45112
G1 X99.565 Y75.985 E13.77241
G1 X98.85 Y78.634 E14.10167
G1 X98.209 Y81.305 E14.43129
G1 X97.86 Y82.944 E14.63238
G1 X97.728 Y83.486 E14.69932
G1 X97.555 Y84.055 E14.77068
G1 X97.348 Y84.574 E14.83773
G1 X97.081 Y85.116 E14.91024
G1 X96.784 Y85.607 E14.9791
G1 X96.432 Y86.098 E15.0516
G1 X96.081 Y86.513 E15.11682
G1 X95.673 Y86.927 E15.18657
G1 X95.22 Y87.312 E15.25791
G1 X94.745 Y87.656 E15.32829
G1 X94.278 Y87.94 E15.39388
G1 X93.745 Y88.21 E15.46558
G1 X93.232 Y88.419 E15.53205
G1 X92.665 Y88.599 E15.60343
G1 X92.149 Y88.72 E15.66703
G1 X91.509 Y88.814 E15.74466
G1 X90.952 Y88.85 E15.81164
G1 X90.374 Y88.842 E15.881
G1 X89.791 Y88.784 E15.95131
G1 X89.209 Y88.681 E16.02223
G1 X88.725 Y88.56 E16.0821
G1 X86.454 Y87.902 E16.36583
G1 X83.824 Y87.221 E16.69184
G1 X81.165 Y86.61 E17.01923
G1 X78.489 Y86.077 E17.34666
G1 X75.733 Y85.607 E17.68216
G1 X73.069 Y85.231 E18.00501
G1 X70.342 Y84.924 E18.33431
G1 X67.594 Y84.693 E18.66524
G1 X64.878 Y84.542 E18.99166
G1 X62.127 Y84.467 E19.3219
G1 X59.41 Y84.469 E19.64794
G1 X56.658 Y84.55 E19.97832
G1 X53.914 Y84.708 E20.30815
G1 X50.018 Y85.068 E20.77766
G1 X49.332 Y85.117 E20.86019
G1 X48.742 Y85.11 E20.931
G1 X48.216 Y85.062 E20.99438
G1 X47.581 Y84.95 E21.07176
G1 X47.039 Y84.807 E21.13902
G1 X46.457 Y84.601 E21.21311
G1 X45.868 Y84.331 E21.29086
G1 X45.786 Y84.289 E21.30191
G1 X43.523 Y83.078 E21.60991
G1 X41.069 Y81.853 E21.93904
G1 X38.565 Y80.691 E22.2703
G1 X36.071 Y79.617 E22.59615
G1 X33.542 Y78.612 E22.92272
G1 X30.954 Y77.667 E23.25333
G1 X28.357 Y76.802 E23.58181
G1 X25.728 Y76.008 E23.91136
G1 X23.116 Y75.299 E24.23614
G1 X20.398 Y74.643 E24.57167
G1 X18.638 Y74.267 E24.78763
G1 X18.095 Y74.133 E24.85475
G1 X17.546 Y73.964 E24.92368
G1 X16.998 Y73.743 E24.99458
G1 X16.49 Y73.492 E25.06258
G1 X16.033 Y73.219 E25.12646
G1 X15.522 Y72.853 E25.20189
G1 X15.11 Y72.507 E25.26645
G1 X14.673 Y72.075 E25.34019
G1 X14.309 Y71.648 E25.40752
G1 X13.95 Y71.155 E25.4807
G1 X13.669 Y70.693 E25.54559
G1 X13.389 Y70.137 E25.62029
G1 X13.186 Y69.633 E25.68549
G1 X13.003 Y69.054 E25.75836
G1 X12.878 Y68.497 E25.82686
G1 X12.796 Y67.932 E25.89537
G1 X12.76 Y67.325 E25.96834
G1 X12.765 Y66.806 E26.03062
G1 X12.834 Y66.143 E26.11061
G1 X12.929 Y65.614 E26.17511
G1 X13.067 Y65.095 E26.23955
G1 X13.257 Y64.552 E26.30859
G1 X13.515 Y63.974 E26.38454
G1 X13.571 Y63.865 E26.39925
G1 X14.834 Y61.502 E26.72077
G1 X16.05 Y59.062 E27.04792
G1 X17.204 Y56.576 E27.37681
G1 X18.287 Y54.053 E27.70629
G1 X19.285 Y51.538 E28.03098
G1 X20.229 Y48.947 E28.36189
G1 X21.095 Y46.339 E28.69166
G1 X21.882 Y43.729 E29.01878
G1 X22.598 Y41.082 E29.34784
G1 X23.237 Y38.432 E29.67495
G1 X23.606 Y36.707 E29.88664
G1 X23.743 Y36.147 E29.95582
G1 X23.911 Y35.598 E30.02471
G1 X24.119 Y35.073 E30.09248
G1 X24.396 Y34.518 E30.16691
G1 X24.674 Y34.057 E30.23151
G1 X25.021 Y33.574 E30.30288
G1 X25.386 Y33.143 E30.37065
G1 X25.804 Y32.72 E30.44202
G1 X26.215 Y32.368 E30.50695
G10
;MESH:bearing_shell_2_new.stl
G0 F3600 X27.694 Y34.42
G0 X28.457 Y35.453
G0 X28.703 Y36.924
G0 X28.791 Y36.971
;TYPE:WALL-INNER
G11
G1 F1800 X28.592 Y37.498 E30.57455
G1 X28.536 Y38.056 E30.64185
G1 X28.626 Y38.61 E30.7092
G1 X28.856 Y39.123 E30.77666
G1 X29.213 Y39.559 E30.84428
G1 X29.669 Y39.888 E30.91176
G1 X30.194 Y40.086 E30.97909
G1 X30.753 Y40.143 E31.04652
G1 X31.307 Y40.052 E31.11389
G1 X31.82 Y39.822 E31.18135
G1 X32.256 Y39.466 E31.2489
G1 X32.585 Y39.01 E31.31638
G1 X32.783 Y38.485 E31.38371
G1 X32.84 Y37.926 E31.45113
G1 X32.749 Y37.372 E31.51851
G1 X32.519 Y36.859 E31.58597
G1 X32.163 Y36.423 E31.65352
G1 X31.707 Y36.094 E31.72099
G1 X31.182 Y35.896 E31.78832
G1 X30.623 Y35.839 E31.85575
G1 X30.069 Y35.93 E31.92312
G1 X29.556 Y36.16 E31.99058
G1 X29.121 Y36.515 E32.05796
G1 X28.791 Y36.971 E32.12551
G0 F3600 X28.703 Y36.924
G0 X28.497 Y38.057
G0 X33.045 Y47.985
G0 X33.145 Y47.985
G1 F1800 X33.222 Y48.543 E32.1931
G1 X33.438 Y49.06 E32.26034
G1 X33.779 Y49.503 E32.32742
G1 X34.227 Y49.845 E32.39506
G1 X34.747 Y50.06 E32.46258
G1 X35.305 Y50.132 E32.5301
G1 X35.864 Y50.057 E32.59778
G1 X36.383 Y49.84 E32.66528
G1 X36.829 Y49.497 E32.7328
G1 X37.17 Y49.048 E32.80046
G1 X37.384 Y48.528 E32.86793
G1 X37.457 Y47.972 E32.93523
G1 X37.38 Y47.411 E33.00318
G1 X37.163 Y46.893 E33.07057
G1 X36.819 Y46.448 E33.13807
G1 X36.371 Y46.107 E33.20563
G1 X35.85 Y45.894 E33.27317
G1 X35.293 Y45.821 E33.34058
G1 X34.735 Y45.898 E33.40818
G1 X34.216 Y46.116 E33.47573
G1 X33.772 Y46.46 E33.54313
G1 X33.43 Y46.908 E33.61076
G1 X33.218 Y47.428 E33.67815
G1 X33.145 Y47.985 E33.74556
G0 F3600 X33.045 Y47.985
G0 X32.289 Y57.963
G0 X32.389 Y57.963
G1 F1800 X32.434 Y58.756 E33.84088
G1 X32.519 Y59.365 E33.91466
G1 X32.712 Y60.134 E34.00981
G1 X32.91 Y60.714 E34.08335
G1 X33.241 Y61.434 E34.17844
G1 X33.543 Y61.968 E34.25206
G1 X34.002 Y62.615 E34.34725
G1 X34.399 Y63.082 E34.42081
G1 X34.969 Y63.633 E34.51594
G1 X35.447 Y64.019 E34.58967
G1 X36.11 Y64.454 E34.68482
G1 X36.65 Y64.743 E34.75832
G1 X37.382 Y65.048 E34.85348
G1 X37.968 Y65.23 E34.92711
G1 X38.743 Y65.396 E35.02222
G1 X39.352 Y65.465 E35.09577
G1 X40.008 Y65.484 E35.17452
G1 X40.62 Y65.456 E35.24804
G1 X41.402 Y65.336 E35.34298
G1 X41.999 Y65.193 E35.41665
G1 X42.748 Y64.932 E35.51183
G1 X43.306 Y64.68 E35.5853
G1 X43.994 Y64.285 E35.6805
G1 X44.497 Y63.931 E35.75431
G1 X45.098 Y63.415 E35.84936
G1 X45.525 Y62.976 E35.92285
G1 X46.022 Y62.358 E36.01802
G1 X46.359 Y61.844 E36.09177
G1 X46.732 Y61.146 E36.18674
G1 X46.968 Y60.58 E36.26033
G1 X47.206 Y59.822 E36.35567
G1 X47.331 Y59.221 E36.42933
G1 X47.423 Y58.441 E36.52358
G1 X47.429 Y58.279 E36.54303
G1 X47.428 Y57.635 E36.62031
G1 X47.381 Y57.024 E36.69385
G1 X47.237 Y56.246 E36.7888
G1 X47.076 Y55.652 E36.86265
G1 X46.791 Y54.914 E36.95758
G1 X46.522 Y54.361 E37.03138
G1 X46.104 Y53.688 E37.12645
G1 X45.737 Y53.196 E37.2001
G1 X45.202 Y52.611 E37.29523
G1 X44.75 Y52.198 E37.3687
G1 X44.115 Y51.721 E37.46401
G1 X43.593 Y51.4 E37.53754
G1 X42.882 Y51.049 E37.63269
G1 X42.309 Y50.831 E37.70626
G1 X41.544 Y50.617 E37.80159
G1 X40.941 Y50.511 E37.87506
G1 X40.147 Y50.442 E37.9707
G1 X39.354 Y50.462 E38.06589
G1 X38.744 Y50.529 E38.13953
G1 X37.97 Y50.696 E38.23454
G1 X37.381 Y50.877 E38.30849
G1 X36.652 Y51.184 E38.40341
G1 X36.109 Y51.471 E38.47711
G1 X35.448 Y51.908 E38.5722
G1 X34.969 Y52.292 E38.64587
G1 X34.4 Y52.845 E38.74108
G1 X34.001 Y53.309 E38.81452
G1 X33.544 Y53.958 E38.90977
G1 X33.24 Y54.49 E38.98329
G1 X32.911 Y55.212 E39.07851
G1 X32.711 Y55.79 E39.1519
G1 X32.52 Y56.562 E39.24733
G1 X32.433 Y57.169 E39.32092
G1 X32.389 Y57.963 E39.41634
G0 F3600 X32.289 Y57.963
G0 X28.371 Y61.03
G0 X27.672 Y62.584
G0 X27.772 Y62.584
G1 F1800 X27.849 Y63.142 E39.48394
G1 X28.067 Y63.661 E39.55149
G1 X28.411 Y64.106 E39.61898
G1 X28.859 Y64.446 E39.68647
G1 X29.378 Y64.659 E39.75379
G1 X29.936 Y64.732 E39.82133
G1 X30.495 Y64.655 E39.88904
G1 X31.011 Y64.438 E39.95621
G1 X31.454 Y64.098 E40.02322
G1 X31.796 Y63.65 E40.09086
G1 X32.011 Y63.13 E40.15838
G1 X32.083 Y62.572 E40.2259
G1 X32.008 Y62.013 E40.29358
G1 X31.791 Y61.494 E40.36108
G1 X31.448 Y61.048 E40.4286
G1 X30.999 Y60.707 E40.49626
G1 X30.479 Y60.493 E40.56373
G1 X29.923 Y60.42 E40.63103
G1 X29.362 Y60.497 E40.69898
G1 X28.844 Y60.714 E40.76637
G1 X28.399 Y61.058 E40.83387
G1 X28.058 Y61.506 E40.90143
G1 X27.845 Y62.027 E40.96897
G1 X27.772 Y62.584 E41.03638
G0 F3600 X27.672 Y62.584
G0 X19.312 Y65.09
G0 X18.345 Y65.687
G0 X17.691 Y67.257
G0 X17.79 Y67.254
G1 F1800 X17.881 Y67.808 E41.10375
G1 X18.111 Y68.321 E41.17122
G1 X18.467 Y68.757 E41.23876
G1 X18.923 Y69.086 E41.30624
G1 X19.448 Y69.284 E41.37357
G1 X20.007 Y69.341 E41.441
G1 X20.561 Y69.25 E41.50837
G1 X21.074 Y69.02 E41.57583
G1 X21.51 Y68.664 E41.64338
G1 X21.839 Y68.208 E41.71085
G1 X22.037 Y67.683 E41.77819
G1 X22.094 Y67.124 E41.84561
G1 X22.003 Y66.57 E41.91298
G1 X21.773 Y66.057 E41.98045
G1 X21.417 Y65.621 E42.04799
G1 X20.961 Y65.292 E42.11547
G1 X20.436 Y65.094 E42.1828
G1 X19.877 Y65.037 E42.25023
G1 X19.323 Y65.128 E42.3176
G1 X18.81 Y65.358 E42.38506
G1 X18.374 Y65.714 E42.45261
G1 X18.045 Y66.17 E42.52008
G1 X17.847 Y66.695 E42.58742
G1 X17.79 Y67.254 E42.65484
G0 F3600 X17.691 Y67.257
G0 X18.077 Y68.342
G0 X18.905 Y69.121
G0 X20.008 Y69.38
G0 X25.901 Y68.157
G0 X27.581 Y67.38
G0 X28.828 Y67.175
G0 X44.535 Y70.205
G0 X44.535 Y70.105
G1 F1800 X45.093 Y70.028 E42.72244
G1 X45.612 Y69.81 E42.78999
G1 X46.057 Y69.466 E42.85748
G1 X46.397 Y69.018 E42.92497
G1 X46.61 Y68.499 E42.99229
G1 X46.683 Y67.941 E43.05983
G1 X46.606 Y67.382 E43.12754
G1 X46.389 Y66.866 E43.19471
G1 X46.049 Y66.423 E43.26172
G1 X45.601 Y66.081 E43.32936
G1 X45.081 Y65.866 E43.39688
G1 X44.523 Y65.794 E43.4644
G1 X43.964 Y65.869 E43.53208
G1 X43.444 Y66.086 E43.59969
G1 X42.999 Y66.43 E43.66719
G1 X42.658 Y66.878 E43.73475
G1 X42.444 Y67.398 E43.80223
G1 X42.371 Y67.954 E43.86952
G1 X42.448 Y68.515 E43.93747
G1 X42.665 Y69.033 E44.00487
G1 X43.009 Y69.478 E44.07236
G1 X43.457 Y69.819 E44.13992
G1 X43.978 Y70.032 E44.20747
G1 X44.535 Y70.105 E44.27488
G0 F3600 X44.535 Y70.205
G0 X46.889 Y78.003
G0 X46.988 Y78
G1 F1800 X47.079 Y78.554 E44.34225
G1 X47.309 Y79.067 E44.40971
G1 X47.665 Y79.503 E44.47726
G1 X48.121 Y79.832 E44.54473
G1 X48.646 Y80.03 E44.61206
G1 X49.205 Y80.087 E44.67949
G1 X49.759 Y79.996 E44.74686
G1 X50.272 Y79.766 E44.81433
G1 X50.708 Y79.41 E44.88187
G1 X51.037 Y78.954 E44.94935
G1 X51.235 Y78.429 E45.01668
G1 X51.292 Y77.87 E45.08411
G1 X51.201 Y77.316 E45.15148
G1 X50.971 Y76.803 E45.21894
G1 X50.615 Y76.367 E45.28649
G1 X50.159 Y76.038 E45.35396
G1 X49.634 Y75.84 E45.42129
G1 X49.075 Y75.783 E45.48872
G1 X48.521 Y75.874 E45.55609
G1 X48.008 Y76.104 E45.62356
G1 X47.572 Y76.46 E45.6911
G1 X47.243 Y76.916 E45.75858
G1 X47.045 Y77.441 E45.82591
G1 X46.988 Y78 E45.89334
G0 F3600 X46.889 Y78.003
G0 X49.364 Y67.793
G0 X52.801 Y58.479
G0 X53.875 Y55.703
G0 X53.957 Y55.76
G1 F1800 X53.644 Y56.31 E45.96928
G1 X53.435 Y56.885 E46.04269
G1 X53.328 Y57.509 E46.11867
G1 X53.313 Y57.829 E46.15711
G1 X53.306 Y58.417 E46.22767
G1 X53.276 Y58.975 E46.29473
G1 X53.221 Y59.542 E46.36309
G1 X53.139 Y60.12 E46.43314
G1 X53.039 Y60.665 E46.49964
G1 X52.912 Y61.22 E46.56796
G1 X52.755 Y61.79 E46.6389
G1 X52.583 Y62.327 E46.70657
G1 X52.393 Y62.845 E46.77278
G1 X52.164 Y63.394 E46.84416
G1 X51.934 Y63.886 E46.90933
G1 X51.663 Y64.405 E46.97959
G1 X51.388 Y64.885 E47.04598
G1 X51.082 Y65.367 E47.11449
G1 X50.749 Y65.847 E47.18459
G1 X50.415 Y66.286 E47.25078
G1 X50.023 Y66.759 E47.3245
G1 X49.677 Y67.238 E47.39541
G1 X49.401 Y67.807 E47.4713
G1 X49.228 Y68.417 E47.54739
G1 X49.165 Y69.049 E47.6236
G1 X49.212 Y69.68 E47.69953
G1 X49.367 Y70.284 E47.77436
G1 X49.492 Y70.589 E47.81392
G1 X52.214 Y76.483 E48.59298
G1 X52.411 Y77.02 E48.66162
G1 X52.515 Y77.545 E48.72584
G1 X52.535 Y78.099 E48.79236
G1 X52.466 Y78.637 E48.85745
G1 X52.309 Y79.162 E48.92321
G1 X52.073 Y79.65 E48.98826
G1 X51.757 Y80.101 E49.05434
G1 X51.376 Y80.493 E49.11994
G1 X50.936 Y80.818 E49.18558
G1 X50.444 Y81.072 E49.25202
G1 X49.934 Y81.238 E49.31638
G1 X49.388 Y81.323 E49.38269
G1 X48.837 Y81.32 E49.44881
G1 X48.306 Y81.231 E49.51342
G1 X47.788 Y81.053 E49.57915
G1 X47.301 Y80.792 E49.64545
G1 X46.871 Y80.465 E49.71028
G1 X46.495 Y80.068 E49.7759
G1 X46.177 Y79.6 E49.84379
G1 X46.052 Y79.357 E49.87659
G1 X43.311 Y73.426 E50.66064
G1 X43.001 Y72.888 E50.73515
G1 X42.603 Y72.415 E50.80933
G1 X42.117 Y72.008 E50.8854
G1 X41.567 Y71.693 E50.96145
G1 X40.991 Y71.485 E51.03494
G1 X40.37 Y71.377 E51.11058
G1 X40.048 Y71.362 E51.14926
G1 X39.452 Y71.355 E51.22079
G1 X38.869 Y71.322 E51.29086
G1 X38.322 Y71.268 E51.35682
G1 X37.757 Y71.188 E51.4253
G1 X37.202 Y71.086 E51.49301
G1 X36.651 Y70.959 E51.56086
G1 X36.094 Y70.807 E51.63015
G1 X35.551 Y70.632 E51.69861
G1 X35.029 Y70.44 E51.76535
G1 X34.483 Y70.213 E51.83631
G1 X33.983 Y69.979 E51.90255
G1 X33.464 Y69.708 E51.97281
G1 X32.993 Y69.437 E52.03802
G1 X32.491 Y69.118 E52.10939
G1 X32.028 Y68.797 E52.177
G1 X31.578 Y68.454 E52.2449
G1 X31.117 Y68.073 E52.31667
G1 X30.639 Y67.727 E52.38748
G1 X30.07 Y67.45 E52.46342
G1 X29.46 Y67.277 E52.53951
G1 X28.828 Y67.214 E52.61572
G1 X28.196 Y67.261 E52.69177
G1 X27.593 Y67.417 E52.76651
G1 X27.288 Y67.541 E52.80602
G1 X21.382 Y70.268 E53.58664
G1 X20.863 Y70.459 E53.65301
G1 X20.332 Y70.564 E53.71796
G1 X19.778 Y70.584 E53.78448
G1 X19.241 Y70.515 E53.84945
G1 X18.713 Y70.357 E53.91559
G1 X18.225 Y70.121 E53.98064
G1 X17.769 Y69.801 E54.04749
G1 X17.389 Y69.433 E54.11097
G1 X17.059 Y68.985 E54.17774
G1 X16.805 Y68.493 E54.24418
G1 X16.637 Y67.978 E54.30919
G1 X16.554 Y67.438 E54.37475
G1 X16.556 Y66.888 E54.44075
G1 X16.646 Y66.354 E54.50573
G1 X16.824 Y65.837 E54.57135
G1 X17.082 Y65.355 E54.63695
G1 X17.417 Y64.913 E54.7035
G1 X17.808 Y64.545 E54.76794
G1 X18.271 Y64.23 E54.83513
G1 X18.521 Y64.101 E54.86889
G1 X24.451 Y61.361 E55.65278
G1 X24.989 Y61.051 E55.72729
G1 X25.462 Y60.651 E55.80163
G1 X25.869 Y60.166 E55.87761
G1 X26.184 Y59.616 E55.95366
G1 X26.392 Y59.04 E56.02715
G1 X26.501 Y58.417 E56.10305
G1 X26.514 Y58.096 E56.1416
G1 X26.522 Y57.502 E56.21289
G1 X26.553 Y56.942 E56.28019
G1 X26.607 Y56.384 E56.34746
G1 X26.689 Y55.803 E56.41787
G1 X26.789 Y55.261 E56.48401
G1 X26.916 Y54.706 E56.55233
G1 X27.068 Y54.15 E56.6215
G1 X27.245 Y53.6 E56.69083
G1 X27.435 Y53.081 E56.75716
G1 X27.664 Y52.532 E56.82854
G1 X27.898 Y52.031 E56.89489
G1 X28.164 Y51.519 E56.96413
G1 X28.44 Y51.041 E57.03037
G1 X28.748 Y50.554 E57.09951
G1 X29.078 Y50.08 E57.16882
G1 X29.413 Y49.639 E57.23528
G1 X29.804 Y49.167 E57.30883
G1 X30.151 Y48.688 E57.3798
