;FLAVOR:UltiGCode
;TIME:4111
;MATERIAL:5327
;MATERIAL2:0
;NOZZLE_DIAMETER:0.4
;MINX:30
;MINY:44.694
;MINZ:0.3
;MAXX:90
;MAXY:71.894
;MAXZ:20
;Generated with Cura_SteamEngine 4.5.0
M82 ;absolute extrusion mode

G92 E0
G92 E0
G10
;LAYER_COUNT:198
;LAYER:0
M107
G0 F3600 X31.394 Y45.465 Z0.3
;TYPE:SKIRT
G11
G1 F1800 X31.841 Y45.167 E0.06447
G1 X32.326 Y44.939 E0.12878
G1 X32.84 Y44.786 E0.19313
G1 X33.508 Y44.704 E0.27389
G1 X40.945 Y44.694 E1.16633
G1 X41.643 Y44.704 E1.2501
G1 X42.515 Y44.804 E1.35543
G1 X44.53 Y45.149 E1.60075
G1 X47.226 Y45.534 E1.92755
G1 X49.937 Y45.842 E2.25496
G1 X52.663 Y46.075 E2.58328
G1 X55.355 Y46.229 E2.90684
G1 X58.117 Y46.308 E3.23842
G1 X60.812 Y46.308 E3.56182
G1 X63.58 Y46.231 E3.89411
G1 X66.268 Y46.079 E4.21718
G1 X68.993 Y45.848 E4.54536
G1 X71.704 Y45.541 E4.87275
G1 X74.392 Y45.159 E5.19856
G1 X76.046 Y44.886 E5.39972
G1 X76.788 Y44.757 E5.4901
G1 X77.291 Y44.706 E5.55077
G1 X85.745 Y44.694 E6.56525
G1 X86.443 Y44.704 E6.64902
G1 X86.977 Y44.752 E6.71335
G1 X87.498 Y44.878 E6.77768
G1 X87.995 Y45.081 E6.8421
G1 X88.456 Y45.355 E6.90645
G1 X88.871 Y45.694 E6.97076
G1 X89.231 Y46.092 E7.03516
G1 X89.528 Y46.538 E7.09946
G1 X89.756 Y47.024 E7.16388
G1 X89.908 Y47.538 E7.2282
G1 X89.99 Y48.203 E7.3086
G1 X90 Y67.603 E9.6366
G1 X89.991 Y68.33 E9.72385
G1 X89.944 Y68.864 E9.78818
G1 X89.819 Y69.385 E9.85247
G1 X89.617 Y69.882 E9.91685
G1 X89.344 Y70.344 E9.98124
G1 X89.006 Y70.76 E10.04556
G1 X88.609 Y71.121 E10.10995
G1 X88.163 Y71.419 E10.17432
G1 X87.678 Y71.647 E10.23863
G1 X87.164 Y71.801 E10.30302
G1 X86.492 Y71.884 E10.38427
G1 X34.261 Y71.894 E16.65199
G1 X33.563 Y71.885 E16.73576
G1 X33.028 Y71.838 E16.80021
G1 X32.507 Y71.712 E16.86453
G1 X32.01 Y71.51 E16.92891
G1 X31.549 Y71.237 E16.9932
G1 X31.133 Y70.898 E17.0576
G1 X30.772 Y70.502 E17.1219
G1 X30.474 Y70.056 E17.18627
G1 X30.246 Y69.57 E17.25069
G1 X30.093 Y69.056 E17.31504
G1 X30.01 Y68.382 E17.39653
G1 X30 Y48.919 E19.73209
G1 X30.009 Y48.254 E19.8119
G1 X30.057 Y47.72 E19.87624
G1 X30.183 Y47.199 E19.94056
G1 X30.385 Y46.702 E20.00494
G1 X30.658 Y46.241 E20.06923
G1 X30.997 Y45.825 E20.13363
G1 X31.394 Y45.465 E20.19794
G0 F3600 X31.78 Y45.677
G1 F1800 X32.217 Y45.422 E20.25865
G1 X32.688 Y45.238 E20.31933
G1 X33.182 Y45.132 E20.37996
G1 X33.84 Y45.095 E20.45904
G1 X40.939 Y45.094 E21.31092
G1 X41.637 Y45.104 E21.39469
G1 X42.455 Y45.199 E21.49351
G1 X44.477 Y45.546 E21.7397
G1 X47.191 Y45.933 E22.06867
G1 X49.894 Y46.24 E22.39512
G1 X52.607 Y46.473 E22.72188
G1 X55.355 Y46.629 E23.05217
G1 X58.106 Y46.708 E23.38243
G1 X60.824 Y46.708 E23.70859
G1 X63.576 Y46.631 E24.03895
G1 X66.291 Y46.478 E24.36527
G1 X69.035 Y46.246 E24.69573
G1 X71.769 Y45.936 E25.02591
G1 X74.469 Y45.553 E25.35315
G1 X76.109 Y45.281 E25.55264
G1 X76.856 Y45.151 E25.64363
G1 X77.618 Y45.096 E25.73531
G1 X85.739 Y45.094 E26.70983
G1 X86.437 Y45.104 E26.79359
G1 X86.94 Y45.151 E26.85422
G1 X87.43 Y45.277 E26.91493
G1 X87.894 Y45.479 E26.97566
G1 X88.32 Y45.751 E27.03631
G1 X88.698 Y46.086 E27.09692
G1 X89.018 Y46.477 E27.15755
G1 X89.273 Y46.914 E27.21826
G1 X89.456 Y47.385 E27.2789
G1 X89.563 Y47.879 E27.33956
G1 X89.599 Y48.534 E27.41827
G1 X89.6 Y67.598 E29.70595
G1 X89.591 Y68.325 E29.7932
G1 X89.545 Y68.828 E29.85381
G1 X89.42 Y69.318 E29.9145
G1 X89.219 Y69.782 E29.97518
G1 X88.948 Y70.209 E30.03586
G1 X88.613 Y70.588 E30.09656
G1 X88.223 Y70.909 E30.15718
G1 X87.787 Y71.165 E30.21785
G1 X87.316 Y71.348 E30.27849
G1 X86.822 Y71.456 E30.33917
G1 X86.16 Y71.493 E30.41873
G1 X34.266 Y71.494 E36.64601
G1 X33.568 Y71.485 E36.72978
G1 X33.064 Y71.438 E36.79052
G1 X32.574 Y71.313 E36.8512
G1 X32.11 Y71.112 E36.91188
G1 X31.684 Y70.841 E36.97247
G1 X31.305 Y70.506 E37.03317
G1 X30.984 Y70.115 E37.09388
G1 X30.729 Y69.679 E37.15449
G1 X30.545 Y69.208 E37.21517
G1 X30.438 Y68.714 E37.27582
G1 X30.401 Y68.038 E37.35706
G1 X30.4 Y48.925 E39.65062
G1 X30.409 Y48.26 E39.73043
G1 X30.456 Y47.756 E39.79117
G1 X30.582 Y47.267 E39.85177
G1 X30.783 Y46.803 E39.91245
G1 X31.054 Y46.376 E39.97314
G1 X31.389 Y45.998 E40.03375
G1 X31.78 Y45.677 E40.09445
G10
;MESH:slide_holder_1.stl
G0 F3600 X34.214 Y47.629
G0 X34.214 Y48.908
G0 X46.61 Y51.99
G0 X46.635 Y51.894
;TYPE:WALL-INNER
G11
G1 F1800 X72.365 Y51.894 E43.18205
G1 X77.559 Y48.894 E43.90183
G1 X85.8 Y48.894 E44.89075
G1 X85.8 Y67.694 E47.14675
G1 X34.2 Y67.694 E53.33875
G1 X34.2 Y48.894 E55.59475
G1 X41.441 Y48.894 E56.46367
G1 X46.635 Y51.894 E57.18345
G0 F3600 X46.61 Y51.99
G0 X42.576 Y58.742
G0 X42.36 Y59.877
G0 X42.647 Y60.997
G0 X43.386 Y61.887
G0 X44.44 Y62.441
G0 X44.458 Y62.343
G1 F1800 X45.271 Y62.385 E57.28114
G1 X45.846 Y62.257 E57.35183
G1 X46.364 Y62.012 E57.42059
G1 X46.817 Y61.659 E57.4895
G1 X47.181 Y61.217 E57.55821
G1 X47.44 Y60.704 E57.62718
G1 X47.579 Y60.149 E57.69583
G1 X47.595 Y59.577 E57.7645
G1 X47.484 Y59.013 E57.83348
G1 X47.252 Y58.488 E57.90236
G1 X46.913 Y58.027 E57.97102
G1 X46.48 Y57.652 E58.03976
G1 X45.975 Y57.38 E58.10859
G1 X45.423 Y57.225 E58.17739
G1 X44.849 Y57.194 E58.24637
G1 X44.285 Y57.292 E58.31507
G1 X43.755 Y57.507 E58.3837
G1 X43.284 Y57.836 E58.45264
G1 X42.897 Y58.259 E58.52144
G1 X42.612 Y58.757 E58.5903
G1 X42.443 Y59.305 E58.65911
G1 X42.399 Y59.876 E58.72784
G1 X42.478 Y60.442 E58.79641
G1 X42.682 Y60.979 E58.86535
G1 X42.998 Y61.458 E58.93421
G1 X43.41 Y61.856 E59.00295
G1 X43.899 Y62.153 E59.07161
G1 X44.458 Y62.343 E59.14245
G0 F3600 X44.44 Y62.441
G0 X60.279 Y62.484
G0 X60.271 Y62.385
G1 F1800 X60.845 Y62.257 E59.21303
G1 X61.364 Y62.012 E59.2819
G1 X61.817 Y61.659 E59.35081
G1 X62.181 Y61.217 E59.41952
G1 X62.44 Y60.704 E59.48848
G1 X62.579 Y60.149 E59.55714
G1 X62.595 Y59.577 E59.62581
G1 X62.484 Y59.014 E59.69467
G1 X62.253 Y58.489 E59.7635
G1 X61.913 Y58.028 E59.83224
G1 X61.481 Y57.653 E59.90088
G1 X60.976 Y57.38 E59.96977
G1 X60.424 Y57.225 E60.03857
G1 X59.852 Y57.194 E60.10731
G1 X59.287 Y57.291 E60.17611
G1 X58.756 Y57.506 E60.24485
G1 X58.283 Y57.837 E60.31413
G1 X57.898 Y58.258 E60.38259
G1 X57.612 Y58.755 E60.4514
G1 X57.443 Y59.303 E60.52021
G1 X57.398 Y59.875 E60.58907
G1 X57.478 Y60.441 E60.65766
G1 X57.68 Y60.977 E60.7264
G1 X57.996 Y61.457 E60.79536
G1 X58.409 Y61.855 E60.86419
G1 X58.898 Y62.153 E60.9329
G1 X59.457 Y62.341 E61.00368
G1 X60.271 Y62.385 E61.1015
G0 F3600 X60.279 Y62.484
G0 X74.44 Y62.441
G0 X74.458 Y62.343
G1 F1800 X75.271 Y62.385 E61.19919
G1 X75.846 Y62.257 E61.26988
G1 X76.364 Y62.012 E61.33864
G1 X76.817 Y61.659 E61.40755
G1 X77.181 Y61.217 E61.47627
G1 X77.44 Y60.704 E61.54523
G1 X77.579 Y60.149 E61.61388
G1 X77.595 Y59.577 E61.68255
G1 X77.484 Y59.013 E61.75153
G1 X77.252 Y58.488 E61.82041
G1 X76.913 Y58.027 E61.88907
G1 X76.48 Y57.652 E61.95781
G1 X75.975 Y57.38 E62.02664
G1 X75.423 Y57.225 E62.09544
G1 X74.849 Y57.194 E62.16442
G1 X74.285 Y57.292 E62.23312
G1 X73.755 Y57.507 E62.30175
G1 X73.284 Y57.836 E62.37069
G1 X72.897 Y58.259 E62.43949
G1 X72.612 Y58.757 E62.50835
G1 X72.443 Y59.305 E62.57716
G1 X72.399 Y59.876 E62.64589
G1 X72.478 Y60.442 E62.71447
G1 X72.682 Y60.979 E62.7834
G1 X72.998 Y61.458 E62.85226
G1 X73.41 Y61.856 E62.921
G1 X73.899 Y62.153 E62.98966
G1 X74.458 Y62.343 E63.0605
G0 F3600 X74.534 Y61.946
;TYPE:WALL-OUTER
G1 F1800 X75.237 Y61.983 E63.14498
G1 X75.715 Y61.876 E63.20376
G1 X76.153 Y61.669 E63.2619
G1 X76.536 Y61.371 E63.32013
G1 X76.844 Y60.997 E63.37827
G1 X77.063 Y60.564 E63.4365
G1 X77.18 Y60.094 E63.49462
G1 X77.194 Y59.61 E63.55272
G1 X77.1 Y59.134 E63.61095
G1 X76.904 Y58.69 E63.66919
G1 X76.617 Y58.3 E63.72729
G1 X76.251 Y57.983 E63.7854
G1 X75.824 Y57.753 E63.8436
G1 X75.357 Y57.622 E63.9018
G1 X74.873 Y57.596 E63.95996
G1 X74.396 Y57.679 E64.01806
G1 X73.947 Y57.861 E64.0762
G1 X73.549 Y58.139 E64.13446
G1 X73.222 Y58.496 E64.19255
G1 X72.981 Y58.917 E64.25077
G1 X72.838 Y59.38 E64.30891
G1 X72.801 Y59.863 E64.36704
G1 X72.868 Y60.342 E64.42508
G1 X73.04 Y60.796 E64.48334
G1 X73.307 Y61.201 E64.54155
G1 X73.656 Y61.537 E64.59969
G1 X74.069 Y61.788 E64.65768
G1 X74.534 Y61.946 E64.71662
G0 F3600 X74.734 Y61.956
G0 X74.708 Y62.455
G0 X60.21 Y62.48
G0 X60.237 Y61.983
G1 F1800 X60.714 Y61.876 E64.77528
G1 X61.153 Y61.669 E64.83352
G1 X61.536 Y61.371 E64.89175
G1 X61.844 Y60.997 E64.94989
G1 X62.063 Y60.564 E65.00812
G1 X62.18 Y60.094 E65.06624
G1 X62.194 Y59.61 E65.12435
G1 X62.1 Y59.135 E65.18245
G1 X61.905 Y58.691 E65.24065
G1 X61.617 Y58.301 E65.29882
G1 X61.252 Y57.984 E65.35684
G1 X60.825 Y57.753 E65.41509
G1 X60.358 Y57.622 E65.4733
G1 X59.875 Y57.596 E65.53134
G1 X59.397 Y57.678 E65.58954
G1 X58.948 Y57.86 E65.64768
G1 X58.549 Y58.139 E65.7061
G1 X58.223 Y58.496 E65.76412
G1 X57.981 Y58.916 E65.82228
G1 X57.838 Y59.379 E65.88043
G1 X57.8 Y59.862 E65.93857
G1 X57.868 Y60.341 E65.99663
G1 X58.039 Y60.794 E66.05473
G1 X58.306 Y61.2 E66.11304
G1 X58.655 Y61.536 E66.17118
G1 X59.068 Y61.788 E66.22924
G1 X59.533 Y61.945 E66.28813
G1 X60.237 Y61.983 E66.37273
G0 F3600 X60.432 Y61.94
G0 X60.539 Y62.427
G0 X44.508 Y62.444
G0 X44.534 Y61.946
G1 F1800 X45.237 Y61.983 E66.45721
G1 X45.715 Y61.876 E66.51599
G1 X46.153 Y61.669 E66.57412
G1 X46.536 Y61.371 E66.63236
G1 X46.844 Y60.997 E66.6905
G1 X47.063 Y60.564 E66.74872
G1 X47.18 Y60.094 E66.80685
G1 X47.194 Y59.61 E66.86495
G1 X47.1 Y59.134 E66.92317
G1 X46.904 Y58.69 E66.98141
G1 X46.617 Y58.3 E67.03952
G1 X46.251 Y57.983 E67.09762
G1 X45.824 Y57.753 E67.15582
G1 X45.357 Y57.622 E67.21403
G1 X44.873 Y57.596 E67.27219
G1 X44.396 Y57.679 E67.33029
G1 X43.947 Y57.861 E67.38843
G1 X43.549 Y58.139 E67.44669
G1 X43.222 Y58.496 E67.50478
G1 X42.981 Y58.917 E67.56299
G1 X42.838 Y59.38 E67.62114
G1 X42.801 Y59.863 E67.67927
G1 X42.868 Y60.342 E67.73731
G1 X43.04 Y60.796 E67.79557
G1 X43.307 Y61.201 E67.85378
G1 X43.656 Y61.537 E67.91192
G1 X44.069 Y61.788 E67.96991
G1 X44.534 Y61.946 E68.02884
G0 F3600 X44.734 Y61.956
G0 X44.708 Y62.455
G0 X45.858 Y62.294
G0 X46.844 Y61.687
G0 X47.477 Y60.717
G0 X47.626 Y59.826
G0 X46.742 Y51.994
G0 X46.742 Y51.494
G1 F1800 X72.258 Y51.494 E71.09076
G1 X77.453 Y48.494 E71.81064
G1 X86.2 Y48.494 E72.86028
G1 X86.2 Y68.094 E75.21228
G1 X33.8 Y68.094 E81.50028
G1 X33.8 Y48.494 E83.85228
G1 X41.547 Y48.494 E84.78192
G1 X46.742 Y51.494 E85.50181
G0 F3600 X46.942 Y51.494
G0 X46.53 Y52.284
;TYPE:SKIN
G1 F1800 X72.47 Y52.284 E88.61461
G1 X77.664 Y49.284 E89.33438
G1 X85.41 Y49.284 E90.2639
G1 X85.41 Y67.304 E92.4263
G1 X34.59 Y67.304 E98.5247
G1 X34.59 Y49.284 E100.6871
G1 X41.336 Y49.284 E101.49662
G1 X46.53 Y52.284 E102.2164
G0 F3600 X45.487 Y56.837
G1 F1800 X44.826 Y56.802 E102.29583
G1 X44.177 Y56.915 E102.37488
G1 X43.568 Y57.162 E102.45374
G1 X43.025 Y57.541 E102.5332
G1 X42.58 Y58.027 E102.61228
G1 X42.252 Y58.601 E102.69161
G1 X42.057 Y59.231 E102.77075
G1 X42.007 Y59.888 E102.84982
G1 X42.098 Y60.539 E102.9287
G1 X42.333 Y61.158 E103.00815
G1 X42.696 Y61.709 E103.08733
G1 X43.17 Y62.166 E103.16634
G1 X43.733 Y62.508 E103.24539
G1 X44.384 Y62.729 E103.32789
G1 X45.304 Y62.777 E103.43844
G1 X45.973 Y62.628 E103.52069
G1 X46.569 Y62.346 E103.59981
G1 X47.09 Y61.94 E103.67907
G1 X47.51 Y61.432 E103.75817
G1 X47.808 Y60.841 E103.83759
G1 X47.967 Y60.202 E103.91661
G1 X47.987 Y59.544 E103.99561
G1 X47.858 Y58.895 E104.07501
G1 X47.591 Y58.291 E104.15426
G1 X47.201 Y57.76 E104.23331
G1 X46.703 Y57.329 E104.31235
G1 X46.122 Y57.016 E104.39154
G1 X45.487 Y56.837 E104.47071
G0 F3600 X57.582 Y58.026
G1 F1800 X57.252 Y58.599 E104.55006
G1 X57.057 Y59.229 E104.6292
G1 X57.006 Y59.887 E104.70839
G1 X57.098 Y60.538 E104.78729
G1 X57.331 Y61.155 E104.86643
G1 X57.694 Y61.708 E104.94581
G1 X58.169 Y62.165 E105.02491
G1 X58.732 Y62.508 E105.10402
G1 X59.383 Y62.727 E105.18644
G1 X60.304 Y62.777 E105.29713
G1 X60.972 Y62.628 E105.37926
G1 X61.569 Y62.346 E105.45849
G1 X62.09 Y61.94 E105.53775
G1 X62.51 Y61.432 E105.61685
G1 X62.808 Y60.841 E105.69627
G1 X62.967 Y60.202 E105.77529
G1 X62.987 Y59.544 E105.85429
G1 X62.858 Y58.897 E105.93345
G1 X62.592 Y58.292 E106.01276
G1 X62.201 Y57.761 E106.09189
G1 X61.704 Y57.331 E106.17076
G1 X61.124 Y57.016 E106.24996
G1 X60.488 Y56.837 E106.32924
G1 X59.829 Y56.802 E106.40843
G1 X59.18 Y56.914 E106.48747
G1 X58.569 Y57.161 E106.56655
G1 X58.024 Y57.542 E106.64635
G1 X57.582 Y58.026 E106.725
G0 F3600 X59.277 Y57.253
G0 X60.178 Y57.171
G0 X72.057 Y59.231
G1 F1800 X72.007 Y59.888 E106.80407
G1 X72.098 Y60.539 E106.88295
G1 X72.333 Y61.158 E106.9624
G1 X72.696 Y61.709 E107.04158
G1 X73.17 Y62.166 E107.12059
G1 X73.733 Y62.508 E107.19964
G1 X74.384 Y62.729 E107.28214
G1 X75.304 Y62.777 E107.39269
G1 X75.973 Y62.628 E107.47494
G1 X76.569 Y62.346 E107.55406
G1 X77.09 Y61.94 E107.63332
G1 X77.51 Y61.432 E107.71242
G1 X77.808 Y60.841 E107.79184
G1 X77.967 Y60.202 E107.87086
G1 X77.987 Y59.544 E107.94986
G1 X77.858 Y58.895 E108.02926
G1 X77.591 Y58.291 E108.10851
G1 X77.201 Y57.76 E108.18757
G1 X76.703 Y57.329 E108.2666
G1 X76.122 Y57.016 E108.34579
G1 X75.487 Y56.837 E108.42496
G1 X74.826 Y56.802 E108.50439
G1 X74.177 Y56.915 E108.58344
G1 X73.568 Y57.162 E108.66231
G1 X73.025 Y57.541 E108.74177
G1 X72.58 Y58.027 E108.82084
G1 X72.252 Y58.601 E108.90018
G1 X72.057 Y59.231 E108.97931
G0 F3600 X73.258 Y57.806
G0 X85.229 Y49.591
G1 F1800 X85.102 Y49.464 E109.00087
G0 F3600 X84.536 Y49.464
G1 F1800 X85.229 Y50.157 E109.11847
G0 F3600 X85.229 Y50.722
G1 F1800 X83.971 Y49.464 E109.33196
G0 F3600 X83.405 Y49.464
G1 F1800 X85.229 Y51.288 E109.64151
G0 F3600 X85.229 Y51.854
G1 F1800 X82.839 Y49.464 E110.0471
G0 F3600 X82.273 Y49.464
G1 F1800 X85.229 Y52.419 E110.54867
G0 F3600 X85.229 Y52.985
G1 F1800 X81.708 Y49.464 E111.1462
G0 F3600 X81.142 Y49.464
G1 F1800 X85.229 Y53.551 E111.83979
G0 F3600 X85.229 Y54.117
G1 F1800 X80.576 Y49.464 E112.62943
G0 F3600 X80.011 Y49.464
G1 F1800 X85.229 Y54.682 E113.51495
G0 F3600 X85.229 Y55.248
G1 F1800 X79.445 Y49.464 E114.49653
G0 F3600 X78.879 Y49.464
G1 F1800 X85.229 Y55.814 E115.57416
G0 F3600 X85.229 Y56.379
G1 F1800 X78.314 Y49.464 E116.74767
G0 F3600 X77.748 Y49.464
G1 F1800 X85.229 Y56.945 E118.01724
G0 F3600 X85.229 Y57.511
G1 F1800 X77.376 Y49.657 E119.35003
G0 F3600 X77.018 Y49.865
G1 F1800 X85.229 Y58.076 E120.74348
G0 F3600 X85.229 Y58.642
G1 F1800 X76.659 Y50.072 E122.19786
G0 F3600 X76.301 Y50.279
G1 F1800 X85.229 Y59.208 E123.71307
G0 F3600 X85.229 Y59.773
G1 F1800 X75.942 Y50.486 E125.28913
G0 F3600 X75.584 Y50.693
G1 F1800 X85.229 Y60.339 E126.92602
G0 F3600 X85.229 Y60.905
G1 F1800 X75.225 Y50.901 E128.62376
G0 F3600 X74.867 Y51.108
G1 F1800 X85.229 Y61.47 E130.38225
G0 F3600 X85.229 Y62.036
G1 F1800 X74.508 Y51.315 E132.20166
G0 F3600 X74.15 Y51.522
G1 F1800 X85.229 Y62.602 E134.08192
G0 F3600 X85.229 Y63.167
G1 F1800 X73.79 Y51.729 E136.02309
G0 F3600 X73.432 Y51.936
G1 F1800 X85.229 Y63.733 E138.02511
G0 F3600 X85.229 Y64.299
G1 F1800 X73.073 Y52.143 E140.08805
G0 F3600 X72.715 Y52.35
G1 F1800 X85.229 Y64.865 E142.21183
G0 F3600 X85.229 Y65.43
G1 F1800 X72.262 Y52.463 E144.41241
G0 F3600 X71.697 Y52.463
G1 F1800 X76.037 Y56.804 E145.14901
G0 F3600 X75.314 Y56.647
G1 F1800 X71.131 Y52.463 E145.85898
G0 F3600 X70.565 Y52.463
G1 F1800 X74.736 Y56.634 E146.56682
G0 F3600 X74.254 Y56.718
G1 F1800 X70 Y52.463 E147.28883
G0 F3600 X69.434 Y52.463
G1 F1800 X73.831 Y56.861 E148.03511
G0 F3600 X73.437 Y57.032
G1 F1800 X68.868 Y52.463 E148.8105
G0 F3600 X68.302 Y52.463
G1 F1800 X73.104 Y57.265 E149.62542
G0 F3600 X72.797 Y57.523
G1 F1800 X67.737 Y52.463 E150.48414
G0 F3600 X67.171 Y52.463
G1 F1800 X72.526 Y57.818 E151.39291
G0 F3600 X72.298 Y58.155
G1 F1800 X66.605 Y52.463 E152.35896
G0 F3600 X66.04 Y52.463
G1 F1800 X72.092 Y58.515 E153.38602
G0 F3600 X71.955 Y58.945
G1 F1800 X65.474 Y52.463 E154.48596
G0 F3600 X64.908 Y52.463
G1 F1800 X71.861 Y59.416 E155.66593
G0 F3600 X71.834 Y59.954
G1 F1800 X64.343 Y52.463 E156.93719
G0 F3600 X63.777 Y52.463
G1 F1800 X71.937 Y60.623 E158.32199
G1 X72.007 Y60.693
G0 F3600 X72.521 Y61.773
G1 F1800 X63.211 Y52.463 E159.90195
G0 F3600 X62.646 Y52.463
G1 F1800 X77.305 Y67.123 E162.38975
G0 F3600 X76.74 Y67.123
G1 F1800 X62.08 Y52.463 E164.87763
G0 F3600 X61.514 Y52.463
