;FLAVOR:UltiGCode
;TIME:3216
;MATERIAL:4753
;MATERIAL2:0
;NOZZLE_DIAMETER:0.4
;MINX:26.877
;MINY:35.755
;MINZ:0.3
;MAXX:76.845
;MAXY:75.234
;MAXZ:12.3
;Generated with Cura_SteamEngine 4.7.1
M82 ;absolute extrusion mode
G0 F3000 Y50 ;avoid prime blob
G92 E0
G92 E0
G10
;LAYER_COUNT:81
;LAYER:0
M107
G0 F3600 X30.907 Y44.387 Z0.3
;TYPE:SKIRT
G11
G1 F1200 X31.373 Y44.098 E0.0658
G1 X31.672 Y43.927 E0.10713
G1 X43.744 Y37.168 E1.76738
G1 X44.403 Y36.811 E1.85732
G1 X44.859 Y36.583 E1.91849
G1 X45.502 Y36.313 E2.00218
G1 X46.067 Y36.121 E2.07379
G1 X46.486 Y36.007 E2.1259
G1 X47.058 Y35.887 E2.19603
G1 X47.684 Y35.794 E2.27198
G1 X48.246 Y35.755 E2.33958
G1 X48.575 Y35.755 E2.37906
G1 X49.22 Y35.784 E2.45654
G1 X49.718 Y35.835 E2.51661
G1 X50.245 Y35.924 E2.58074
G1 X50.689 Y36.028 E2.63547
G1 X51.366 Y36.233 E2.72035
G1 X51.78 Y36.387 E2.77335
G1 X52.259 Y36.599 E2.83621
G1 X52.661 Y36.808 E2.89058
G1 X53.273 Y37.177 E2.97634
G1 X53.637 Y37.429 E3.02947
G1 X54.112 Y37.802 E3.10194
G1 X54.359 Y38.007 E3.14046
G1 X56.25 Y39.65 E3.44107
G1 X58.369 Y41.389 E3.77001
G1 X60.511 Y43.047 E4.09506
G1 X62.712 Y44.652 E4.42194
G1 X64.258 Y45.715 E4.64709
G1 X64.986 Y46.259 E4.75614
G1 X65.396 Y46.628 E4.82233
G1 X65.557 Y46.78 E4.8489
G1 X65.955 Y47.237 E4.92163
G1 X66.374 Y47.82 E5.00778
G1 X66.659 Y48.274 E5.0721
G1 X66.821 Y48.557 E5.11123
G1 X75.704 Y64.425 E7.29346
G1 X76.039 Y65.042 E7.37771
G1 X76.284 Y65.56 E7.44647
G1 X76.422 Y65.89 E7.48939
G1 X76.612 Y66.485 E7.56434
G1 X76.73 Y67.007 E7.62856
G1 X76.778 Y67.251 E7.65841
G1 X76.838 Y67.845 E7.73005
G1 X76.845 Y68.377 E7.79389
G1 X76.843 Y68.533 E7.81262
G1 X76.779 Y69.161 E7.88837
G1 X76.672 Y69.722 E7.9569
G1 X76.628 Y69.926 E7.98194
G1 X76.443 Y70.498 E8.05408
G1 X76.222 Y71.024 E8.12255
G1 X76.174 Y71.132 E8.13673
G1 X75.845 Y71.717 E8.21727
G1 X75.527 Y72.177 E8.28438
G1 X75.416 Y72.33 E8.30706
G1 X75.018 Y72.778 E8.37897
G1 X74.645 Y73.133 E8.44076
G1 X74.478 Y73.285 E8.46786
G1 X73.973 Y73.662 E8.54348
G1 X73.458 Y73.978 E8.61599
G1 X73.35 Y74.04 E8.63093
G1 X72.792 Y74.3 E8.70481
G1 X72.23 Y74.503 E8.77651
G1 X72.119 Y74.54 E8.79055
G1 X71.489 Y74.689 E8.86824
G1 X70.949 Y74.766 E8.93369
G1 X70.273 Y74.822 E9.01509
G1 X69.964 Y74.832 E9.05219
G1 X50.525 Y75.229 E11.38536
G1 X49.808 Y75.234 E11.4714
G1 X49.261 Y75.208 E11.53711
G1 X48.873 Y75.17 E11.58389
G1 X48.246 Y75.052 E11.66046
G1 X47.644 Y74.882 E11.73552
G1 X46.955 Y74.608 E11.8245
G1 X46.463 Y74.351 E11.89111
G1 X46.288 Y74.254 E11.91512
G1 X45.776 Y73.899 E11.98988
G1 X45.313 Y73.515 E12.06206
G1 X44.806 Y73.019 E12.14718
G1 X44.59 Y72.764 E12.18728
G1 X43.634 Y71.592 E12.36877
G1 X41.869 Y69.551 E12.69257
G1 X40.029 Y67.539 E13.01975
G1 X38.112 Y65.56 E13.35038
G1 X36.192 Y63.685 E13.67242
G1 X34.166 Y61.817 E14.00311
G1 X32.122 Y60.037 E14.32836
G1 X30.258 Y58.514 E14.61721
G1 X29.866 Y58.183 E14.67877
G1 X29.631 Y57.965 E14.71724
G1 X29.131 Y57.46 E14.80252
G1 X28.81 Y57.091 E14.86121
G1 X28.476 Y56.656 E14.92702
G1 X28.218 Y56.271 E14.98263
G1 X27.861 Y55.656 E15.06797
G1 X27.662 Y55.26 E15.12115
G1 X27.466 Y54.8 E15.18115
G1 X27.318 Y54.383 E15.23425
G1 X27.121 Y53.697 E15.3199
G1 X27.024 Y53.257 E15.37396
G1 X26.938 Y52.705 E15.441
G1 X26.897 Y52.256 E15.49511
G1 X26.877 Y51.571 E15.57734
G1 X26.891 Y51.125 E15.63089
G1 X26.943 Y50.579 E15.6967
G1 X27.013 Y50.14 E15.75005
G1 X27.156 Y49.496 E15.82921
G1 X27.29 Y49.026 E15.88786
G1 X27.469 Y48.525 E15.9517
G1 X27.645 Y48.114 E16.00535
G1 X27.958 Y47.494 E16.0887
G1 X28.184 Y47.107 E16.14248
G1 X28.5 Y46.637 E16.21044
G1 X28.778 Y46.277 E16.26502
G1 X29.202 Y45.792 E16.34232
G1 X29.543 Y45.445 E16.40071
G1 X29.955 Y45.077 E16.467
G1 X30.307 Y44.8 E16.52075
G1 X30.907 Y44.387 E16.60815
G0 F3600 X31.125 Y44.722
G1 F1200 X31.579 Y44.441 E16.67223
G1 X31.868 Y44.276 E16.71216
G1 X43.935 Y37.519 E18.37176
G1 X44.594 Y37.162 E18.4617
G1 X45.356 Y36.8 E18.56293
G1 X45.63 Y36.692 E18.59828
G1 X46.195 Y36.5 E18.66988
G1 X46.568 Y36.398 E18.71629
G1 X47.14 Y36.278 E18.78642
G1 X47.736 Y36.19 E18.85872
G1 X48.265 Y36.154 E18.92234
G1 X48.557 Y36.154 E18.95738
G1 X49.202 Y36.183 E19.03486
G1 X49.652 Y36.23 E19.08916
G1 X50.179 Y36.319 E19.15329
G1 X50.573 Y36.411 E19.20184
G1 X51.25 Y36.616 E19.28673
G1 X51.618 Y36.753 E19.33385
G1 X52.097 Y36.965 E19.39671
G1 X52.454 Y37.151 E19.44501
G1 X53.066 Y37.52 E19.53077
G1 X53.39 Y37.743 E19.57797
G1 X53.865 Y38.116 E19.65044
G1 X54.097 Y38.309 E19.68665
G1 X55.997 Y39.96 E19.98871
G1 X58.116 Y41.699 E20.31765
G1 X60.276 Y43.37 E20.64536
G1 X62.479 Y44.977 E20.97258
G1 X64.028 Y46.043 E21.19823
G1 X64.719 Y46.556 E21.3015
G1 X65.129 Y46.925 E21.36769
G1 X65.279 Y47.068 E21.39256
G1 X65.632 Y47.473 E21.45703
G1 X66.037 Y48.036 E21.54025
G1 X66.312 Y48.473 E21.60221
G1 X66.472 Y48.752 E21.64081
G1 X75.352 Y64.616 E23.82244
G1 X75.687 Y65.233 E23.90669
G1 X75.915 Y65.714 E23.97056
G1 X76.053 Y66.044 E24.01348
G1 X76.222 Y66.573 E24.08013
G1 X76.34 Y67.095 E24.14435
G1 X76.385 Y67.324 E24.17235
G1 X76.438 Y67.852 E24.23603
G1 X76.445 Y68.372 E24.29844
G1 X76.443 Y68.528 E24.31716
G1 X76.386 Y69.087 E24.38458
G1 X76.279 Y69.648 E24.45312
G1 X76.238 Y69.835 E24.47609
G1 X76.074 Y70.343 E24.54015
G1 X75.856 Y70.862 E24.6077
G1 X75.808 Y70.97 E24.62188
G1 X75.516 Y71.49 E24.69345
G1 X75.198 Y71.95 E24.76055
G1 X75.096 Y72.09 E24.78134
G1 X74.742 Y72.488 E24.84526
G1 X74.296 Y72.911 E24.91902
G1 X74.211 Y72.987 E24.9327
G1 X73.762 Y73.322 E24.99993
G1 X73.259 Y73.631 E25.07077
G1 X73.151 Y73.693 E25.08571
G1 X72.655 Y73.924 E25.15137
G1 X72.104 Y74.124 E25.22171
G1 X71.993 Y74.161 E25.23575
G1 X71.433 Y74.293 E25.30479
G1 X70.893 Y74.37 E25.37025
G1 X70.251 Y74.422 E25.44754
G1 X69.955 Y74.432 E25.48308
G1 X50.522 Y74.829 E27.81553
G1 X49.805 Y74.834 E27.90157
G1 X49.3 Y74.81 E27.96224
G1 X48.912 Y74.772 E28.00902
G1 X48.354 Y74.667 E28.07716
G1 X47.752 Y74.497 E28.15222
G1 X47.14 Y74.253 E28.23128
G1 X46.648 Y73.996 E28.29789
G1 X46.486 Y73.906 E28.32013
G1 X46.031 Y73.591 E28.38654
G1 X45.568 Y73.207 E28.45872
G1 X45.11 Y72.759 E28.5356
G1 X44.9 Y72.511 E28.5746
G1 X43.962 Y71.362 E28.75259
G1 X42.15 Y69.266 E29.08507
G1 X40.312 Y67.256 E29.41191
G1 X38.417 Y65.3 E29.73872
G1 X36.442 Y63.371 E30.07001
G1 X34.435 Y61.52 E30.39764
G1 X32.388 Y59.738 E30.72331
G1 X30.517 Y58.208 E31.01335
G1 X30.125 Y57.877 E31.07491
G1 X29.915 Y57.683 E31.10922
G1 X29.415 Y57.178 E31.1945
G1 X29.127 Y56.848 E31.24706
G1 X28.793 Y56.413 E31.31287
G1 X28.563 Y56.071 E31.36233
G1 X28.206 Y55.456 E31.44766
G1 X28.03 Y55.103 E31.49499
G1 X27.834 Y54.643 E31.55499
G1 X27.702 Y54.272 E31.60225
G1 X27.505 Y53.586 E31.6879
G1 X27.419 Y53.196 E31.73582
G1 X27.333 Y52.644 E31.80286
G1 X27.296 Y52.244 E31.85106
G1 X27.276 Y51.559 E31.9333
G1 X27.289 Y51.163 E31.98084
G1 X27.341 Y50.617 E32.04666
G1 X27.403 Y50.226 E32.09417
G1 X27.546 Y49.582 E32.17333
G1 X27.667 Y49.16 E32.22601
G1 X27.846 Y48.659 E32.28985
G1 X28.002 Y48.294 E32.33749
G1 X28.315 Y47.674 E32.42083
G1 X28.516 Y47.331 E32.46854
G1 X28.832 Y46.861 E32.5365
G1 X29.079 Y46.54 E32.5851
G1 X29.503 Y46.055 E32.66241
G1 X29.809 Y45.743 E32.71485
G1 X30.221 Y45.375 E32.78114
G1 X30.535 Y45.129 E32.829
G1 X31.125 Y44.722 E32.91502
G10
;MESH:leg_fixer_2.stl
G0 F3600 X32.522 Y46.829
G0 X33.232 Y47.899
G0 X33.333 Y51.967
G0 X33.666 Y52.809
G0 X34.194 Y53.473
G0 X34.251 Y53.391
;TYPE:WALL-INNER
G11
G1 F1200 X34.763 Y53.651 E32.98392
G1 X35.323 Y53.764 E33.05248
G1 X35.895 Y53.722 E33.1213
G1 X36.434 Y53.529 E33.19
G1 X36.903 Y53.194 E33.25917
G1 X37.26 Y52.748 E33.32772
G1 X37.486 Y52.222 E33.39642
G1 X37.562 Y51.652 E33.46543
G1 X37.479 Y51.083 E33.53443
G1 X37.248 Y50.559 E33.60315
G1 X36.885 Y50.118 E33.67169
G1 X36.414 Y49.79 E33.74056
G1 X35.873 Y49.6 E33.80937
G1 X35.301 Y49.564 E33.87815
G1 X34.739 Y49.683 E33.94708
G1 X34.232 Y49.951 E34.0159
G1 X33.815 Y50.345 E34.08474
G1 X33.52 Y50.836 E34.15348
G1 X33.369 Y51.39 E34.22238
G1 X33.372 Y51.962 E34.29103
G1 X33.53 Y52.513 E34.35981
G1 X33.83 Y53 E34.42845
G1 X34.251 Y53.391 E34.4974
G0 F3600 X34.194 Y53.473
G0 X35.321 Y53.803
G0 X36.452 Y53.564
G0 X46.517 Y43.469
G0 X46.608 Y43.508
G1 F1200 X46.457 Y44.062 E34.5663
G1 X46.46 Y44.634 E34.63494
G1 X46.618 Y45.186 E34.70384
G1 X46.919 Y45.673 E34.77254
G1 X47.338 Y46.063 E34.84123
G1 X47.85 Y46.324 E34.9102
G1 X48.412 Y46.437 E34.97899
G1 X48.983 Y46.395 E35.04769
G1 X49.523 Y46.201 E35.11655
G1 X49.989 Y45.867 E35.18535
G1 X50.349 Y45.421 E35.25413
G1 X50.575 Y44.893 E35.32305
G1 X50.65 Y44.324 E35.39192
G1 X50.568 Y43.756 E35.46078
G1 X50.337 Y43.232 E35.5295
G1 X49.973 Y42.79 E35.59821
G1 X49.502 Y42.461 E35.66716
G1 X48.961 Y42.273 E35.73588
G1 X48.39 Y42.237 E35.80454
G1 X47.828 Y42.356 E35.87348
G1 X47.319 Y42.624 E35.94251
G1 X46.905 Y43.018 E36.01109
G1 X46.608 Y43.508 E36.07985
G0 F3600 X46.517 Y43.469
G0 X49.15 Y40.08
G0 X49.162 Y39.981
G1 F1200 X49.576 Y40.06 E36.13042
G1 X50.214 Y40.266 E36.21087
G1 X50.606 Y40.45 E36.26284
G1 X51.158 Y40.798 E36.34114
G1 X51.499 Y41.077 E36.39401
G1 X51.96 Y41.564 E36.47448
G1 X52.21 Y41.905 E36.52522
G1 X52.535 Y42.487 E36.60521
G1 X52.697 Y42.886 E36.65689
G1 X52.869 Y43.533 E36.73723
G1 X52.926 Y43.952 E36.78797
G1 X52.934 Y44.62 E36.86814
G1 X52.884 Y45.052 E36.92032
G1 X52.73 Y45.689 E36.99896
G1 X52.573 Y46.1 E37.05176
G1 X52.262 Y46.687 E37.13148
G1 X52.012 Y47.042 E37.18358
G1 X51.572 Y47.527 E37.26216
G1 X51.238 Y47.813 E37.31493
G1 X50.691 Y48.176 E37.39371
G1 X37.617 Y55.496 E39.19175
G1 X37.005 Y55.781 E39.27277
G1 X36.592 Y55.912 E39.32476
G1 X35.935 Y56.037 E39.40501
G1 X35.509 Y56.062 E39.45622
G1 X34.838 Y56.019 E39.53691
G1 X34.424 Y55.94 E39.58748
G1 X33.786 Y55.734 E39.66793
G1 X33.394 Y55.55 E39.7199
G1 X32.842 Y55.202 E39.7982
G1 X32.501 Y54.923 E39.85107
G1 X32.04 Y54.436 E39.93155
G1 X31.79 Y54.095 E39.98228
G1 X31.465 Y53.513 E40.06228
G1 X31.303 Y53.114 E40.11395
G1 X31.131 Y52.467 E40.19429
G1 X31.074 Y52.048 E40.24503
G1 X31.066 Y51.38 E40.3252
G1 X31.116 Y50.947 E40.3775
G1 X31.271 Y50.307 E40.45652
G1 X31.424 Y49.904 E40.50825
G1 X31.738 Y49.313 E40.58856
G1 X31.988 Y48.958 E40.64066
G1 X32.428 Y48.473 E40.71924
G1 X32.762 Y48.187 E40.77201
G1 X33.309 Y47.824 E40.85079
G1 X46.383 Y40.504 E42.64884
G1 X46.995 Y40.219 E42.72985
G1 X47.408 Y40.088 E42.78184
G1 X48.065 Y39.963 E42.8621
G1 X48.491 Y39.938 E42.9133
G1 X49.162 Y39.981 E42.99399
G0 F3600 X49.214 Y39.584
;TYPE:WALL-OUTER
G1 F1200 X49.677 Y39.672 E43.05054
G1 X50.358 Y39.892 E43.13642
G1 X50.795 Y40.097 E43.19435
G1 X51.396 Y40.476 E43.27961
G1 X51.774 Y40.785 E43.3382
G1 X52.266 Y41.305 E43.4241
G1 X52.546 Y41.687 E43.48093
G1 X52.898 Y42.317 E43.56753
G1 X53.078 Y42.761 E43.62503
G1 X53.261 Y43.448 E43.71034
G1 X53.326 Y43.926 E43.76823
G1 X53.334 Y44.638 E43.85367
G1 X53.278 Y45.127 E43.91274
G1 X53.112 Y45.81 E43.99708
G1 X52.938 Y46.265 E44.05554
G1 X52.606 Y46.893 E44.14078
G1 X52.324 Y47.294 E44.19961
G1 X51.851 Y47.815 E44.28405
G1 X51.482 Y48.131 E44.34235
G1 X50.898 Y48.518 E44.42642
G1 X37.792 Y55.856 E46.22887
G1 X37.155 Y56.153 E46.31321
G1 X36.687 Y56.301 E46.37212
G1 X35.987 Y56.434 E46.45762
G1 X35.506 Y56.462 E46.51544
G1 X34.786 Y56.416 E46.60201
G1 X34.323 Y56.328 E46.65857
G1 X33.642 Y56.108 E46.74444
G1 X33.205 Y55.903 E46.80237
G1 X32.604 Y55.524 E46.88763
G1 X32.226 Y55.215 E46.94622
G1 X31.734 Y54.695 E47.03212
G1 X31.454 Y54.313 E47.08896
G1 X31.102 Y53.683 E47.17556
G1 X30.922 Y53.239 E47.23305
G1 X30.739 Y52.552 E47.31836
G1 X30.674 Y52.074 E47.37625
G1 X30.666 Y51.362 E47.4617
G1 X30.722 Y50.873 E47.52076
G1 X30.888 Y50.189 E47.60522
G1 X31.059 Y49.739 E47.66299
G1 X31.396 Y49.104 E47.74926
G1 X31.676 Y48.706 E47.80765
G1 X32.149 Y48.185 E47.89209
G1 X32.518 Y47.869 E47.95039
G1 X33.102 Y47.482 E48.03446
G1 X46.208 Y40.144 E49.83691
G1 X46.845 Y39.847 E49.92126
G1 X47.313 Y39.699 E49.98016
G1 X48.013 Y39.566 E50.06566
G1 X48.494 Y39.538 E50.12348
G1 X49.214 Y39.584 E50.21005
G0 F3600 X49.41 Y39.621
G0 X49.317 Y40.112
G0 X47.339 Y42.444
G0 X46.498 Y43.535
G0 X46.979 Y43.667
G1 F1200 X46.857 Y44.114 E50.26565
G1 X46.86 Y44.577 E50.32122
G1 X46.987 Y45.023 E50.37686
G1 X47.231 Y45.417 E50.43248
G1 X47.57 Y45.732 E50.48801
G1 X47.983 Y45.943 E50.54366
G1 X48.437 Y46.034 E50.59922
G1 X48.899 Y46 E50.65481
G1 X49.335 Y45.843 E50.71042
G1 X49.712 Y45.573 E50.76607
G1 X50.003 Y45.213 E50.82162
G1 X50.186 Y44.786 E50.87736
G1 X50.246 Y44.327 E50.93291
G1 X50.18 Y43.867 E50.98868
G1 X49.993 Y43.444 E51.04418
G1 X49.699 Y43.087 E51.09967
G1 X49.318 Y42.821 E51.15543
G1 X48.881 Y42.669 E51.21096
G1 X48.419 Y42.64 E51.26651
G1 X47.965 Y42.736 E51.32219
G1 X47.554 Y42.952 E51.37791
G1 X47.219 Y43.271 E51.43342
G1 X46.979 Y43.667 E51.48898
G0 F3600 X46.927 Y43.86
G0 X46.445 Y43.728
G0 X36.93 Y53.223
G0 X35.903 Y53.761
G0 X34.256 Y53.505
G0 X34.482 Y53.06
G1 F1200 X34.895 Y53.27 E51.54458
G1 X35.348 Y53.361 E51.60003
G1 X35.811 Y53.327 E51.65574
G1 X36.247 Y53.171 E51.71131
G1 X36.625 Y52.901 E51.76705
G1 X36.914 Y52.54 E51.82254
G1 X37.097 Y52.115 E51.87807
G1 X37.158 Y51.655 E51.93375
G1 X37.091 Y51.195 E51.98953
G1 X36.904 Y50.771 E52.04514
G1 X36.611 Y50.415 E52.10047
G1 X36.23 Y50.149 E52.15623
G1 X35.793 Y49.996 E52.21179
G1 X35.33 Y49.967 E52.26746
G1 X34.876 Y50.063 E52.32314
G1 X34.467 Y50.279 E52.37865
G1 X34.13 Y50.598 E52.43433
G1 X33.891 Y50.995 E52.48994
G1 X33.769 Y51.442 E52.54554
G1 X33.772 Y51.905 E52.6011
G1 X33.899 Y52.35 E52.65663
G1 X34.142 Y52.744 E52.71218
G1 X34.482 Y53.06 E52.76788
G0 F3600 X34.66 Y53.15
G0 X34.025 Y53.714
;TYPE:SKIN
G1 F1200 X34.634 Y54.023 E52.84983
G1 X35.298 Y54.156 E52.9311
G1 X35.977 Y54.107 E53.01279
G1 X36.617 Y53.878 E53.09436
G1 X37.174 Y53.48 E53.17651
G1 X37.597 Y52.951 E53.25779
G1 X37.866 Y52.327 E53.33933
G1 X37.956 Y51.65 E53.42128
G1 X37.857 Y50.974 E53.50327
G1 X37.583 Y50.352 E53.58483
G1 X37.152 Y49.829 E53.66615
G1 X36.593 Y49.439 E53.74795
G1 X35.951 Y49.214 E53.82958
G1 X35.272 Y49.172 E53.91122
G1 X34.605 Y49.313 E53.99302
G1 X34.002 Y49.631 E54.07483
G1 X33.509 Y50.098 E54.15632
G1 X33.158 Y50.682 E54.23808
G1 X32.979 Y51.339 E54.3198
G1 X32.982 Y52.018 E54.40128
G1 X33.17 Y52.673 E54.48305
G1 X33.526 Y53.25 E54.56441
G1 X34.025 Y53.714 E54.64618
G0 F3600 X33.582 Y55.207
G1 F1200 X33.071 Y54.885 E54.71865
G1 X32.765 Y54.634 E54.76615
G1 X32.337 Y54.183 E54.84076
G1 X32.126 Y53.895 E54.8836
G1 X31.812 Y53.333 E54.96085
G1 X31.675 Y52.995 E55.00462
G1 X31.514 Y52.387 E55.08009
G1 X31.464 Y52.023 E55.12418
G1 X31.456 Y51.405 E55.19835
G1 X31.502 Y51.01 E55.24607
G1 X31.644 Y50.424 E55.31843
G1 X31.779 Y50.068 E55.36411
G1 X32.075 Y49.512 E55.4397
G1 X32.292 Y49.204 E55.48491
G1 X32.703 Y48.75 E55.5584
G1 X32.992 Y48.503 E55.60402
G1 X33.506 Y48.162 E55.67804
G1 X46.574 Y40.845 E57.47528
G1 X47.131 Y40.584 E57.5491
G1 X47.504 Y40.467 E57.59601
G1 X48.107 Y40.352 E57.66967
G1 X48.489 Y40.33 E57.71559
G1 X49.121 Y40.37 E57.79158
G1 X49.48 Y40.438 E57.83542
G1 X50.068 Y40.628 E57.90958
G1 X50.418 Y40.793 E57.95601
G1 X50.929 Y41.115 E58.02849
G1 X51.235 Y41.366 E58.07598
G1 X51.663 Y41.817 E58.15059
G1 X51.874 Y42.105 E58.19344
G1 X52.188 Y42.667 E58.27069
G1 X52.325 Y43.005 E58.31445
G1 X52.486 Y43.613 E58.38993
G1 X52.536 Y43.977 E58.43402
G1 X52.544 Y44.595 E58.50818
G1 X52.498 Y44.989 E58.55579
G1 X52.356 Y45.576 E58.62826
G1 X52.221 Y45.932 E58.67395
G1 X51.925 Y46.488 E58.74953
G1 X51.708 Y46.796 E58.79474
G1 X51.297 Y47.25 E58.86823
G1 X51.008 Y47.497 E58.91385
G1 X50.494 Y47.838 E58.98787
G1 X37.425 Y55.155 E60.78522
G1 X36.869 Y55.416 E60.85892
G1 X36.496 Y55.533 E60.90583
G1 X35.893 Y55.648 E60.9795
G1 X35.511 Y55.67 E61.02541
G1 X34.879 Y55.63 E61.10141
G1 X34.52 Y55.562 E61.14525
G1 X33.932 Y55.372 E61.2194
G1 X33.582 Y55.207 E61.26584
G0 F3600 X36.452 Y53.564
G0 X46.615 Y45.923
G1 F1200 X47.112 Y46.385 E61.34727
G1 X47.721 Y46.696 E61.42932
G1 X48.387 Y46.829 E61.51082
G1 X49.065 Y46.78 E61.59239
G1 X49.706 Y46.55 E61.67412
G1 X50.26 Y46.153 E61.7559
G1 X50.686 Y45.624 E61.83741
G1 X50.955 Y44.997 E61.91928
G1 X51.044 Y44.322 E62.00098
