;FLAVOR:UltiGCode
;TIME:844
;MATERIAL:1002
;MATERIAL2:0
;NOZZLE_DIAMETER:0.4
;MINX:42.27
;MINY:42.27
;MINZ:0.3
;MAXX:77.73
;MAXY:77.73
;MAXZ:3
;Generated with Cura_SteamEngine 4.7.1
M82 ;absolute extrusion mode
G0 F3000 Y50 ;avoid prime blob
G92 E0
G92 E0
G10
;LAYER_COUNT:28
;LAYER:0
M107
G0 F3600 X44.246 Y44.527 Z0.3
;TYPE:SKIRT
G11
G1 F1800 X44.68 Y44.113 E0.07198
G1 X45.315 Y43.617 E0.16867
G1 X45.836 Y43.291 E0.24242
G1 X46.341 Y43.033 E0.31047
G1 X46.575 Y42.922 E0.34155
G1 X47.149 Y42.708 E0.41506
G1 X47.912 Y42.504 E0.50983
G1 X48.527 Y42.405 E0.58458
G1 X49.322 Y42.356 E0.68016
G1 X49.83 Y42.368 E0.74114
G1 X50.365 Y42.419 E0.80563
G1 X53.079 Y42.64 E1.13239
G1 X55.806 Y42.785 E1.46009
G1 X58.536 Y42.853 E1.78779
G1 X61.264 Y42.844 E2.11516
G1 X63.996 Y42.757 E2.44316
G1 X66.691 Y42.595 E2.76715
G1 X70.015 Y42.293 E3.16767
G1 X70.309 Y42.27 E3.20306
G1 X70.922 Y42.274 E3.27662
G1 X71.709 Y42.359 E3.37161
G1 X72.307 Y42.485 E3.44494
G1 X72.819 Y42.641 E3.50917
G1 X73.068 Y42.724 E3.54067
G1 X73.641 Y42.972 E3.61559
G1 X74.154 Y43.251 E3.68567
G1 X74.375 Y43.38 E3.71637
G1 X74.866 Y43.724 E3.78832
G1 X75.473 Y44.246 E3.88439
G1 X75.892 Y44.687 E3.95738
G1 X76.376 Y45.306 E4.05167
G1 X76.709 Y45.836 E4.12679
G1 X76.967 Y46.341 E4.19484
G1 X77.078 Y46.575 E4.22592
G1 X77.292 Y47.149 E4.29943
G1 X77.496 Y47.912 E4.3942
G1 X77.595 Y48.527 E4.46895
G1 X77.644 Y49.322 E4.56453
G1 X77.632 Y49.83 E4.62551
G1 X77.581 Y50.365 E4.69
G1 X77.36 Y53.079 E5.01676
G1 X77.215 Y55.806 E5.34446
G1 X77.147 Y58.536 E5.67216
G1 X77.156 Y61.265 E5.99965
G1 X77.243 Y63.996 E6.32753
G1 X77.405 Y66.691 E6.65152
G1 X77.707 Y70.014 E7.05192
G1 X77.73 Y70.307 E7.08719
G1 X77.726 Y70.92 E7.16075
G1 X77.641 Y71.709 E7.25598
G1 X77.515 Y72.306 E7.3292
G1 X77.356 Y72.831 E7.39502
G1 X77.275 Y73.073 E7.42564
G1 X77.028 Y73.641 E7.49997
G1 X76.747 Y74.158 E7.57058
G1 X76.617 Y74.38 E7.60145
G1 X76.276 Y74.866 E7.6727
G1 X75.754 Y75.473 E7.76877
G1 X75.313 Y75.892 E7.84176
G1 X74.694 Y76.376 E7.93606
G1 X74.164 Y76.709 E8.01117
G1 X73.68 Y76.956 E8.07637
G1 X73.445 Y77.069 E8.10766
G1 X72.847 Y77.294 E8.18434
G1 X72.088 Y77.496 E8.27859
G1 X71.473 Y77.595 E8.35334
G1 X70.678 Y77.644 E8.44892
G1 X70.17 Y77.632 E8.50989
G1 X69.635 Y77.581 E8.57438
G1 X66.921 Y77.36 E8.90114
G1 X64.194 Y77.215 E9.22885
G1 X61.464 Y77.147 E9.55655
G1 X58.736 Y77.156 E9.88391
G1 X56.004 Y77.243 E10.21191
G1 X53.309 Y77.405 E10.5359
G1 X49.983 Y77.707 E10.93666
G1 X49.687 Y77.73 E10.97229
G1 X49.075 Y77.726 E11.04573
G1 X48.291 Y77.641 E11.14036
G1 X47.694 Y77.515 E11.21358
G1 X47.169 Y77.356 E11.2794
G1 X46.927 Y77.275 E11.31003
G1 X46.359 Y77.028 E11.38435
G1 X45.842 Y76.747 E11.45497
G1 X45.62 Y76.617 E11.48584
G1 X45.134 Y76.276 E11.55708
G1 X44.527 Y75.754 E11.65315
G1 X44.108 Y75.313 E11.72615
G1 X43.624 Y74.694 E11.82044
G1 X43.292 Y74.167 E11.89518
G1 X43.028 Y73.649 E11.96495
G1 X42.919 Y73.418 E11.9956
G1 X42.708 Y72.851 E12.0682
G1 X42.504 Y72.088 E12.16297
G1 X42.405 Y71.473 E12.23772
G1 X42.356 Y70.669 E12.33438
G1 X42.369 Y70.161 E12.39536
G1 X42.415 Y69.683 E12.45299
G1 X42.64 Y66.921 E12.78553
G1 X42.785 Y64.194 E13.11323
G1 X42.853 Y61.464 E13.44093
G1 X42.844 Y58.735 E13.76841
G1 X42.757 Y56.004 E14.0963
G1 X42.595 Y53.308 E14.4204
G1 X42.293 Y49.984 E14.82093
G1 X42.27 Y49.689 E14.85643
G1 X42.274 Y49.077 E14.92987
G1 X42.359 Y48.291 E15.02474
G1 X42.485 Y47.691 E15.09831
G1 X42.644 Y47.169 E15.1638
G1 X42.725 Y46.927 E15.19442
G1 X42.972 Y46.359 E15.26875
G1 X43.255 Y45.839 E15.33979
G1 X43.387 Y45.614 E15.37109
G1 X43.729 Y45.128 E15.4424
G1 X44.246 Y44.527 E15.53754
G0 F3600 X44.545 Y44.793
G1 F1800 X44.931 Y44.425 E15.60153
G1 X45.556 Y43.937 E15.69669
G1 X46.019 Y43.647 E15.76225
G1 X46.513 Y43.395 E15.82879
G1 X46.747 Y43.284 E15.85987
G1 X47.257 Y43.093 E15.92522
G1 X48.01 Y42.892 E16.01875
G1 X48.556 Y42.804 E16.08511
G1 X49.34 Y42.755 E16.17938
G1 X49.792 Y42.766 E16.23363
G1 X50.327 Y42.818 E16.29814
G1 X53.059 Y43.041 E16.62707
G1 X55.775 Y43.185 E16.95344
G1 X58.527 Y43.253 E17.28378
G1 X61.279 Y43.244 E17.61403
G1 X63.997 Y43.158 E17.94035
G1 X66.718 Y42.994 E18.26746
G1 X70.046 Y42.692 E18.66846
G1 X70.34 Y42.669 E18.70385
G1 X70.885 Y42.673 E18.76925
G1 X71.66 Y42.756 E18.86278
G1 X72.191 Y42.868 E18.92791
G1 X72.693 Y43.02 E18.99085
G1 X72.942 Y43.103 E19.02234
G1 X73.451 Y43.324 E19.08893
G1 X73.952 Y43.596 E19.15734
G1 X74.173 Y43.725 E19.18805
G1 X74.609 Y44.031 E19.25197
G1 X75.207 Y44.545 E19.34659
G1 X75.58 Y44.937 E19.41153
G1 X76.057 Y45.548 E19.50454
G1 X76.353 Y46.019 E19.5713
G1 X76.605 Y46.513 E19.63785
G1 X76.716 Y46.747 E19.66893
G1 X76.907 Y47.257 E19.73428
G1 X77.108 Y48.01 E19.8278
G1 X77.196 Y48.556 E19.89417
G1 X77.245 Y49.34 E19.98843
G1 X77.234 Y49.792 E20.04269
G1 X77.182 Y50.327 E20.10719
G1 X76.959 Y53.059 E20.43612
G1 X76.815 Y55.775 E20.7625
G1 X76.747 Y58.527 E21.09284
G1 X76.756 Y61.28 E21.4232
G1 X76.842 Y63.997 E21.7494
G1 X77.006 Y66.718 E22.07651
G1 X77.308 Y70.046 E22.47752
G1 X77.331 Y70.339 E22.51278
G1 X77.327 Y70.883 E22.57806
G1 X77.244 Y71.66 E22.67184
G1 X77.132 Y72.191 E22.73696
G1 X76.977 Y72.704 E22.80127
G1 X76.896 Y72.946 E22.83189
G1 X76.676 Y73.451 E22.89799
G1 X76.401 Y73.956 E22.96699
G1 X76.271 Y74.178 E22.99786
G1 X75.968 Y74.61 E23.06118
G1 X75.455 Y75.207 E23.15564
G1 X75.063 Y75.58 E23.22057
G1 X74.452 Y76.057 E23.31359
G1 X73.981 Y76.353 E23.38034
G1 X73.507 Y76.596 E23.44426
G1 X73.272 Y76.709 E23.47555
G1 X72.74 Y76.909 E23.54376
G1 X71.99 Y77.108 E23.63687
G1 X71.444 Y77.196 E23.70324
G1 X70.66 Y77.245 E23.7975
G1 X70.208 Y77.234 E23.85176
G1 X69.673 Y77.182 E23.91626
G1 X66.941 Y76.959 E24.24519
G1 X64.225 Y76.815 E24.57157
G1 X61.473 Y76.747 E24.90191
G1 X58.721 Y76.756 E25.23215
G1 X56.003 Y76.842 E25.55847
G1 X53.282 Y77.006 E25.88559
G1 X49.952 Y77.308 E26.28683
G1 X49.656 Y77.331 E26.32245
G1 X49.112 Y77.327 E26.38773
G1 X48.34 Y77.244 E26.48091
G1 X47.809 Y77.132 E26.54603
G1 X47.296 Y76.977 E26.61034
G1 X47.054 Y76.896 E26.64096
G1 X46.549 Y76.676 E26.70706
G1 X46.044 Y76.401 E26.77607
G1 X45.822 Y76.271 E26.80694
G1 X45.39 Y75.968 E26.87026
G1 X44.793 Y75.455 E26.96471
G1 X44.42 Y75.063 E27.02965
G1 X43.943 Y74.452 E27.12266
G1 X43.648 Y73.984 E27.18905
G1 X43.39 Y73.479 E27.2571
G1 X43.281 Y73.248 E27.28775
G1 X43.093 Y72.743 E27.35241
G1 X42.892 Y71.99 E27.44594
G1 X42.804 Y71.444 E27.5123
G1 X42.755 Y70.651 E27.60764
G1 X42.767 Y70.199 E27.6619
G1 X42.818 Y69.67 E27.72568
G1 X43.041 Y66.941 E28.05425
G1 X43.185 Y64.225 E28.38063
G1 X43.253 Y61.473 E28.71097
G1 X43.244 Y58.72 E29.04133
G1 X43.158 Y56.003 E29.36753
G1 X42.994 Y53.281 E29.69477
G1 X42.692 Y49.953 E30.09577
G1 X42.669 Y49.658 E30.13127
G1 X42.673 Y49.113 E30.19668
G1 X42.756 Y48.34 E30.28997
G1 X42.868 Y47.806 E30.35544
G1 X43.023 Y47.296 E30.41941
G1 X43.104 Y47.054 E30.45003
G1 X43.324 Y46.549 E30.51613
G1 X43.6 Y46.042 E30.5854
G1 X43.732 Y45.817 E30.61671
G1 X44.036 Y45.385 E30.68009
G1 X44.545 Y44.793 E30.77378
G10
;MESH:encoder_shelf_1.stl
G0 F3600 X46.391 Y46.518
G0 X47.365 Y47.354
G0 X50.029 Y47.938
G0 X50.508 Y48.322
;TYPE:WALL-INNER
G11
G1 F1800 X50.013 Y47.974 E30.84639
G1 X49.428 Y47.831 E30.91866
G1 X48.83 Y47.914 E30.99111
G1 X48.305 Y48.213 E31.06361
G1 X47.927 Y48.681 E31.1358
G1 X47.747 Y49.259 E31.20844
G1 X47.794 Y49.86 E31.28078
G1 X48.057 Y50.402 E31.35308
G1 X48.502 Y50.809 E31.42544
G1 X49.066 Y51.025 E31.49792
G1 X49.669 Y51.017 E31.57028
G1 X50.227 Y50.789 E31.64262
G1 X50.663 Y50.368 E31.71535
G1 X50.903 Y49.838 E31.78517
G1 X50.954 Y49.399 E31.8382
G1 X50.837 Y48.829 E31.90803
G1 X50.508 Y48.322 E31.98055
G0 F3600 X50.58 Y48.253
G0 X51.225 Y50.468
G0 X50.322 Y51.439
G0 X50.126 Y52.746
G0 X50.701 Y53.941
G0 X51.729 Y54.555
G0 X52.519 Y54.713
G0 X52.512 Y54.614
G1 F1800 X53.154 Y54.466 E32.05961
G1 X53.723 Y54.138 E32.13843
G1 X54.17 Y53.656 E32.21731
G1 X54.456 Y53.064 E32.29621
G1 X54.553 Y52.413 E32.37519
G1 X54.456 Y51.762 E32.45417
G1 X54.17 Y51.17 E32.53307
G1 X53.723 Y50.688 E32.61195
G1 X53.154 Y50.36 E32.69076
G1 X52.512 Y50.212 E32.76982
G1 X51.856 Y50.262 E32.84877
G1 X51.244 Y50.502 E32.92766
G1 X50.73 Y50.912 E33.00656
G1 X50.358 Y51.456 E33.08564
G1 X50.165 Y52.085 E33.16459
G1 X50.165 Y52.741 E33.24331
G1 X50.358 Y53.37 E33.32227
G1 X50.73 Y53.914 E33.40135
G1 X51.244 Y54.324 E33.48025
G1 X51.856 Y54.564 E33.55913
G1 X52.512 Y54.614 E33.63808
G0 F3600 X52.519 Y54.713
G0 X56.591 Y52.608
G0 X57.738 Y52.203
G0 X59.489 Y51.815
G0 X59.495 Y51.914
G1 F1800 X58.749 Y51.996 E33.72814
G1 X58.017 Y52.146 E33.81781
G1 X57.3 Y52.362 E33.90767
G1 X56.607 Y52.644 E33.99745
G1 X55.943 Y52.989 E34.08724
G1 X55.314 Y53.392 E34.17688
G1 X54.723 Y53.853 E34.26683
G1 X54.179 Y54.368 E34.35672
G1 X53.685 Y54.928 E34.44633
G1 X53.244 Y55.532 E34.53607
G1 X52.86 Y56.174 E34.62584
G1 X52.537 Y56.85 E34.71575
G1 X52.279 Y57.553 E34.80561
G1 X52.086 Y58.275 E34.89529
G1 X51.961 Y59.014 E34.98523
G1 X51.905 Y59.759 E35.07488
G1 X51.914 Y60.505 E35.16441
G1 X51.996 Y61.251 E35.25447
G1 X52.146 Y61.983 E35.34413
G1 X52.362 Y62.7 E35.43399
G1 X52.644 Y63.393 E35.52378
G1 X52.989 Y64.057 E35.61357
G1 X53.392 Y64.686 E35.70321
G1 X53.853 Y65.277 E35.79316
G1 X54.368 Y65.821 E35.88305
G1 X54.928 Y66.315 E35.97266
G1 X55.532 Y66.756 E36.0624
G1 X56.174 Y67.14 E36.15217
G1 X56.85 Y67.463 E36.24208
G1 X57.553 Y67.721 E36.33194
G1 X58.275 Y67.914 E36.42162
G1 X59.014 Y68.039 E36.51156
G1 X59.759 Y68.095 E36.60121
G1 X60.505 Y68.086 E36.69074
G1 X61.251 Y68.004 E36.7808
G1 X61.983 Y67.854 E36.87046
G1 X62.7 Y67.638 E36.96032
G1 X63.393 Y67.356 E37.0501
G1 X64.057 Y67.011 E37.1399
G1 X64.686 Y66.608 E37.22954
G1 X65.277 Y66.147 E37.31949
G1 X65.821 Y65.632 E37.40938
G1 X66.315 Y65.072 E37.49899
G1 X66.756 Y64.468 E37.58873
G1 X67.14 Y63.826 E37.6785
G1 X67.463 Y63.15 E37.76841
G1 X67.721 Y62.447 E37.85827
G1 X67.914 Y61.725 E37.94795
G1 X68.039 Y60.986 E38.03789
G1 X68.095 Y60.241 E38.12754
G1 X68.086 Y59.495 E38.21707
G1 X68.004 Y58.749 E38.30713
G1 X67.854 Y58.017 E38.39679
G1 X67.638 Y57.3 E38.48665
G1 X67.356 Y56.607 E38.57643
G1 X67.011 Y55.943 E38.66623
G1 X66.608 Y55.314 E38.75587
G1 X66.147 Y54.723 E38.84581
G1 X65.632 Y54.179 E38.93571
G1 X65.072 Y53.685 E39.02532
G1 X64.468 Y53.244 E39.11506
G1 X63.826 Y52.86 E39.20483
G1 X63.15 Y52.537 E39.29473
G1 X62.447 Y52.279 E39.3846
G1 X61.725 Y52.086 E39.47428
G1 X60.986 Y51.961 E39.56422
G1 X60.241 Y51.905 E39.65387
G1 X59.495 Y51.914 E39.7434
G0 F3600 X59.489 Y51.815
G0 X60.99 Y51.922
G0 X62.459 Y52.241
G0 X63.844 Y52.825
G0 X66.531 Y54.358
G0 X67.825 Y54.713
G0 X67.818 Y54.614
G1 F1800 X68.46 Y54.466 E39.82246
G1 X69.029 Y54.138 E39.90127
G1 X69.476 Y53.656 E39.98015
G1 X69.762 Y53.064 E40.05905
G1 X69.859 Y52.413 E40.13803
G1 X69.762 Y51.762 E40.21701
G1 X69.476 Y51.17 E40.29591
G1 X69.029 Y50.688 E40.37479
G1 X68.46 Y50.36 E40.45361
G1 X67.818 Y50.212 E40.53267
G1 X67.162 Y50.262 E40.61161
G1 X66.55 Y50.502 E40.6905
G1 X66.036 Y50.912 E40.7694
G1 X65.664 Y51.456 E40.84848
G1 X65.471 Y52.085 E40.92744
G1 X65.471 Y52.741 E41.00616
G1 X65.664 Y53.37 E41.08511
G1 X66.036 Y53.914 E41.16419
G1 X66.55 Y54.324 E41.24309
G1 X67.162 Y54.564 E41.32198
G1 X67.818 Y54.614 E41.40093
G0 F3600 X67.825 Y54.713
G0 X69.053 Y54.169
G0 X71.908 Y50.299
G0 X72.206 Y49.307
G0 X71.793 Y48.161
G0 X71.721 Y48.23
G1 F1800 X71.226 Y47.882 E41.47354
G1 X70.64 Y47.74 E41.54589
G1 X70.044 Y47.823 E41.6181
G1 X69.519 Y48.12 E41.69048
G1 X69.14 Y48.589 E41.76284
G1 X68.96 Y49.167 E41.83549
G1 X69.007 Y49.768 E41.90783
G1 X69.27 Y50.31 E41.98012
G1 X69.715 Y50.717 E42.05249
G1 X70.279 Y50.933 E42.12496
G1 X70.882 Y50.925 E42.19733
G1 X71.44 Y50.697 E42.26966
G1 X71.876 Y50.276 E42.34239
G1 X72.116 Y49.746 E42.41221
G1 X72.167 Y49.308 E42.46512
G1 X72.05 Y48.737 E42.53507
G1 X71.721 Y48.23 E42.60759
G0 F3600 X71.793 Y48.161
G0 X72.206 Y49.307
G0 X70.159 Y54.272
G0 X69.968 Y63.918
G0 X70.057 Y65.386
G0 X70.152 Y65.358
G1 F1800 X70.448 Y66.068 E42.6999
G1 X70.875 Y66.683 E42.78975
G1 X71.068 Y66.889 E42.82362
G1 X72.677 Y68.485 E43.09558
G1 X73.054 Y68.942 E43.16667
G1 X73.326 Y69.448 E43.2356
G1 X73.495 Y70.01 E43.30603
G1 X73.548 Y70.582 E43.37496
G1 X73.485 Y71.164 E43.44521
G1 X73.309 Y71.715 E43.51462
G1 X73.026 Y72.22 E43.58409
G1 X72.648 Y72.66 E43.6537
G1 X72.19 Y73.015 E43.72323
G1 X71.669 Y73.272 E43.79295
G1 X71.11 Y73.421 E43.86237
G1 X70.531 Y73.455 E43.93197
G1 X69.954 Y73.372 E44.00192
G1 X69.412 Y73.179 E44.07096
G1 X68.906 Y72.873 E44.14192
G1 X68.6 Y72.609 E44.19042
G1 X66.97 Y70.994 E44.46577
G1 X66.404 Y70.54 E44.55284
G1 X65.715 Y70.196 E44.64525
G1 X64.98 Y70.01 E44.73623
G1 X64.466 Y69.972 E44.79808
G1 X55.613 Y70.01 E45.86045
G1 X54.892 Y70.089 E45.94749
G1 X54.162 Y70.333 E46.03985
G1 X53.509 Y70.721 E46.131
G1 X53.119 Y71.06 E46.19301
G1 X51.515 Y72.677 E46.46632
G1 X51.058 Y73.054 E46.53741
G1 X50.552 Y73.326 E46.60635
G1 X49.987 Y73.496 E46.67715
G1 X49.418 Y73.548 E46.74572
G1 X48.836 Y73.485 E46.81597
G1 X48.285 Y73.309 E46.88538
G1 X47.78 Y73.026 E46.95484
G1 X47.34 Y72.648 E47.02445
G1 X46.985 Y72.19 E47.09399
G1 X46.728 Y71.669 E47.1637
G1 X46.579 Y71.11 E47.23312
G1 X46.545 Y70.531 E47.30272
G1 X46.628 Y69.954 E47.37268
G1 X46.821 Y69.411 E47.44183
G1 X47.128 Y68.905 E47.51285
G1 X47.391 Y68.6 E47.56118
G1 X49.006 Y66.97 E47.83653
G1 X49.46 Y66.404 E47.9236
G1 X49.804 Y65.715 E48.01601
G1 X49.99 Y64.98 E48.10699
G1 X50.028 Y64.466 E48.16884
G1 X49.993 Y56.082 E49.17493
G1 X49.981 Y55.387 E49.25834
G1 X49.848 Y54.642 E49.34916
G1 X49.552 Y53.932 E49.44146
G1 X49.125 Y53.317 E49.53131
G1 X48.932 Y53.111 E49.56518
G1 X47.323 Y51.515 E49.83714
G1 X46.946 Y51.058 E49.90823
G1 X46.674 Y50.552 E49.97717
G1 X46.504 Y49.986 E50.04808
G1 X46.452 Y49.416 E50.11677
G1 X46.515 Y48.836 E50.18678
G1 X46.691 Y48.285 E50.25619
G1 X46.974 Y47.78 E50.32565
G1 X47.352 Y47.34 E50.39526
G1 X47.81 Y46.985 E50.4648
G1 X48.331 Y46.728 E50.53451
G1 X48.89 Y46.579 E50.60393
G1 X49.469 Y46.545 E50.67353
G1 X50.046 Y46.628 E50.74349
G1 X50.588 Y46.821 E50.81253
G1 X51.094 Y47.127 E50.88349
G1 X51.4 Y47.391 E50.93198
G1 X53.03 Y49.006 E51.20733
G1 X53.596 Y49.46 E51.2944
G1 X54.285 Y49.804 E51.38682
G1 X55.02 Y49.99 E51.4778
G1 X55.534 Y50.028 E51.53965
G1 X63.918 Y49.993 E52.54573
G1 X64.613 Y49.981 E52.62915
G1 X65.358 Y49.848 E52.71996
G1 X66.068 Y49.552 E52.81227
G1 X66.683 Y49.125 E52.90211
G1 X66.889 Y48.932 E52.93599
G1 X68.485 Y47.323 E53.20794
G1 X68.942 Y46.946 E53.27903
G1 X69.448 Y46.674 E53.34797
G1 X70.013 Y46.504 E53.41877
G1 X70.582 Y46.452 E53.48734
G1 X71.164 Y46.515 E53.55759
G1 X71.715 Y46.691 E53.627
G1 X72.22 Y46.974 E53.69646
G1 X72.66 Y47.352 E53.76607
G1 X73.015 Y47.81 E53.83561
G1 X73.272 Y48.331 E53.90532
G1 X73.421 Y48.89 E53.97474
G1 X73.455 Y49.469 E54.04434
G1 X73.372 Y50.046 E54.1143
G1 X73.179 Y50.588 E54.18334
G1 X72.873 Y51.094 E54.2543
G1 X72.609 Y51.4 E54.30279
G1 X70.994 Y53.03 E54.57814
G1 X70.54 Y53.596 E54.66521
G1 X70.196 Y54.285 E54.75763
G1 X70.01 Y55.02 E54.84861
G1 X69.972 Y55.534 E54.91046
G1 X70.007 Y63.918 E55.91654
G1 X70.019 Y64.613 E55.99996
G1 X70.152 Y65.358 E56.09077
G0 F3600 X70.057 Y65.386
G0 X69.899 Y67.653
G0 X69.547 Y69.257
G0 X69.611 Y69.333
G1 F1800 X69.574 Y69.378 E56.09776
G1 X69.232 Y69.802 E56.16313
G1 X69.052 Y70.38 E56.23578
G1 X69.099 Y70.98 E56.308
G1 X69.361 Y71.523 E56.38034
G1 X69.807 Y71.931 E56.45288
G1 X70.371 Y72.146 E56.52531
G1 X70.975 Y72.138 E56.5978
G1 X71.532 Y71.909 E56.67007
G1 X71.966 Y71.489 E56.74254
G1 X72.208 Y70.959 E56.81246
G1 X72.258 Y70.521 E56.86536
G1 X72.142 Y69.95 E56.93528
G1 X71.812 Y69.443 E57.00787
G1 X71.318 Y69.095 E57.08038
G1 X70.732 Y68.953 E57.15274
G1 X70.135 Y69.036 E57.22507
G1 X69.621 Y69.328 E57.296
G1 X69.611 Y69.333 E57.29735
G0 F3600 X69.547 Y69.257
G0 X67.825 Y69.953
G0 X67.818 Y69.854
G1 F1800 X68.46 Y69.706 E57.37641
G1 X69.029 Y69.378 E57.45522
G1 X69.28 Y69.107 E57.49954
G1 X69.32 Y69.064 E57.50656
G1 X69.328 Y69.056 E57.50791
G1 X69.476 Y68.896 E57.53407
G1 X69.762 Y68.304 E57.61296
G1 X69.859 Y67.653 E57.69195
