;FLAVOR:UltiGCode
;TIME:933
;MATERIAL:1138
;MATERIAL2:0
;NOZZLE_DIAMETER:0.4
;MINX:45.266
;MINY:45.269
;MINZ:0.3
;MAXX:74.733
;MAXY:74.735
;MAXZ:6.5
;Generated with Cura_SteamEngine 4.7.1
M82 ;absolute extrusion mode
G0 F3000 Y50 ;avoid prime blob
G92 E0
G92 E0
G10
;LAYER_COUNT:63
;LAYER:0
M107
G0 F3600 X49.6 Y49.565 Z0.3
;TYPE:SKIRT
G11
G1 F1800 X49.792 Y49.376 E0.03233
G1 X50.299 Y48.912 E0.1148
G1 X50.5 Y48.741 E0.14647
G1 X51.117 Y48.247 E0.24132
G1 X51.338 Y48.082 E0.27441
G1 X51.899 Y47.693 E0.35633
G1 X52.123 Y47.548 E0.38835
G1 X52.721 Y47.19 E0.47199
G1 X52.967 Y47.054 E0.50572
G1 X53.683 Y46.691 E0.60205
G1 X53.925 Y46.579 E0.63405
G1 X54.578 Y46.301 E0.71922
G1 X54.829 Y46.204 E0.75151
G1 X55.466 Y45.982 E0.83246
G1 X55.73 Y45.9 E0.86563
G1 X56.5 Y45.69 E0.96141
G1 X56.76 Y45.628 E0.99348
G1 X57.433 Y45.492 E1.07587
G1 X57.705 Y45.447 E1.10896
G1 X58.46 Y45.348 E1.20033
G1 X58.729 Y45.322 E1.23276
G1 X59.446 Y45.277 E1.31897
G1 X59.709 Y45.269 E1.35055
G1 X60.39 Y45.271 E1.43227
G1 X60.669 Y45.282 E1.46577
G1 X61.463 Y45.34 E1.56131
G1 X61.731 Y45.368 E1.59364
G1 X62.404 Y45.463 E1.6752
G1 X62.669 Y45.51 E1.7075
G1 X63.434 Y45.671 E1.80131
G1 X63.71 Y45.739 E1.83542
G1 X64.367 Y45.927 E1.91743
G1 X64.613 Y46.006 E1.94843
G1 X65.307 Y46.254 E2.03687
G1 X65.572 Y46.36 E2.07112
G1 X66.279 Y46.671 E2.1638
G1 X66.515 Y46.784 E2.1952
G1 X67.078 Y47.077 E2.27136
G1 X67.313 Y47.209 E2.30371
G1 X68.035 Y47.649 E2.40517
G1 X68.276 Y47.808 E2.43982
G1 X68.792 Y48.176 E2.51587
G1 X68.993 Y48.33 E2.54625
G1 X69.593 Y48.818 E2.63906
G1 X69.801 Y49 E2.67223
G1 X70.327 Y49.492 E2.75866
G1 X70.52 Y49.685 E2.79141
G1 X71.019 Y50.22 E2.8792
G1 X71.197 Y50.424 E2.91169
G1 X71.646 Y50.976 E2.99708
G1 X71.806 Y51.186 E3.02876
G1 X72.25 Y51.812 E3.12085
G1 X72.407 Y52.052 E3.15527
G1 X72.766 Y52.644 E3.23835
G1 X72.895 Y52.872 E3.26979
G1 X73.243 Y53.541 E3.36028
G1 X73.361 Y53.79 E3.39334
G1 X73.638 Y54.426 E3.47659
G1 X73.736 Y54.673 E3.50848
G1 X73.996 Y55.398 E3.6009
G1 X74.084 Y55.673 E3.63555
G1 X74.283 Y56.386 E3.72438
G1 X74.344 Y56.636 E3.75526
G1 X74.486 Y57.31 E3.83791
G1 X74.533 Y57.577 E3.87045
G1 X74.637 Y58.315 E3.95988
G1 X74.666 Y58.593 E3.99342
G1 X74.72 Y59.362 E4.08593
G1 X74.73 Y59.623 E4.11727
G1 X74.733 Y60.249 E4.19239
G1 X74.725 Y60.527 E4.22577
G1 X74.672 Y61.343 E4.32389
G1 X74.645 Y61.614 E4.35658
G1 X74.55 Y62.325 E4.44265
G1 X74.506 Y62.587 E4.47453
G1 X74.368 Y63.27 E4.55815
G1 X74.304 Y63.539 E4.59133
G1 X74.105 Y64.262 E4.68132
G1 X74.025 Y64.517 E4.71339
G1 X73.792 Y65.186 E4.7984
G1 X73.692 Y65.446 E4.83183
G1 X73.386 Y66.16 E4.92504
G1 X73.269 Y66.408 E4.95795
G1 X72.957 Y67.017 E5.04006
G1 X72.832 Y67.243 E5.07105
G1 X72.456 Y67.873 E5.15909
G1 X72.306 Y68.106 E5.19235
G1 X71.896 Y68.696 E5.27856
G1 X71.73 Y68.915 E5.31154
G1 X71.243 Y69.522 E5.40493
G1 X71.063 Y69.731 E5.43802
G1 X70.588 Y70.246 E5.5221
G1 X70.401 Y70.435 E5.554
G1 X69.911 Y70.9 E5.63506
G1 X69.714 Y71.075 E5.66669
G1 X69.081 Y71.601 E5.76545
G1 X68.858 Y71.775 E5.79939
G1 X68.33 Y72.154 E5.87738
G1 X68.106 Y72.303 E5.90967
G1 X67.439 Y72.717 E6.00387
G1 X67.202 Y72.853 E6.03666
G1 X66.577 Y73.184 E6.12153
G1 X66.334 Y73.302 E6.15395
G1 X65.659 Y73.603 E6.24263
G1 X65.406 Y73.706 E6.27541
G1 X64.732 Y73.953 E6.36155
G1 X64.47 Y74.039 E6.39464
G1 X63.763 Y74.244 E6.48298
G1 X63.508 Y74.309 E6.51456
G1 X62.776 Y74.47 E6.6045
G1 X62.503 Y74.52 E6.6378
G1 X61.835 Y74.619 E6.71884
G1 X61.564 Y74.65 E6.75157
G1 X60.742 Y74.715 E6.85052
G1 X60.475 Y74.727 E6.88259
G1 X59.811 Y74.735 E6.96228
G1 X59.114 Y74.715 E7.04595
G1 X58.595 Y74.669 E7.10847
G1 X57.782 Y74.567 E7.2068
G1 X57.526 Y74.526 E7.23791
G1 X56.906 Y74.407 E7.31367
G1 X56.632 Y74.345 E7.34738
G1 X55.842 Y74.135 E7.44547
G1 X55.581 Y74.055 E7.47823
G1 X54.885 Y73.818 E7.56646
G1 X54.629 Y73.721 E7.59931
G1 X54.025 Y73.468 E7.67789
G1 X53.783 Y73.358 E7.70979
G1 X53.044 Y72.989 E7.80891
G1 X52.8 Y72.856 E7.84226
G1 X52.218 Y72.513 E7.92333
G1 X51.987 Y72.366 E7.95618
G1 X51.392 Y71.958 E8.04276
G1 X51.181 Y71.803 E8.07417
G1 X50.604 Y71.349 E8.16228
G1 X50.393 Y71.171 E8.1954
G1 X49.857 Y70.686 E8.28215
G1 X49.661 Y70.496 E8.3149
G1 X49.127 Y69.942 E8.40724
G1 X48.943 Y69.737 E8.4403
G1 X48.473 Y69.177 E8.52803
G1 X48.085 Y68.679 E8.60378
G1 X47.796 Y68.265 E8.66437
G1 X47.509 Y67.816 E8.72832
G1 X47.095 Y67.106 E8.82694
G1 X46.972 Y66.88 E8.85782
G1 X46.662 Y66.26 E8.941
G1 X46.548 Y66.011 E8.97386
G1 X46.261 Y65.323 E9.06332
G1 X46.162 Y65.058 E9.09727
G1 X45.929 Y64.365 E9.185
G1 X45.852 Y64.111 E9.21685
G1 X45.663 Y63.395 E9.30571
G1 X45.603 Y63.127 E9.33867
G1 X45.472 Y62.444 E9.42212
G1 X45.43 Y62.181 E9.45408
G1 X45.334 Y61.404 E9.54803
G1 X45.31 Y61.129 E9.58116
G1 X45.272 Y60.424 E9.66588
G1 X45.266 Y60.156 E9.69805
G1 X45.275 Y59.474 E9.7799
G1 X45.288 Y59.205 E9.81221
G1 X45.351 Y58.424 E9.90624
G1 X45.383 Y58.148 E9.93958
G1 X45.49 Y57.44 E10.0255
G1 X45.54 Y57.171 E10.05834
G1 X45.702 Y56.441 E10.14807
G1 X45.77 Y56.179 E10.18055
G1 X45.963 Y55.523 E10.26261
G1 X46.046 Y55.272 E10.29433
G1 X46.307 Y54.562 E10.3851
G1 X46.412 Y54.303 E10.41864
G1 X46.716 Y53.626 E10.5077
G1 X46.837 Y53.38 E10.54059
G1 X47.172 Y52.753 E10.6259
G1 X47.299 Y52.532 E10.65649
G1 X47.678 Y51.92 E10.74287
G1 X47.835 Y51.686 E10.77668
G1 X48.265 Y51.09 E10.86488
G1 X48.43 Y50.877 E10.89721
G1 X48.886 Y50.327 E10.98294
G1 X49.072 Y50.118 E11.01651
G1 X49.6 Y49.565 E11.10826
G0 F3600 X49.889 Y49.841
G1 F1800 X50.063 Y49.671 E11.13746
G1 X50.57 Y49.207 E11.21993
G1 X50.75 Y49.053 E11.24836
G1 X51.367 Y48.559 E11.3432
G1 X51.566 Y48.411 E11.37296
G1 X52.127 Y48.022 E11.45488
G1 X52.329 Y47.891 E11.48378
G1 X52.927 Y47.533 E11.56741
G1 X53.148 Y47.411 E11.5977
G1 X53.864 Y47.048 E11.69404
G1 X54.082 Y46.947 E11.72287
G1 X54.735 Y46.669 E11.80803
G1 X54.96 Y46.582 E11.83698
G1 X55.597 Y46.36 E11.91793
G1 X55.835 Y46.286 E11.94784
G1 X56.605 Y46.076 E12.04361
G1 X56.839 Y46.02 E12.07249
G1 X57.512 Y45.884 E12.15488
G1 X57.757 Y45.844 E12.18467
G1 X58.512 Y45.745 E12.27604
G1 X58.755 Y45.721 E12.30534
G1 X59.472 Y45.676 E12.39155
G1 X59.708 Y45.669 E12.41989
G1 X60.389 Y45.671 E12.50161
G1 X60.64 Y45.681 E12.53175
G1 X61.434 Y45.739 E12.62728
G1 X61.675 Y45.764 E12.65636
G1 X62.348 Y45.859 E12.73792
G1 X62.586 Y45.901 E12.76692
G1 X63.351 Y46.062 E12.86073
G1 X63.6 Y46.124 E12.89153
G1 X64.257 Y46.312 E12.97353
G1 X64.478 Y46.383 E13.00138
G1 X65.172 Y46.631 E13.08982
G1 X65.411 Y46.726 E13.12068
G1 X66.118 Y47.037 E13.21337
G1 X66.33 Y47.139 E13.2416
G1 X66.893 Y47.432 E13.31776
G1 X67.104 Y47.551 E13.34683
G1 X67.826 Y47.991 E13.44829
G1 X68.043 Y48.134 E13.47948
G1 X68.559 Y48.502 E13.55553
G1 X68.741 Y48.64 E13.58294
G1 X69.341 Y49.128 E13.67575
G1 X69.528 Y49.292 E13.7056
G1 X70.054 Y49.784 E13.79202
G1 X70.228 Y49.958 E13.82155
G1 X70.727 Y50.493 E13.90934
G1 X70.887 Y50.676 E13.93851
G1 X71.336 Y51.228 E14.0239
G1 X71.479 Y51.417 E14.05234
G1 X71.923 Y52.043 E14.14444
G1 X72.065 Y52.259 E14.17546
G1 X72.424 Y52.851 E14.25854
G1 X72.54 Y53.057 E14.28691
G1 X72.888 Y53.726 E14.3774
G1 X72.995 Y53.949 E14.40708
G1 X73.272 Y54.585 E14.49033
G1 X73.36 Y54.808 E14.51909
G1 X73.62 Y55.533 E14.61152
G1 X73.698 Y55.78 E14.6426
G1 X73.897 Y56.493 E14.73143
G1 X73.953 Y56.719 E14.75937
G1 X74.095 Y57.393 E14.84203
G1 X74.137 Y57.633 E14.87127
G1 X74.241 Y58.371 E14.9607
G1 X74.267 Y58.621 E14.99086
G1 X74.321 Y59.39 E15.08337
G1 X74.33 Y59.625 E15.11159
G1 X74.333 Y60.251 E15.18671
G1 X74.325 Y60.501 E15.21673
G1 X74.272 Y61.317 E15.31485
G1 X74.248 Y61.561 E15.34427
G1 X74.153 Y62.272 E15.43035
G1 X74.114 Y62.508 E15.45906
G1 X73.976 Y63.191 E15.54267
G1 X73.918 Y63.433 E15.57253
G1 X73.719 Y64.156 E15.66252
G1 X73.648 Y64.385 E15.69129
G1 X73.415 Y65.054 E15.7763
G1 X73.324 Y65.288 E15.80643
G1 X73.018 Y66.002 E15.89965
G1 X72.913 Y66.225 E15.92922
G1 X72.601 Y66.834 E16.01134
G1 X72.488 Y67.038 E16.03932
G1 X72.112 Y67.668 E16.12736
G1 X71.977 Y67.877 E16.15722
G1 X71.567 Y68.467 E16.24344
G1 X71.418 Y68.665 E16.27317
G1 X70.931 Y69.272 E16.36656
G1 X70.769 Y69.46 E16.39634
G1 X70.294 Y69.975 E16.48041
G1 X70.126 Y70.145 E16.50909
G1 X69.636 Y70.61 E16.59015
G1 X69.459 Y70.768 E16.61863
G1 X68.826 Y71.294 E16.71739
G1 X68.624 Y71.45 E16.74802
G1 X68.096 Y71.829 E16.82601
G1 X67.896 Y71.963 E16.8549
G1 X67.229 Y72.377 E16.9491
G1 X67.015 Y72.499 E16.97866
G1 X66.39 Y72.83 E17.06353
G1 X66.171 Y72.937 E17.09278
G1 X65.496 Y73.238 E17.18147
G1 X65.269 Y73.33 E17.21086
G1 X64.595 Y73.577 E17.297
G1 X64.359 Y73.655 E17.32683
G1 X63.652 Y73.86 E17.41516
G1 X63.422 Y73.918 E17.44363
G1 X62.69 Y74.079 E17.53356
G1 X62.445 Y74.124 E17.56346
G1 X61.777 Y74.223 E17.64449
G1 X61.533 Y74.251 E17.67396
G1 X60.711 Y74.316 E17.77291
G1 X60.47 Y74.327 E17.80186
G1 X59.806 Y74.335 E17.88155
G1 X59.134 Y74.316 E17.96222
G1 X58.645 Y74.272 E18.02114
G1 X57.832 Y74.17 E18.11946
G1 X57.601 Y74.133 E18.14754
G1 X56.981 Y74.014 E18.22329
G1 X56.735 Y73.958 E18.25357
G1 X55.945 Y73.748 E18.35166
G1 X55.71 Y73.677 E18.38112
G1 X55.014 Y73.44 E18.46935
G1 X54.783 Y73.352 E18.49901
G1 X54.179 Y73.099 E18.57759
G1 X53.962 Y73 E18.60622
G1 X53.223 Y72.631 E18.70534
G1 X53.003 Y72.511 E18.73541
G1 X52.421 Y72.168 E18.81648
G1 X52.213 Y72.036 E18.84604
G1 X51.618 Y71.628 E18.93261
G1 X51.428 Y71.488 E18.96093
G1 X50.851 Y71.034 E19.04904
G1 X50.662 Y70.874 E19.07875
G1 X50.126 Y70.389 E19.16549
G1 X49.949 Y70.218 E19.19503
G1 X49.415 Y69.664 E19.28736
G1 X49.249 Y69.48 E19.3171
G1 X48.779 Y68.92 E19.40483
G1 X48.411 Y68.448 E19.47665
G1 X47.949 Y67.768 E19.5753
G1 X47.854 Y67.614 E19.59702
G1 X47.44 Y66.904 E19.69564
G1 X47.33 Y66.701 E19.72335
G1 X47.02 Y66.081 E19.80653
G1 X46.917 Y65.857 E19.83612
G1 X46.63 Y65.169 E19.92557
G1 X46.541 Y64.93 E19.95618
G1 X46.308 Y64.237 E20.04391
G1 X46.239 Y64.009 E20.0725
G1 X46.05 Y63.293 E20.16136
G1 X45.995 Y63.052 E20.19102
G1 X45.864 Y62.369 E20.27448
G1 X45.827 Y62.132 E20.30326
G1 X45.731 Y61.355 E20.39721
G1 X45.709 Y61.108 E20.42697
G1 X45.671 Y60.403 E20.51169
G1 X45.666 Y60.161 E20.54074
G1 X45.675 Y59.479 E20.62258
G1 X45.687 Y59.238 E20.65154
G1 X45.75 Y58.457 E20.74556
G1 X45.778 Y58.208 E20.77563
G1 X45.885 Y57.5 E20.86156
G1 X45.931 Y57.258 E20.89112
G1 X46.093 Y56.528 E20.98085
G1 X46.153 Y56.292 E21.01007
G1 X46.346 Y55.636 E21.09213
G1 X46.421 Y55.41 E21.1207
G1 X46.682 Y54.7 E21.21147
G1 X46.777 Y54.467 E21.24167
G1 X47.081 Y53.79 E21.33072
G1 X47.19 Y53.569 E21.36029
G1 X47.525 Y52.942 E21.4456
G1 X47.639 Y52.743 E21.47312
G1 X48.018 Y52.131 E21.5595
G1 X48.16 Y51.92 E21.59002
G1 X48.59 Y51.324 E21.67821
G1 X48.738 Y51.132 E21.7073
G1 X49.194 Y50.582 E21.79304
G1 X49.361 Y50.394 E21.82321
G1 X49.889 Y49.841 E21.91496
G0 F3600 X50.179 Y50.117
G1 F1800 X50.333 Y49.966 E21.94085
G1 X50.84 Y49.502 E22.02332
G1 X51 Y49.365 E22.0486
G1 X51.617 Y48.871 E22.14344
G1 X51.794 Y48.739 E22.16994
G1 X52.355 Y48.35 E22.25186
G1 X52.534 Y48.234 E22.27746
G1 X53.132 Y47.876 E22.36109
G1 X53.329 Y47.768 E22.38805
G1 X54.045 Y47.405 E22.48438
G1 X54.239 Y47.315 E22.51005
G1 X54.892 Y47.037 E22.59521
G1 X55.092 Y46.959 E22.62097
G1 X55.729 Y46.737 E22.70192
G1 X55.94 Y46.672 E22.72842
G1 X56.71 Y46.462 E22.82419
G1 X56.918 Y46.412 E22.84986
G1 X57.591 Y46.276 E22.93225
G1 X57.809 Y46.24 E22.95877
G1 X58.564 Y46.141 E23.05014
G1 X58.78 Y46.12 E23.07619
G1 X59.497 Y46.075 E23.16239
G1 X59.706 Y46.069 E23.18749
G1 X60.387 Y46.071 E23.26921
G1 X60.611 Y46.08 E23.29611
G1 X61.405 Y46.138 E23.39164
G1 X61.619 Y46.16 E23.41746
G1 X62.292 Y46.255 E23.49902
G1 X62.504 Y46.293 E23.52486
G1 X63.269 Y46.454 E23.61867
G1 X63.49 Y46.508 E23.64597
G1 X64.147 Y46.696 E23.72798
G1 X64.344 Y46.76 E23.75283
G1 X65.038 Y47.008 E23.84127
G1 X65.249 Y47.092 E23.86852
G1 X65.956 Y47.403 E23.96121
G1 X66.145 Y47.493 E23.98633
G1 X66.708 Y47.786 E24.06249
G1 X66.896 Y47.892 E24.08839
G1 X67.618 Y48.332 E24.18985
G1 X67.811 Y48.46 E24.21764
G1 X68.327 Y48.828 E24.2937
G1 X68.488 Y48.95 E24.31794
G1 X69.088 Y49.438 E24.41074
G1 X69.255 Y49.584 E24.43736
G1 X69.781 Y50.076 E24.52379
G1 X69.935 Y50.23 E24.54993
G1 X70.434 Y50.765 E24.63772
G1 X70.576 Y50.929 E24.66375
G1 X71.025 Y51.481 E24.74913
G1 X71.153 Y51.649 E24.77448
G1 X71.597 Y52.275 E24.86658
G1 X71.723 Y52.467 E24.89413
G1 X72.082 Y53.059 E24.97722
G1 X72.185 Y53.241 E25.00231
G1 X72.533 Y53.91 E25.0928
G1 X72.628 Y54.109 E25.11926
G1 X72.905 Y54.745 E25.20251
G1 X72.983 Y54.943 E25.22805
G1 X73.243 Y55.668 E25.32047
G1 X73.313 Y55.888 E25.34818
G1 X73.512 Y56.601 E25.43701
G1 X73.561 Y56.801 E25.46172
G1 X73.703 Y57.475 E25.54437
G1 X73.741 Y57.688 E25.57033
G1 X73.845 Y58.426 E25.65977
G1 X73.868 Y58.649 E25.68667
G1 X73.922 Y59.418 E25.77918
G1 X73.93 Y59.627 E25.80428
G1 X73.933 Y60.253 E25.8794
G1 X73.926 Y60.475 E25.90605
G1 X73.873 Y61.291 E26.00418
G1 X73.852 Y61.508 E26.03034
G1 X73.757 Y62.219 E26.11642
G1 X73.722 Y62.429 E26.14196
G1 X73.584 Y63.112 E26.22558
G1 X73.532 Y63.327 E26.25213
G1 X73.333 Y64.05 E26.34211
G1 X73.27 Y64.253 E26.36762
G1 X73.037 Y64.922 E26.45263
G1 X72.956 Y65.131 E26.47952
G1 X72.65 Y65.845 E26.57274
G1 X72.557 Y66.043 E26.59899
G1 X72.245 Y66.652 E26.6811
G1 X72.145 Y66.833 E26.70592
G1 X71.769 Y67.463 E26.79396
G1 X71.649 Y67.649 E26.82052
G1 X71.239 Y68.239 E26.90674
G1 X71.106 Y68.415 E26.93321
G1 X70.619 Y69.022 E27.0266
G1 X70.475 Y69.189 E27.05306
G1 X70 Y69.704 E27.13713
G1 X69.851 Y69.855 E27.16259
G1 X69.361 Y70.32 E27.24365
G1 X69.203 Y70.46 E27.26898
G1 X68.57 Y70.986 E27.36774
G1 X68.391 Y71.125 E27.39494
G1 X67.863 Y71.504 E27.47293
G1 X67.685 Y71.623 E27.49863
G1 X67.018 Y72.037 E27.59283
G1 X66.828 Y72.146 E27.61912
G1 X66.203 Y72.477 E27.70399
G1 X66.008 Y72.572 E27.73001
G1 X65.333 Y72.873 E27.8187
G1 X65.131 Y72.955 E27.84486
G1 X64.457 Y73.202 E27.931
G1 X64.247 Y73.27 E27.95749
G1 X63.54 Y73.475 E28.04583
G1 X63.336 Y73.527 E28.07109
G1 X62.604 Y73.688 E28.16103
G1 X62.386 Y73.728 E28.18763
G1 X61.718 Y73.827 E28.26866
G1 X61.501 Y73.852 E28.29487
G1 X60.679 Y73.917 E28.39382
G1 X60.466 Y73.927 E28.41941
G1 X59.802 Y73.935 E28.4991
G1 X59.154 Y73.916 E28.57689
G1 X58.695 Y73.875 E28.63219
G1 X57.882 Y73.773 E28.73051
G1 X57.677 Y73.741 E28.75541
G1 X57.057 Y73.622 E28.83117
G1 X56.838 Y73.572 E28.85813
G1 X56.048 Y73.362 E28.95622
G1 X55.839 Y73.298 E28.98245
G1 X55.143 Y73.061 E29.07068
G1 X54.938 Y72.984 E29.09695
G1 X54.334 Y72.731 E29.17554
G1 X54.14 Y72.642 E29.20115
G1 X53.401 Y72.273 E29.30027
G1 X53.206 Y72.167 E29.3269
G1 X52.624 Y71.824 E29.40797
G1 X52.439 Y71.706 E29.4343
G1 X51.844 Y71.298 E29.52088
G1 X51.675 Y71.174 E29.54603
G1 X51.098 Y70.72 E29.63413
G1 X50.93 Y70.578 E29.66053
G1 X50.394 Y70.093 E29.74727
G1 X50.237 Y69.941 E29.77349
G1 X49.703 Y69.387 E29.86583
G1 X49.556 Y69.223 E29.89226
G1 X49.086 Y68.663 E29.97999
G1 X48.738 Y68.217 E30.04787
G1 X48.284 Y67.549 E30.1448
G1 X48.2 Y67.413 E30.16398
G1 X47.786 Y66.703 E30.2626
G1 X47.688 Y66.522 E30.2873
G1 X47.378 Y65.902 E30.37048
G1 X47.287 Y65.703 E30.39674
G1 X47 Y65.015 E30.4862
G1 X46.92 Y64.803 E30.51339
G1 X46.687 Y64.11 E30.60112
G1 X46.626 Y63.907 E30.62656
G1 X46.437 Y63.191 E30.71542
G1 X46.388 Y62.977 E30.74177
G1 X46.257 Y62.294 E30.82522
G1 X46.224 Y62.083 E30.85085
G1 X46.128 Y61.306 E30.9448
G1 X46.109 Y61.086 E30.9713
G1 X46.071 Y60.381 E31.05602
G1 X46.066 Y60.167 E31.08171
G1 X46.075 Y59.485 E31.16355
G1 X46.085 Y59.27 E31.18938
G1 X46.148 Y58.489 E31.28341
G1 X46.174 Y58.268 E31.31011
G1 X46.281 Y57.56 E31.39603
G1 X46.321 Y57.345 E31.42228
G1 X46.483 Y56.615 E31.51201
G1 X46.537 Y56.405 E31.53803
G1 X46.73 Y55.749 E31.62008
G1 X46.797 Y55.548 E31.64551
G1 X47.058 Y54.838 E31.73628
G1 X47.142 Y54.631 E31.76309
G1 X47.446 Y53.954 E31.85214
G1 X47.543 Y53.757 E31.87849
G1 X47.878 Y53.13 E31.9638
G1 X47.979 Y52.953 E31.98826
G1 X48.358 Y52.341 E32.07464
G1 X48.484 Y52.154 E32.1017
G1 X48.914 Y51.558 E32.18989
G1 X49.046 Y51.388 E32.21571
G1 X49.502 Y50.838 E32.30145
G1 X49.651 Y50.67 E32.3284
G1 X50.179 Y50.117 E32.42015
G10
;MESH:encoder_ma_holder_1.stl
