;FLAVOR:UltiGCode
;TIME:3576
;MATERIAL:4955
;MATERIAL2:0
;NOZZLE_DIAMETER:0.4
;MINX:39.515
;MINY:39.515
;MINZ:0.3
;MAXX:80.485
;MAXY:80.485
;MAXZ:20.5
;Generated with Cura_SteamEngine 4.5.0
M82 ;absolute extrusion mode

G92 E0
G92 E0
G10
;LAYER_COUNT:203
;LAYER:0
M107
G0 F3600 X42.445 Y53.744 Z0.3
;TYPE:SKIRT
G11
G1 F1800 X54.187 Y42.005 E1.99243
G1 X54.613 Y41.603 E2.06272
G1 X55.216 Y41.109 E2.15626
G1 X55.655 Y40.799 E2.22075
G1 X56.327 Y40.409 E2.31399
G1 X57.28 Y39.992 E2.43881
G1 X57.757 Y39.834 E2.49911
G1 X58.416 Y39.672 E2.58055
G1 X59.422 Y39.536 E2.70237
G1 X59.979 Y39.515 E2.76925
G1 X60.522 Y39.532 E2.83444
G1 X61.173 Y39.6 E2.91299
G1 X62.147 Y39.809 E3.03253
G1 X62.682 Y39.979 E3.09989
G1 X63.19 Y40.179 E3.16541
G1 X63.669 Y40.407 E3.22907
G1 X64.138 Y40.671 E3.29365
G1 X64.594 Y40.969 E3.35902
G1 X65.108 Y41.361 E3.43659
G1 X66.254 Y42.443 E3.62572
G1 X77.99 Y54.182 E5.61764
G1 X78.396 Y54.612 E5.68861
G1 X78.88 Y55.202 E5.78018
G1 X79.178 Y55.619 E5.84168
G1 X79.577 Y56.303 E5.93671
G1 X79.805 Y56.774 E5.9995
G1 X80.027 Y57.326 E6.0709
G1 X80.237 Y58.027 E6.15871
G1 X80.405 Y58.874 E6.26233
G1 X80.464 Y59.427 E6.32907
G1 X80.485 Y59.975 E6.39488
G1 X80.468 Y60.521 E6.46043
G1 X80.399 Y61.174 E6.53923
G1 X80.196 Y62.131 E6.65662
G1 X80.029 Y62.662 E6.72342
G1 X79.826 Y63.179 E6.79007
G1 X79.594 Y63.667 E6.85491
G1 X79.329 Y64.138 E6.91976
G1 X79.031 Y64.594 E6.98513
G1 X78.727 Y65.002 E7.04619
G1 X78.37 Y65.409 E7.11115
G1 X77.551 Y66.261 E7.25297
G1 X65.815 Y77.993 E9.2443
G1 X65.381 Y78.401 E9.31578
G1 X64.787 Y78.889 E9.40803
G1 X64.345 Y79.201 E9.47295
G1 X63.668 Y79.593 E9.56682
G1 X62.722 Y80.007 E9.69074
G1 X62.243 Y80.166 E9.7513
G1 X61.584 Y80.328 E9.83274
G1 X60.58 Y80.463 E9.9543
G1 X60.022 Y80.485 E10.02131
G1 X59.478 Y80.468 E10.08663
G1 X58.827 Y80.4 E10.16517
G1 X57.853 Y80.191 E10.28471
G1 X57.318 Y80.021 E10.35208
G1 X56.813 Y79.822 E10.41721
G1 X56.333 Y79.594 E10.48098
G1 X55.857 Y79.327 E10.54647
G1 X55.402 Y79.029 E10.61174
G1 X54.889 Y78.637 E10.68921
G1 X53.746 Y77.557 E10.87792
G1 X42 Y65.808 E12.87153
G1 X41.6 Y65.384 E12.94148
G1 X41.103 Y64.776 E13.03572
G1 X40.804 Y64.353 E13.09788
G1 X40.401 Y63.657 E13.19439
G1 X39.992 Y62.72 E13.31707
G1 X39.83 Y62.231 E13.37889
G1 X39.675 Y61.599 E13.45698
G1 X39.535 Y60.562 E13.58255
G1 X39.515 Y60.015 E13.64823
G1 X39.532 Y59.477 E13.71282
G1 X39.601 Y58.826 E13.79138
G1 X39.807 Y57.858 E13.91014
G1 X39.976 Y57.324 E13.97735
G1 X40.178 Y56.812 E14.0434
G1 X40.407 Y56.331 E14.10733
G1 X40.676 Y55.853 E14.17315
G1 X40.981 Y55.389 E14.23978
G1 X41.378 Y54.872 E14.318
G1 X42.445 Y53.744 E14.50433
G0 F3600 X42.734 Y54.02
G1 F1800 X54.47 Y42.288 E16.49565
G1 X54.887 Y41.895 E16.56441
G1 X55.464 Y41.422 E16.65394
G1 X55.879 Y41.13 E16.71484
G1 X56.521 Y40.759 E16.80381
G1 X57.43 Y40.363 E16.9228
G1 X58.121 Y40.152 E17.0095
G1 X58.913 Y39.994 E17.10641
G1 X59.465 Y39.934 E17.17304
G1 X59.967 Y39.915 E17.23332
G1 X60.51 Y39.932 E17.29851
G1 X61.116 Y39.996 E17.37164
G1 X62.026 Y40.19 E17.48329
G1 X62.561 Y40.36 E17.55066
G1 X63.497 Y40.768 E17.67318
G1 X64.375 Y41.303 E17.79656
G1 X64.853 Y41.669 E17.86881
G1 X65.978 Y42.732 E18.05454
G1 X77.707 Y54.465 E20.04535
G1 X78.104 Y54.885 E20.11471
G1 X78.566 Y55.45 E20.20229
G1 X79.029 Y56.138 E20.3018
G1 X79.356 Y56.752 E20.38528
G1 X79.654 Y57.471 E20.47868
G1 X79.85 Y58.128 E20.56095
G1 X80.008 Y58.916 E20.65739
G1 X80.067 Y59.469 E20.72413
G1 X80.068 Y60.509 E20.84893
G1 X80.003 Y61.118 E20.92242
G1 X79.814 Y62.011 E21.03196
G1 X79.647 Y62.542 E21.09875
G1 X79.464 Y63.008 E21.15883
G1 X79.232 Y63.496 E21.22367
G1 X78.697 Y64.375 E21.34715
G1 X78.225 Y64.973 E21.43857
G1 X77.262 Y65.984 E21.60612
G1 X65.532 Y77.71 E23.59643
G1 X65.108 Y78.109 E23.6663
G1 X64.539 Y78.575 E23.75455
G1 X64.121 Y78.87 E23.81595
G1 X63.474 Y79.243 E23.90557
G1 X62.572 Y79.636 E24.02363
G1 X61.879 Y79.848 E24.1106
G1 X61.088 Y80.006 E24.20739
G1 X60.537 Y80.066 E24.2739
G1 X60.035 Y80.085 E24.33419
G1 X59.491 Y80.068 E24.3995
G1 X58.884 Y80.004 E24.47274
G1 X57.974 Y79.81 E24.5844
G1 X57.439 Y79.64 E24.65176
G1 X56.504 Y79.233 E24.77413
G1 X55.622 Y78.695 E24.8981
G1 X55.144 Y78.328 E24.97042
G1 X54.022 Y77.268 E25.15564
G1 X42.283 Y65.525 E27.14816
G1 X41.892 Y65.111 E27.21649
G1 X41.418 Y64.529 E27.30656
G1 X40.961 Y63.845 E27.40528
G1 X40.566 Y63.073 E27.50934
G1 X40.363 Y62.57 E27.57443
G1 X40.149 Y61.87 E27.66227
G1 X39.992 Y61.077 E27.75928
G1 X39.933 Y60.52 E27.82649
G1 X39.932 Y59.489 E27.95021
G1 X39.997 Y58.882 E28.02347
G1 X40.189 Y57.979 E28.13425
G1 X40.358 Y57.445 E28.20146
G1 X40.769 Y56.503 E28.32479
G1 X41.316 Y55.609 E28.45056
G1 X41.686 Y55.127 E28.52348
G1 X42.734 Y54.02 E28.7064
G0 F3600 X43.023 Y54.297
G1 F1800 X54.753 Y42.571 E30.69671
G1 X55.16 Y42.187 E30.76386
G1 X55.712 Y41.736 E30.8494
G1 X56.343 Y41.315 E30.94042
G1 X57.069 Y40.94 E31.03848
G1 X57.58 Y40.734 E31.10459
G1 X58.223 Y40.539 E31.18522
G1 X58.956 Y40.392 E31.27493
G1 X59.508 Y40.332 E31.34156
G1 X59.954 Y40.315 E31.39512
G1 X60.497 Y40.332 E31.46032
G1 X61.06 Y40.392 E31.52826
G1 X61.905 Y40.571 E31.63191
G1 X62.44 Y40.741 E31.69927
G1 X63.325 Y41.13 E31.81528
G1 X64.157 Y41.638 E31.93226
G1 X64.599 Y41.978 E31.99917
G1 X65.701 Y43.021 E32.18125
G1 X77.424 Y54.748 E34.17105
G1 X77.812 Y55.159 E34.23888
G1 X78.252 Y55.698 E34.32237
G1 X78.679 Y56.332 E34.4141
G1 X78.992 Y56.918 E34.49382
G1 X79.281 Y57.615 E34.58436
G1 X79.463 Y58.229 E34.66121
G1 X79.61 Y58.959 E34.75057
G1 X79.669 Y59.512 E34.81731
G1 X79.668 Y60.497 E34.93551
G1 X79.608 Y61.061 E35.00357
G1 X79.433 Y61.891 E35.10536
G1 X79.266 Y62.422 E35.17216
G1 X78.871 Y63.324 E35.29032
G1 X78.362 Y64.157 E35.40746
G1 X77.921 Y64.713 E35.49262
G1 X76.974 Y65.707 E35.65737
G1 X65.249 Y77.427 E37.64675
G1 X64.835 Y77.817 E37.715
G1 X64.291 Y78.262 E37.79934
G1 X63.654 Y78.687 E37.89123
G1 X62.932 Y79.059 E37.98869
G1 X62.422 Y79.265 E38.0547
G1 X61.777 Y79.461 E38.13559
G1 X61.044 Y79.608 E38.2253
G1 X60.493 Y79.668 E38.29181
G1 X59.503 Y79.668 E38.41061
G1 X58.94 Y79.608 E38.47856
G1 X58.095 Y79.429 E38.58221
G1 X57.56 Y79.259 E38.64957
G1 X56.676 Y78.871 E38.76542
G1 X55.841 Y78.36 E38.88289
G1 X55.399 Y78.02 E38.94981
G1 X54.299 Y76.979 E39.13155
G1 X42.566 Y65.242 E41.12304
G1 X42.184 Y64.837 E41.18985
G1 X41.732 Y64.282 E41.27574
G1 X41.312 Y63.652 E41.3666
G1 X40.937 Y62.924 E41.46487
G1 X40.734 Y62.421 E41.52996
G1 X40.536 Y61.769 E41.61173
G1 X40.39 Y61.035 E41.70154
G1 X40.331 Y60.478 E41.76875
G1 X40.332 Y59.502 E41.88587
G1 X40.392 Y58.939 E41.95381
G1 X40.57 Y58.099 E42.05685
G1 X40.739 Y57.565 E42.12406
G1 X41.13 Y56.674 E42.24082
G1 X41.65 Y55.828 E42.35999
G1 X41.994 Y55.383 E42.42748
G1 X43.023 Y54.297 E42.60701
G10
;MESH:bearing_shell_1.stl
G0 F3600 X44.814 Y56.09
G0 X45.709 Y56.984
G0 X46.953 Y57.313
G0 X48.021 Y57.307
G0 X49.013 Y57.713
G0 X50.418 Y59.094
G0 X50.517 Y59.102
;TYPE:WALL-INNER
G11
G1 F1800 X50.511 Y59.346 E42.6363
G1 X50.508 Y59.468 E42.65095
G1 X50.495 Y59.994 E42.71409
G1 X50.484 Y60.383 E42.76078
G1 X50.492 Y60.484 E42.77294
G1 X50.506 Y60.641 E42.79186
G1 X50.564 Y61.29 E42.87005
G1 X50.729 Y62.182 E42.9789
G1 X50.979 Y63.053 E43.08764
G1 X51.31 Y63.897 E43.19643
G1 X51.72 Y64.706 E43.30527
G1 X52.204 Y65.472 E43.414
G1 X52.761 Y66.188 E43.52286
G1 X53.382 Y66.849 E43.63169
G1 X54.061 Y67.446 E43.74019
G1 X54.744 Y67.941 E43.84141
G1 X55.522 Y68.405 E43.95011
G1 X56.341 Y68.793 E44.05886
G1 X57.193 Y69.101 E44.16758
G1 X58.071 Y69.327 E44.27637
G1 X58.965 Y69.468 E44.38498
G1 X59.352 Y69.492 E44.43151
G1 X59.481 Y69.499 E44.44701
G1 X59.869 Y69.523 E44.49366
G1 X59.978 Y69.52 E44.50674
G1 X60.502 Y69.503 E44.56966
G1 X60.674 Y69.497 E44.59031
G1 X60.775 Y69.493 E44.60244
G1 X61.673 Y69.376 E44.71111
G1 X62.497 Y69.19 E44.81248
G1 X63.358 Y68.912 E44.92105
G1 X64.19 Y68.553 E45.02979
G1 X64.985 Y68.115 E45.13871
G1 X65.733 Y67.605 E45.24735
G1 X66.43 Y67.027 E45.356
G1 X67.07 Y66.382 E45.46504
G1 X67.645 Y65.681 E45.57384
G1 X68.149 Y64.929 E45.68247
G1 X68.581 Y64.132 E45.79126
G1 X68.912 Y63.357 E45.89239
G1 X69.19 Y62.498 E46.00073
G1 X69.387 Y61.613 E46.10953
G1 X69.494 Y60.737 E46.21543
G1 X69.497 Y60.713 E46.21833
G1 X69.501 Y60.532 E46.24006
G1 X69.515 Y60.006 E46.3032
G1 X69.521 Y59.807 E46.32709
G1 X69.502 Y59.509 E46.36292
G1 X69.492 Y59.356 E46.38132
G1 X69.461 Y58.903 E46.43581
G1 X69.315 Y58.007 E46.54475
G1 X69.082 Y57.131 E46.65352
G1 X68.768 Y56.281 E46.76226
G1 X68.403 Y55.52 E46.86354
G1 X67.941 Y54.743 E46.97202
G1 X67.405 Y54.011 E47.08089
G1 X66.803 Y53.335 E47.18951
G1 X66.138 Y52.718 E47.29837
G1 X65.419 Y52.167 E47.40707
G1 X64.649 Y51.687 E47.51596
G1 X63.837 Y51.283 E47.62479
G1 X62.992 Y50.958 E47.73343
G1 X62.12 Y50.715 E47.84206
G1 X61.291 Y50.564 E47.94318
G1 X60.639 Y50.507 E48.02171
G1 X60.51 Y50.496 E48.03725
G1 X60.388 Y50.485 E48.05195
G1 X60.015 Y50.487 E48.09671
G1 X59.483 Y50.49 E48.16055
G1 X59.323 Y50.506 E48.17985
G1 X58.581 Y50.582 E48.26935
G1 X57.693 Y50.76 E48.37803
G1 X56.824 Y51.02 E48.48688
G1 X55.985 Y51.363 E48.59565
G1 X55.182 Y51.784 E48.70445
G1 X54.423 Y52.28 E48.81325
G1 X53.763 Y52.804 E48.91438
G1 X53.107 Y53.429 E49.02311
G1 X52.514 Y54.113 E49.13174
G1 X51.988 Y54.852 E49.24059
G1 X51.534 Y55.635 E49.3492
G1 X51.157 Y56.461 E49.45816
G1 X50.862 Y57.318 E49.56692
G1 X50.648 Y58.198 E49.6756
G1 X50.517 Y59.102 E49.78521
G0 F3600 X50.418 Y59.094
G0 X50.252 Y60.532
G0 X50.154 Y60.514
G1 F1800 X50.168 Y60.355 E49.80154
G1 X50.202 Y59.987 E49.83507
G1 X50.148 Y59.46 E49.88702
G1 X50.113 Y59.344 E49.90084
G1 X49.992 Y58.953 E49.94995
G1 X49.739 Y58.487 E50.01358
G1 X49.401 Y58.079 E50.07716
G1 X48.991 Y57.746 E50.14055
G1 X48.522 Y57.498 E50.20421
G1 X48.014 Y57.346 E50.26784
G1 X47.487 Y57.298 E50.33134
G1 X46.96 Y57.352 E50.39491
G1 X46.453 Y57.508 E50.45857
G1 X45.987 Y57.761 E50.5222
G1 X45.579 Y58.099 E50.58578
G1 X45.246 Y58.509 E50.64916
G1 X44.998 Y58.978 E50.71282
G1 X44.846 Y59.486 E50.77645
G1 X44.798 Y60.013 E50.83995
G1 X44.852 Y60.54 E50.90353
G1 X45.008 Y61.047 E50.96718
G1 X45.261 Y61.513 E51.03081
G1 X45.599 Y61.921 E51.09439
G1 X46.009 Y62.254 E51.15777
G1 X46.478 Y62.502 E51.22144
G1 X46.986 Y62.654 E51.28507
G1 X47.513 Y62.702 E51.34857
G1 X48.04 Y62.648 E51.41214
G1 X48.547 Y62.492 E51.47579
G1 X49.013 Y62.239 E51.53942
G1 X49.421 Y61.901 E51.603
G1 X49.754 Y61.491 E51.66639
G1 X50.002 Y61.022 E51.73005
G1 X50.109 Y60.665 E51.77477
G1 X50.154 Y60.514 E51.79226
G0 F3600 X50.252 Y60.532
G0 X50.942 Y63.065
G0 X51.274 Y63.913
G0 X51.686 Y64.725
G0 X57.248 Y71.968
G0 X57.346 Y71.986
G1 F1800 X57.298 Y72.513 E51.85576
G1 X57.352 Y73.04 E51.91933
G1 X57.508 Y73.547 E51.98299
G1 X57.761 Y74.013 E52.04662
G1 X58.099 Y74.421 E52.1102
G1 X58.509 Y74.754 E52.17358
G1 X58.978 Y75.002 E52.23724
G1 X59.486 Y75.154 E52.30088
G1 X60.013 Y75.202 E52.36438
G1 X60.54 Y75.148 E52.42795
G1 X61.047 Y74.992 E52.4916
G1 X61.513 Y74.739 E52.55523
G1 X61.921 Y74.401 E52.61881
G1 X62.254 Y73.991 E52.68219
G1 X62.502 Y73.522 E52.74586
G1 X62.654 Y73.014 E52.80949
G1 X62.702 Y72.487 E52.87299
G1 X62.648 Y71.96 E52.93656
G1 X62.492 Y71.453 E53.00022
G1 X62.239 Y70.987 E53.06385
G1 X61.901 Y70.579 E53.12742
G1 X61.491 Y70.246 E53.19081
G1 X61.022 Y69.998 E53.25447
G1 X60.678 Y69.895 E53.29756
G1 X60.514 Y69.846 E53.31666
G1 X59.987 Y69.798 E53.36604
G1 X59.899 Y69.807 E53.37314
G1 X59.46 Y69.852 E53.41604
G1 X59.337 Y69.889 E53.43056
G1 X58.953 Y70.008 E53.4788
G1 X58.487 Y70.261 E53.54243
G1 X58.079 Y70.599 E53.60601
G1 X57.746 Y71.009 E53.66939
G1 X57.498 Y71.478 E53.73306
G1 X57.346 Y71.986 E53.79669
G0 F3600 X57.248 Y71.968
G0 X57.713 Y70.987
G0 X58.465 Y70.228
G0 X59.869 Y69.562
G0 X60.778 Y69.532
G0 X61.679 Y69.415
G0 X62.507 Y69.228
G0 X63.372 Y68.949
G0 X64.207 Y68.588
G0 X65.005 Y68.149
G0 X65.757 Y67.636
G0 X66.456 Y67.056
G0 X67.099 Y66.408
G0 X67.677 Y65.704
G0 X68.183 Y64.949
G0 X68.617 Y64.149
G0 X68.949 Y63.371
G0 X69.228 Y62.508
G0 X69.748 Y59.468
G0 X69.846 Y59.486
G1 F1800 X69.815 Y59.833 E53.8307
G1 X69.798 Y60.013 E53.84605
G1 X69.852 Y60.54 E53.8965
G1 X69.869 Y60.598 E53.90267
G1 X69.876 Y60.621 E53.90551
G1 X70.008 Y61.047 E53.95903
G1 X70.261 Y61.513 E54.02266
G1 X70.599 Y61.921 E54.08624
G1 X71.009 Y62.254 E54.14962
G1 X71.478 Y62.502 E54.21328
G1 X71.986 Y62.654 E54.27692
G1 X72.513 Y62.702 E54.34042
G1 X73.04 Y62.648 E54.40399
G1 X73.547 Y62.492 E54.46764
G1 X74.013 Y62.239 E54.53127
G1 X74.421 Y61.901 E54.59485
G1 X74.754 Y61.491 E54.65823
G1 X75.002 Y61.022 E54.7219
G1 X75.154 Y60.514 E54.78553
G1 X75.202 Y59.987 E54.84903
G1 X75.148 Y59.46 E54.9126
G1 X74.992 Y58.953 E54.97626
G1 X74.739 Y58.487 E55.03989
G1 X74.401 Y58.079 E55.10346
G1 X73.991 Y57.746 E55.16685
G1 X73.522 Y57.498 E55.23051
G1 X73.014 Y57.346 E55.29414
G1 X72.487 Y57.298 E55.35764
G1 X71.96 Y57.352 E55.42122
G1 X71.453 Y57.508 E55.48487
G1 X70.987 Y57.761 E55.5485
G1 X70.579 Y58.099 E55.61208
G1 X70.246 Y58.509 E55.67546
G1 X69.998 Y58.978 E55.73913
G1 X69.89 Y59.339 E55.78434
G1 X69.846 Y59.486 E55.80149
G0 F3600 X69.748 Y59.468
G0 X69.12 Y57.119
G0 X68.804 Y56.266
G0 X68.438 Y55.502
G0 X67.974 Y54.721
G0 X67.436 Y53.986
G0 X66.831 Y53.308
G0 X66.163 Y52.688
G0 X65.441 Y52.135
G0 X64.668 Y51.653
G0 X63.853 Y51.247
G0 X63.004 Y50.921
G0 X59.468 Y50.252
G0 X59.486 Y50.154
G1 F1800 X59.513 Y50.156 E55.80448
G1 X60.013 Y50.202 E55.85079
G1 X60.355 Y50.167 E55.88151
G1 X60.54 Y50.148 E55.90077
G1 X60.664 Y50.11 E55.91536
G1 X61.047 Y49.992 E55.96345
G1 X61.513 Y49.739 E56.02708
G1 X61.921 Y49.401 E56.09066
G1 X62.254 Y48.991 E56.15404
G1 X62.502 Y48.522 E56.21771
G1 X62.654 Y48.014 E56.28134
G1 X62.702 Y47.487 E56.34484
G1 X62.648 Y46.96 E56.40841
G1 X62.492 Y46.453 E56.47207
G1 X62.239 Y45.987 E56.5357
G1 X61.901 Y45.579 E56.59927
G1 X61.491 Y45.246 E56.66266
G1 X61.022 Y44.998 E56.72632
G1 X60.514 Y44.846 E56.78995
G1 X59.987 Y44.798 E56.85345
G1 X59.46 Y44.852 E56.91703
G1 X58.953 Y45.008 E56.98068
G1 X58.487 Y45.261 E57.04431
G1 X58.079 Y45.599 E57.10789
G1 X57.746 Y46.009 E57.17127
G1 X57.498 Y46.478 E57.23494
G1 X57.346 Y46.986 E57.29857
G1 X57.298 Y47.513 E57.36207
G1 X57.352 Y48.04 E57.42564
G1 X57.508 Y48.547 E57.48929
G1 X57.761 Y49.013 E57.55292
G1 X58.099 Y49.421 E57.6165
G1 X58.509 Y49.754 E57.67989
G1 X58.978 Y50.002 E57.74355
G1 X59.332 Y50.108 E57.78789
G1 X59.486 Y50.154 E57.80566
G0 F3600 X59.468 Y50.252
G0 X60.547 Y50.187
G0 X61.535 Y49.772
G0 X62.287 Y49.013
G0 X62.693 Y48.021
G0 X62.687 Y46.953
G0 X62.321 Y46.056
G0 X60.775 Y44.292
G0 X60.798 Y44.195
G1 F1800 X61.24 Y44.336 E57.86133
G1 X61.664 Y44.536 E57.91759
G1 X62.051 Y44.79 E57.97314
G1 X62.417 Y45.11 E58.03148
G1 X74.735 Y57.427 E60.12183
G1 X75.061 Y57.765 E60.17818
G1 X75.341 Y58.134 E60.23376
G1 X75.564 Y58.53 E60.2883
G1 X75.736 Y58.96 E60.34388
G1 X75.847 Y59.416 E60.40019
G1 X75.896 Y59.878 E60.45595
G1 X75.881 Y60.348 E60.51237
G1 X75.804 Y60.798 E60.56716
G1 X75.665 Y61.239 E60.62265
G1 X75.464 Y61.664 E60.67906
G1 X75.21 Y62.051 E60.73461
G1 X74.89 Y62.417 E60.79295
G1 X62.573 Y74.735 E62.8833
G1 X62.235 Y75.061 E62.93965
G1 X61.866 Y75.341 E62.99524
G1 X61.47 Y75.564 E63.04977
G1 X61.04 Y75.736 E63.10535
G1 X60.584 Y75.847 E63.16166
G1 X60.122 Y75.896 E63.21742
G1 X59.652 Y75.881 E63.27384
G1 X59.202 Y75.805 E63.32861
G1 X58.76 Y75.664 E63.38428
G1 X58.336 Y75.464 E63.44054
G1 X57.949 Y75.21 E63.49609
G1 X57.583 Y74.89 E63.55443
G1 X45.26 Y62.568 E65.64563
G1 X44.939 Y62.235 E65.70113
G1 X44.659 Y61.866 E65.75671
G1 X44.436 Y61.47 E65.81125
G1 X44.264 Y61.04 E65.86682
G1 X44.153 Y60.584 E65.92314
G1 X44.104 Y60.122 E65.97889
G1 X44.119 Y59.652 E66.03532
G1 X44.195 Y59.202 E66.09009
G1 X44.336 Y58.76 E66.14576
G1 X44.536 Y58.336 E66.20202
G1 X44.79 Y57.949 E66.25757
G1 X45.11 Y57.583 E66.31591
G1 X57.427 Y45.265 E68.40625
G1 X57.765 Y44.939 E68.46261
G1 X58.134 Y44.659 E68.51819
G1 X58.53 Y44.436 E68.57273
G1 X58.96 Y44.264 E68.6283
G1 X59.416 Y44.153 E68.68462
G1 X59.878 Y44.104 E68.74037
G1 X60.348 Y44.119 E68.7968
G1 X60.798 Y44.195 E68.85156
G0 F3600 X60.893 Y43.806
;TYPE:WALL-OUTER
