;FLAVOR:UltiGCode
;TIME:1940
;MATERIAL:2501
;MATERIAL2:0
;NOZZLE_DIAMETER:0.4
;MINX:32.446
;MINY:32.446
;MINZ:0.3
;MAXX:87.553
;MAXY:87.554
;MAXZ:4
;Generated with Cura_SteamEngine 4.5.0
M82 ;absolute extrusion mode

G92 E0
G92 E0
G10
;LAYER_COUNT:38
;LAYER:0
M107
G0 F3600 X44.762 Y35.401 Z0.3
;TYPE:SKIRT
G11
G1 F1800 X45.186 Y34.899 E0.07885
G1 X45.548 Y34.535 E0.14046
G1 X46.036 Y34.109 E0.21819
G1 X46.499 Y33.766 E0.28733
G1 X47.043 Y33.427 E0.36425
G1 X47.679 Y33.105 E0.4498
G1 X48.175 Y32.902 E0.51411
G1 X48.678 Y32.741 E0.57748
G1 X49.326 Y32.585 E0.65747
G1 X50.012 Y32.482 E0.74071
G1 X50.56 Y32.446 E0.80661
G1 X51.156 Y32.454 E0.87814
G1 X51.794 Y32.511 E0.955
G1 X52.472 Y32.637 E1.03776
G1 X52.989 Y32.774 E1.10194
G1 X53.535 Y32.962 E1.17123
G1 X54.121 Y33.222 E1.24816
G1 X54.902 Y33.623 E1.35351
G1 X56.272 Y34.363 E1.54036
G1 X58.699 Y35.588 E1.8666
G1 X61.176 Y36.75 E2.19492
G1 X63.691 Y37.845 E2.52409
G1 X66.227 Y38.867 E2.85219
G1 X68.752 Y39.797 E3.17509
G1 X71.332 Y40.668 E3.50185
G1 X73.969 Y41.477 E3.83285
G1 X76.582 Y42.198 E4.15813
G1 X79.226 Y42.847 E4.48483
G1 X80.592 Y43.141 E4.6525
G1 X81.889 Y43.433 E4.81204
G1 X82.397 Y43.588 E4.87577
G1 X83.011 Y43.826 E4.95479
G1 X83.525 Y44.074 E5.02328
G1 X84.063 Y44.388 E5.09803
G1 X84.594 Y44.759 E5.17576
G1 X85.099 Y45.185 E5.25504
G1 X85.465 Y45.548 E5.3169
G1 X85.891 Y46.036 E5.39463
G1 X86.232 Y46.496 E5.46335
G1 X86.568 Y47.034 E5.53946
G1 X86.89 Y47.667 E5.62469
G1 X87.098 Y48.176 E5.69067
G1 X87.258 Y48.676 E5.75367
G1 X87.414 Y49.322 E5.83341
G1 X87.518 Y50.019 E5.91798
G1 X87.553 Y50.546 E5.98136
G1 X87.547 Y51.152 E6.05408
G1 X87.489 Y51.794 E6.13144
G1 X87.365 Y52.465 E6.21332
G1 X87.226 Y52.989 E6.27837
G1 X87.031 Y53.55 E6.34965
G1 X86.777 Y54.122 E6.42475
G1 X86.373 Y54.908 E6.5308
G1 X85.637 Y56.272 E6.71679
G1 X84.412 Y58.699 E7.04302
G1 X83.25 Y61.176 E7.37134
G1 X82.155 Y63.691 E7.70051
G1 X81.133 Y66.227 E8.02861
G1 X80.203 Y68.752 E8.35151
G1 X79.337 Y71.317 E8.67638
G1 X78.525 Y73.964 E9.00863
G1 X77.806 Y76.567 E9.33269
G1 X77.158 Y79.207 E9.65889
G1 X76.873 Y80.532 E9.82153
G1 X76.567 Y81.889 E9.98845
G1 X76.412 Y82.397 E10.05219
G1 X76.174 Y83.011 E10.13121
G1 X75.924 Y83.528 E10.20012
G1 X75.608 Y84.068 E10.2752
G1 X75.24 Y84.596 E10.35243
G1 X74.814 Y85.101 E10.43172
G1 X74.45 Y85.467 E10.49366
G1 X73.961 Y85.893 E10.57148
G1 X73.502 Y86.233 E10.64003
G1 X72.959 Y86.572 E10.71684
G1 X72.321 Y86.895 E10.80266
G1 X71.825 Y87.098 E10.86697
G1 X71.322 Y87.259 E10.93035
G1 X70.674 Y87.415 E11.01033
G1 X69.988 Y87.518 E11.09357
G1 X69.425 Y87.554 E11.16127
G1 X68.836 Y87.546 E11.23195
G1 X68.206 Y87.489 E11.30786
G1 X67.528 Y87.363 E11.39062
G1 X67.011 Y87.226 E11.4548
G1 X66.465 Y87.038 E11.52409
G1 X65.876 Y86.777 E11.6014
G1 X65.09 Y86.372 E11.70751
G1 X63.728 Y85.637 E11.89323
G1 X61.301 Y84.412 E12.21946
G1 X58.824 Y83.25 E12.54778
G1 X56.309 Y82.155 E12.87695
G1 X53.773 Y81.133 E13.20505
G1 X51.248 Y80.203 E13.52795
G1 X48.668 Y79.332 E13.85472
G1 X46.031 Y78.523 E14.18571
G1 X43.418 Y77.802 E14.51099
G1 X40.774 Y77.153 E14.83769
G1 X39.408 Y76.859 E15.00536
G1 X38.111 Y76.567 E15.1649
G1 X37.603 Y76.412 E15.22863
G1 X36.989 Y76.174 E15.30765
G1 X36.472 Y75.924 E15.37657
G1 X35.932 Y75.608 E15.45165
G1 X35.4 Y75.237 E15.52948
G1 X34.9 Y74.815 E15.60799
G1 X34.535 Y74.452 E15.66976
G1 X34.109 Y73.964 E15.7475
G1 X33.766 Y73.501 E15.81664
G1 X33.427 Y72.957 E15.89356
G1 X33.105 Y72.321 E15.9791
G1 X32.902 Y71.825 E16.04342
G1 X32.739 Y71.317 E16.10744
G1 X32.584 Y70.671 E16.18716
G1 X32.482 Y69.988 E16.27003
G1 X32.446 Y69.441 E16.33581
G1 X32.454 Y68.845 E16.40733
G1 X32.513 Y68.198 E16.4853
G1 X32.632 Y67.551 E16.56424
G1 X32.774 Y67.009 E16.63147
G1 X32.95 Y66.506 E16.69542
G1 X33.2 Y65.931 E16.77066
G1 X33.627 Y65.092 E16.88363
G1 X34.363 Y63.728 E17.06962
G1 X35.588 Y61.301 E17.39586
G1 X36.75 Y58.824 E17.72418
G1 X37.842 Y56.316 E18.05243
G1 X38.868 Y53.766 E18.38227
G1 X39.801 Y51.236 E18.70585
G1 X40.668 Y48.668 E19.0311
G1 X41.477 Y46.031 E19.3621
G1 X42.198 Y43.418 E19.68738
G1 X42.847 Y40.774 E20.01408
G1 X43.141 Y39.408 E20.18175
G1 X43.436 Y38.103 E20.3423
G1 X43.592 Y37.592 E20.40641
G1 X43.828 Y36.985 E20.48457
G1 X44.075 Y36.474 E20.55267
G1 X44.39 Y35.935 E20.62759
G1 X44.762 Y35.401 E20.70569
G0 F3600 X45.081 Y35.644
G1 F1800 X45.489 Y35.16 E20.78165
G1 X46.299 Y34.41 E20.91412
G1 X46.711 Y34.105 E20.97563
G1 X47.255 Y33.766 E21.05255
G1 X47.843 Y33.47 E21.13154
G1 X48.324 Y33.273 E21.19392
G1 X49.42 Y32.974 E21.33024
G1 X50.053 Y32.88 E21.40704
G1 X50.584 Y32.846 E21.47089
G1 X51.138 Y32.853 E21.53737
G1 X51.755 Y32.909 E21.61172
G1 X52.382 Y33.026 E21.68826
G1 X52.885 Y33.16 E21.75072
G1 X53.391 Y33.336 E21.81501
G1 X53.956 Y33.586 E21.88915
G1 X54.717 Y33.978 E21.99187
G1 X56.095 Y34.722 E22.1798
G1 X58.514 Y35.943 E22.50496
G1 X61.025 Y37.121 E22.83779
G1 X63.518 Y38.207 E23.1641
G1 X66.076 Y39.237 E23.49501
G1 X68.634 Y40.179 E23.82212
G1 X71.234 Y41.057 E24.15143
G1 X73.808 Y41.846 E24.4745
G1 X76.485 Y42.586 E24.80779
G1 X79.159 Y43.242 E25.13818
G1 X80.507 Y43.532 E25.30364
G1 X81.801 Y43.824 E25.46283
G1 X82.867 Y44.199 E25.59843
G1 X83.323 Y44.419 E25.65919
G1 X83.861 Y44.733 E25.73394
G1 X84.352 Y45.077 E25.80588
G1 X84.838 Y45.488 E25.88226
G1 X85.59 Y46.299 E26.01498
G1 X85.893 Y46.708 E26.07606
G1 X86.229 Y47.246 E26.15217
G1 X86.526 Y47.832 E26.23101
G1 X86.727 Y48.326 E26.29501
G1 X87.026 Y49.416 E26.43064
G1 X87.12 Y50.059 E26.50862
G1 X87.154 Y50.57 E26.57008
G1 X87.147 Y51.135 E26.63788
G1 X87.091 Y51.755 E26.71259
G1 X86.975 Y52.375 E26.78828
G1 X86.84 Y52.885 E26.85158
G1 X86.658 Y53.405 E26.9177
G1 X86.413 Y53.957 E26.99017
G1 X86.018 Y54.723 E27.09359
G1 X85.286 Y56.079 E27.2785
G1 X84.057 Y58.514 E27.60581
G1 X82.879 Y61.025 E27.93864
G1 X81.793 Y63.518 E28.26496
G1 X80.763 Y66.076 E28.59587
G1 X79.821 Y68.634 E28.92298
G1 X78.943 Y71.234 E29.25229
G1 X78.157 Y73.796 E29.57387
G1 X77.419 Y76.468 E29.90652
G1 X76.765 Y79.133 E30.23581
G1 X76.482 Y80.448 E30.39722
G1 X76.176 Y81.801 E30.56368
G1 X75.801 Y82.867 E30.69928
G1 X75.579 Y83.326 E30.76047
G1 X75.263 Y83.866 E30.83555
G1 X74.921 Y84.354 E30.90706
G1 X74.511 Y84.84 E30.98336
G1 X73.698 Y85.592 E31.11625
G1 X73.291 Y85.893 E31.177
G1 X72.748 Y86.232 E31.25381
G1 X72.157 Y86.53 E31.33324
G1 X71.676 Y86.727 E31.39561
G1 X70.58 Y87.026 E31.53194
G1 X69.947 Y87.12 E31.60873
G1 X69.402 Y87.155 E31.67427
G1 X68.855 Y87.146 E31.73992
G1 X68.245 Y87.091 E31.81341
G1 X67.618 Y86.974 E31.88995
G1 X67.115 Y86.84 E31.95242
G1 X66.609 Y86.664 E32.01671
G1 X66.041 Y86.412 E32.09127
G1 X65.275 Y86.018 E32.19464
G1 X63.921 Y85.286 E32.37934
G1 X61.486 Y84.057 E32.70665
G1 X58.975 Y82.879 E33.03948
G1 X56.482 Y81.793 E33.3658
G1 X53.924 Y80.763 E33.69671
G1 X51.366 Y79.821 E34.02382
G1 X48.766 Y78.943 E34.35313
G1 X46.192 Y78.154 E34.67619
G1 X43.515 Y77.414 E35.00948
G1 X40.841 Y76.758 E35.33988
G1 X39.493 Y76.468 E35.50534
G1 X38.199 Y76.176 E35.66452
G1 X37.133 Y75.801 E35.80012
G1 X36.674 Y75.579 E35.86131
G1 X36.134 Y75.263 E35.93639
G1 X35.643 Y74.918 E36.0084
G1 X35.161 Y74.512 E36.08402
G1 X34.41 Y73.701 E36.21666
G1 X34.105 Y73.289 E36.27818
G1 X33.766 Y72.745 E36.35509
G1 X33.47 Y72.157 E36.43409
G1 X33.273 Y71.675 E36.49657
G1 X32.973 Y70.578 E36.63305
G1 X32.88 Y69.947 E36.70959
G1 X32.846 Y69.418 E36.7732
G1 X32.853 Y68.863 E36.8398
G1 X32.911 Y68.238 E36.91512
G1 X33.022 Y67.638 E36.98835
G1 X33.16 Y67.112 E37.0536
G1 X33.566 Y66.09 E37.18556
G1 X33.981 Y65.277 E37.2951
G1 X34.714 Y63.921 E37.48007
G1 X35.943 Y61.486 E37.80738
G1 X37.121 Y58.975 E38.14021
G1 X38.199 Y56.501 E38.46405
G1 X39.238 Y53.917 E38.79826
G1 X40.183 Y51.354 E39.12606
G1 X41.057 Y48.766 E39.45385
G1 X41.846 Y46.192 E39.77692
G1 X42.586 Y43.515 E40.1102
G1 X43.242 Y40.841 E40.4406
G1 X43.532 Y39.493 E40.60606
G1 X43.826 Y38.191 E40.76623
G1 X44.2 Y37.13 E40.90123
G1 X44.42 Y36.675 E40.96188
G1 X44.735 Y36.136 E41.03679
G1 X45.081 Y35.644 E41.10897
G10
;MESH:bearing_shell_2.stl
G0 F3600 X47.02 Y37.269
G0 X48.006 Y38.089
G0 X48.523 Y40.096
G0 X48.622 Y40.093
;TYPE:WALL-INNER
G11
G1 F1800 X48.713 Y40.647 E41.17634
G1 X48.943 Y41.16 E41.24381
G1 X49.299 Y41.596 E41.31135
G1 X49.755 Y41.925 E41.37883
G1 X50.28 Y42.123 E41.44616
G1 X50.839 Y42.18 E41.51359
G1 X51.393 Y42.089 E41.58096
G1 X51.906 Y41.859 E41.64842
G1 X52.342 Y41.503 E41.71597
G1 X52.671 Y41.047 E41.78344
G1 X52.869 Y40.522 E41.85077
G1 X52.926 Y39.963 E41.9182
G1 X52.835 Y39.409 E41.98557
G1 X52.605 Y38.896 E42.05304
G1 X52.249 Y38.46 E42.12058
G1 X51.793 Y38.131 E42.18806
G1 X51.268 Y37.933 E42.25539
G1 X50.709 Y37.876 E42.32282
G1 X50.155 Y37.967 E42.39019
G1 X49.642 Y38.197 E42.45765
G1 X49.206 Y38.553 E42.5252
G1 X48.877 Y39.009 E42.59267
G1 X48.679 Y39.534 E42.66001
G1 X48.622 Y40.093 E42.72743
G0 F3600 X48.523 Y40.096
G0 X53.207 Y49.44
G0 X53.303 Y49.465
G1 F1800 X53.232 Y50.025 E42.79517
G1 X53.308 Y50.582 E42.86263
G1 X53.527 Y51.101 E42.93023
G1 X53.871 Y51.545 E42.99763
G1 X54.319 Y51.884 E43.06504
G1 X54.838 Y52.098 E43.13241
G1 X55.398 Y52.169 E43.20015
G1 X55.955 Y52.093 E43.26761
G1 X56.474 Y51.874 E43.33521
G1 X56.918 Y51.53 E43.40261
G1 X57.257 Y51.082 E43.47002
G1 X57.471 Y50.563 E43.53739
G1 X57.542 Y50.003 E43.60513
G1 X57.466 Y49.446 E43.67259
G1 X57.247 Y48.927 E43.74018
G1 X56.903 Y48.483 E43.80758
G1 X56.455 Y48.144 E43.875
G1 X55.936 Y47.93 E43.94237
G1 X55.376 Y47.859 E44.01011
G1 X54.819 Y47.935 E44.07757
G1 X54.3 Y48.154 E44.14516
G1 X53.856 Y48.498 E44.21256
G1 X53.517 Y48.946 E44.27998
G1 X53.303 Y49.465 E44.34735
G0 F3600 X53.207 Y49.44
G0 X53.828 Y48.47
G0 X54.579 Y47.994
G0 X59.219 Y46.647
G0 X59.236 Y46.549
G1 F1800 X59.851 Y46.601 E44.42141
G1 X60.439 Y46.607 E44.49197
G1 X61.002 Y46.637 E44.55963
G1 X61.565 Y46.691 E44.6275
G1 X62.137 Y46.771 E44.69681
G1 X62.688 Y46.872 E44.76403
G1 X63.248 Y46.999 E44.83294
G1 X63.801 Y47.149 E44.90169
G1 X64.331 Y47.32 E44.96852
G1 X64.877 Y47.519 E45.03826
G1 X65.394 Y47.733 E45.1054
G1 X65.92 Y47.979 E45.17508
G1 X66.423 Y48.241 E45.24314
G1 X66.917 Y48.523 E45.3114
G1 X67.397 Y48.828 E45.37965
G1 X67.858 Y49.147 E45.44692
G1 X68.312 Y49.491 E45.51527
G1 X68.797 Y49.891 E45.59071
G1 X69.275 Y50.237 E45.66152
G1 X69.845 Y50.513 E45.73752
G1 X70.454 Y50.685 E45.81346
G1 X71.085 Y50.75 E45.88958
G1 X71.717 Y50.702 E45.96564
G1 X72.334 Y50.543 E46.0421
G1 X78.315 Y47.794 E46.832
G1 X78.778 Y47.593 E46.89257
G1 X79.319 Y47.441 E46.96
G1 X79.856 Y47.38 E47.02485
G1 X80.41 Y47.404 E47.0914
G1 X80.944 Y47.517 E47.15689
G1 X81.446 Y47.711 E47.22148
G1 X81.922 Y47.99 E47.28769
G1 X82.343 Y48.341 E47.35346
G1 X82.699 Y48.749 E47.41844
G1 X82.991 Y49.216 E47.48453
G1 X83.203 Y49.725 E47.5507
G1 X83.329 Y50.252 E47.61572
G1 X83.37 Y50.795 E47.68107
G1 X83.323 Y51.34 E47.74671
G1 X83.187 Y51.874 E47.81283
G1 X82.969 Y52.374 E47.87829
G1 X82.676 Y52.832 E47.94353
G1 X82.307 Y53.24 E48.00955
G1 X81.882 Y53.583 E48.07508
G1 X81.39 Y53.861 E48.1429
G1 X75.706 Y56.489 E48.89435
G1 X75.193 Y56.742 E48.96299
G1 X74.686 Y57.096 E49.03719
G1 X74.237 Y57.545 E49.11339
G1 X73.875 Y58.065 E49.18942
G1 X73.62 Y58.612 E49.26185
G1 X73.451 Y59.236 E49.33942
G1 X73.399 Y59.851 E49.41349
G1 X73.393 Y60.439 E49.48405
G1 X73.363 Y60.999 E49.55135
G1 X73.31 Y61.557 E49.61861
G1 X73.229 Y62.135 E49.68865
G1 X73.128 Y62.688 E49.7561
G1 X73.004 Y63.236 E49.82353
G1 X72.853 Y63.793 E49.89278
G1 X72.677 Y64.342 E49.96196
G1 X72.479 Y64.882 E50.03098
G1 X72.25 Y65.431 E50.10236
G1 X72.027 Y65.908 E50.16555
G1 X71.759 Y66.423 E50.23521
G1 X71.486 Y66.902 E50.30138
G1 X71.173 Y67.395 E50.37145
G1 X70.853 Y67.859 E50.43909
G1 X70.515 Y68.306 E50.50634
G1 X70.125 Y68.778 E50.57981
G1 X69.764 Y69.274 E50.65343
G1 X69.487 Y69.845 E50.72958
G1 X69.315 Y70.454 E50.80552
G1 X69.25 Y71.085 E50.88164
G1 X69.298 Y71.717 E50.9577
G1 X69.457 Y72.334 E51.03416
G1 X72.206 Y78.315 E51.82406
G1 X72.407 Y78.778 E51.88463
G1 X72.559 Y79.319 E51.95206
G1 X72.62 Y79.856 E52.01692
G1 X72.596 Y80.41 E52.08346
G1 X72.483 Y80.944 E52.14896
G1 X72.289 Y81.446 E52.21354
G1 X72.01 Y81.922 E52.27975
G1 X71.659 Y82.343 E52.34553
G1 X71.251 Y82.699 E52.4105
G1 X70.784 Y82.991 E52.4766
G1 X70.275 Y83.203 E52.54276
G1 X69.748 Y83.329 E52.60778
G1 X69.205 Y83.37 E52.67313
G1 X68.66 Y83.323 E52.73877
G1 X68.126 Y83.187 E52.8049
G1 X67.626 Y82.969 E52.87035
G1 X67.168 Y82.676 E52.9356
G1 X66.76 Y82.307 E53.00161
G1 X66.417 Y81.882 E53.06715
G1 X66.139 Y81.39 E53.13496
G1 X63.511 Y75.706 E53.88642
G1 X63.258 Y75.193 E53.95506
G1 X62.904 Y74.686 E54.02926
G1 X62.455 Y74.237 E54.10546
G1 X61.935 Y73.875 E54.18149
G1 X61.388 Y73.62 E54.25391
G1 X60.764 Y73.451 E54.33149
G1 X60.149 Y73.399 E54.40555
G1 X59.561 Y73.393 E54.47612
G1 X58.978 Y73.361 E54.54618
G1 X58.405 Y73.305 E54.61527
G1 X57.865 Y73.229 E54.68071
G1 X57.312 Y73.128 E54.74816
G1 X56.752 Y73.001 E54.81707
G1 X56.199 Y72.851 E54.88583
G1 X55.669 Y72.68 E54.95266
G1 X55.121 Y72.48 E55.02266
G1 X54.606 Y72.267 E55.08954
G1 X54.08 Y72.021 E55.15922
G1 X53.577 Y71.759 E55.22728
G1 X53.083 Y71.477 E55.29554
G1 X52.603 Y71.172 E55.36378
G1 X52.142 Y70.853 E55.43105
G1 X51.675 Y70.499 E55.50137
G1 X51.222 Y70.125 E55.57187
G1 X50.726 Y69.764 E55.64548
G1 X50.155 Y69.487 E55.72164
G1 X49.546 Y69.315 E55.79758
G1 X48.915 Y69.25 E55.8737
G1 X48.283 Y69.298 E55.94976
G1 X47.666 Y69.457 E56.02622
G1 X41.685 Y72.206 E56.81612
G1 X41.222 Y72.407 E56.87669
G1 X40.681 Y72.559 E56.94412
G1 X40.144 Y72.62 E57.00897
G1 X39.59 Y72.596 E57.07552
G1 X39.056 Y72.483 E57.14102
G1 X38.554 Y72.289 E57.2056
G1 X38.078 Y72.01 E57.27181
G1 X37.657 Y71.659 E57.33758
G1 X37.301 Y71.251 E57.40256
G1 X37.009 Y70.784 E57.46865
G1 X36.797 Y70.275 E57.53482
G1 X36.671 Y69.748 E57.59984
G1 X36.63 Y69.203 E57.66542
G1 X36.677 Y68.66 E57.73083
G1 X36.813 Y68.126 E57.79695
G1 X37.031 Y67.626 E57.86241
G1 X37.324 Y67.168 E57.92765
G1 X37.693 Y66.76 E57.99367
G1 X38.118 Y66.417 E58.0592
G1 X38.61 Y66.139 E58.12702
G1 X44.294 Y63.511 E58.87847
G1 X44.807 Y63.258 E58.94711
G1 X45.314 Y62.904 E59.02131
G1 X45.763 Y62.455 E59.09751
G1 X46.125 Y61.935 E59.17354
G1 X46.38 Y61.388 E59.24597
G1 X46.549 Y60.764 E59.32354
G1 X46.601 Y60.149 E59.39761
G1 X46.607 Y59.561 E59.46817
G1 X46.637 Y59.001 E59.53547
G1 X46.69 Y58.443 E59.60273
G1 X46.771 Y57.862 E59.67312
G1 X46.872 Y57.312 E59.74023
G1 X46.996 Y56.764 E59.80765
G1 X47.147 Y56.207 E59.8769
G1 X47.318 Y55.673 E59.94419
G1 X47.519 Y55.123 E60.01446
G1 X47.733 Y54.606 E60.0816
G1 X47.982 Y54.074 E60.15209
G1 X48.241 Y53.577 E60.21934
G1 X48.514 Y53.098 E60.2855
G1 X48.828 Y52.603 E60.35584
G1 X49.147 Y52.141 E60.42322
G1 X49.485 Y51.694 E60.49046
G1 X49.875 Y51.222 E60.56394
G1 X50.236 Y50.726 E60.63755
G1 X50.513 Y50.155 E60.71371
G1 X50.685 Y49.546 E60.78965
G1 X50.75 Y48.915 E60.86577
G1 X50.702 Y48.283 E60.94183
G1 X50.543 Y47.666 E61.01829
G1 X47.794 Y41.685 E61.80819
G1 X47.593 Y41.222 E61.86876
G1 X47.441 Y40.681 E61.93619
G1 X47.38 Y40.144 E62.00104
G1 X47.404 Y39.59 E62.06759
G1 X47.517 Y39.056 E62.13309
G1 X47.712 Y38.553 E62.19782
G1 X47.99 Y38.078 E62.26387
G1 X48.341 Y37.657 E62.32964
G1 X48.749 Y37.301 E62.39462
G1 X49.216 Y37.009 E62.46071
G1 X49.725 Y36.797 E62.52688
G1 X50.252 Y36.671 E62.5919
G1 X50.795 Y36.63 E62.65725
G1 X51.34 Y36.677 E62.72289
G1 X51.874 Y36.813 E62.78902
G1 X52.374 Y37.031 E62.85447
G1 X52.832 Y37.324 E62.91972
G1 X53.24 Y37.693 E62.98573
G1 X53.584 Y38.118 E63.05134
G1 X53.859 Y38.605 E63.11846
G1 X56.489 Y44.294 E63.87056
G1 X56.742 Y44.807 E63.9392
G1 X57.096 Y45.314 E64.0134
G1 X57.545 Y45.763 E64.0896
G1 X58.065 Y46.125 E64.16563
G1 X58.612 Y46.38 E64.23805
G1 X59.236 Y46.549 E64.31563
G0 F3600 X59.219 Y46.647
G0 X67.806 Y54.813
G0 X67.902 Y54.838
G1 F1800 X67.831 Y55.398 E64.38337
G1 X67.907 Y55.955 E64.45082
G1 X68.126 Y56.474 E64.51842
G1 X68.47 Y56.918 E64.58582
G1 X68.918 Y57.257 E64.65324
G1 X69.437 Y57.471 E64.72061
G1 X69.997 Y57.542 E64.78834
G1 X70.554 Y57.466 E64.8558
G1 X71.073 Y57.247 E64.9234
G1 X71.517 Y56.903 E64.9908
G1 X71.856 Y56.455 E65.05822
