;FLAVOR:UltiGCode
;TIME:1985
;MATERIAL:2431
;MATERIAL2:0
;NOZZLE_DIAMETER:0.4
;MINX:27.644
;MINY:29.13
;MINZ:0.3
;MAXX:92.368
;MAXY:90.879
;MAXZ:7.3
;Generated with Cura_SteamEngine 4.5.0
M82 ;absolute extrusion mode

G92 E0
G92 E0
G10
;LAYER_COUNT:71
;LAYER:0
M107
G0 F3600 X30.088 Y30.166 Z0.3
;TYPE:SKIRT
G11
G1 F1800 X30.497 Y29.819 E0.06436
G1 X30.952 Y29.536 E0.12866
G1 X31.445 Y29.324 E0.19306
G1 X31.964 Y29.188 E0.25744
G1 X32.497 Y29.13 E0.32178
G1 X33.174 Y29.171 E0.40317
G1 X34.061 Y29.31 E0.51091
G1 X44.794 Y31.203 E1.81875
G1 X45.515 Y31.339 E1.90679
G1 X46.033 Y31.478 E1.97115
G1 X47.581 Y32.19 E2.17562
G1 X50.136 Y33.358 E2.51274
G1 X52.607 Y34.406 E2.83482
G1 X55.181 Y35.412 E3.16646
G1 X57.718 Y36.32 E3.48981
G1 X60.484 Y37.224 E3.83901
G1 X60.98 Y37.428 E3.90336
G1 X61.495 Y37.728 E3.97488
G1 X67.478 Y41.659 E4.83395
G1 X68.06 Y42.055 E4.91842
G1 X68.48 Y42.388 E4.98274
G1 X71.388 Y45.615 E5.50401
G1 X73.284 Y47.606 E5.83394
G1 X75.222 Y49.525 E6.16122
G1 X77.195 Y51.375 E6.48578
G1 X79.465 Y53.376 E6.8489
G1 X79.839 Y53.759 E6.91314
G1 X80.188 Y54.23 E6.98348
G1 X84.104 Y60.174 E7.83765
G1 X84.508 Y60.804 E7.92746
G1 X84.762 Y61.276 E7.99178
G1 X85.334 Y62.954 E8.20451
G1 X85.997 Y64.925 E8.45406
G1 X86.923 Y67.467 E8.77871
G1 X87.925 Y69.999 E9.10547
G1 X89.01 Y72.524 E9.43526
G1 X90.116 Y74.912 E9.75106
G1 X90.51 Y75.746 E9.86175
G1 X90.702 Y76.247 E9.92613
G1 X90.91 Y77.217 E10.04518
G1 X92.154 Y84.275 E10.90519
G1 X92.319 Y85.261 E11.02516
G1 X92.368 Y85.795 E11.08951
G1 X92.336 Y86.33 E11.15382
G1 X92.226 Y86.855 E11.21819
G1 X92.039 Y87.357 E11.28248
G1 X91.779 Y87.827 E11.34693
G1 X91.452 Y88.252 E11.41128
G1 X91.066 Y88.624 E11.47561
G1 X90.629 Y88.935 E11.53997
G1 X90.151 Y89.177 E11.60427
G1 X89.521 Y89.373 E11.68344
G1 X88.939 Y89.489 E11.75465
G1 X82.208 Y90.675 E12.57482
G1 X81.278 Y90.83 E12.68795
G1 X80.743 Y90.879 E12.75242
G1 X80.208 Y90.847 E12.81674
G1 X79.683 Y90.736 E12.88113
G1 X79.181 Y90.549 E12.94541
G1 X78.712 Y90.289 E13.00976
G1 X78.287 Y89.962 E13.07411
G1 X77.915 Y89.576 E13.13844
G1 X77.509 Y88.971 E13.22588
G1 X77.254 Y88.492 E13.29099
G1 X76.482 Y86.992 E13.49343
G1 X75.167 Y84.603 E13.82067
G1 X73.786 Y82.258 E14.14725
G1 X72.337 Y79.945 E14.47477
G1 X70.831 Y77.69 E14.80017
G1 X69.238 Y75.441 E15.13089
G1 X67.613 Y73.282 E15.45516
G1 X65.906 Y71.141 E15.78374
G1 X64.148 Y69.06 E16.11064
G1 X62.35 Y67.05 E16.43426
G1 X60.441 Y65.033 E16.76752
G1 X58.529 Y63.126 E17.09157
G1 X56.533 Y61.242 E17.42094
G1 X54.533 Y59.461 E17.74231
G1 X52.404 Y57.67 E18.07616
G1 X50.281 Y55.982 E18.40164
G1 X48.114 Y54.359 E18.72652
G1 X45.89 Y52.788 E19.05327
G1 X43.613 Y51.276 E19.38127
G1 X41.289 Y49.825 E19.71004
G1 X38.932 Y48.445 E20.03779
G1 X36.543 Y47.134 E20.3648
G1 X34.157 Y45.912 E20.68649
G1 X30.507 Y44.198 E21.17038
G1 X29.778 Y43.874 E21.26611
G1 X29.306 Y43.621 E21.33037
G1 X28.876 Y43.299 E21.39484
G1 X28.499 Y42.918 E21.45916
G1 X28.183 Y42.485 E21.52348
G1 X27.935 Y42.009 E21.58789
G1 X27.76 Y41.503 E21.65214
G1 X27.662 Y40.975 E21.71658
G1 X27.644 Y40.439 E21.78094
G1 X27.833 Y39.075 E21.94618
G1 X28.973 Y32.603 E22.73478
G1 X29.086 Y32.029 E22.80498
G1 X29.229 Y31.512 E22.86935
G1 X29.447 Y31.022 E22.93371
G1 X29.735 Y30.57 E22.99802
G1 X30.088 Y30.166 E23.0624
G0 F3600 X30.453 Y30.371
G1 F1800 X30.851 Y30.059 E23.12309
G1 X31.294 Y29.815 E23.18378
G1 X31.769 Y29.642 E23.24444
G1 X32.265 Y29.547 E23.30504
G1 X32.771 Y29.532 E23.36579
G1 X33.999 Y29.706 E23.51462
G1 X44.725 Y31.597 E24.82159
G1 X45.44 Y31.732 E24.9089
G1 X45.928 Y31.865 E24.9696
G1 X47.415 Y32.553 E25.16621
G1 X49.963 Y33.719 E25.50247
G1 X52.454 Y34.775 E25.82714
G1 X55.037 Y35.784 E26.15991
G1 X57.596 Y36.701 E26.48611
G1 X60.36 Y37.604 E26.83504
G1 X61.029 Y37.912 E26.92342
G1 X67.258 Y41.993 E27.81704
G1 X67.835 Y42.385 E27.90075
G1 X68.229 Y42.702 E27.96143
G1 X71.102 Y45.895 E28.47686
G1 X72.996 Y47.883 E28.80636
G1 X74.905 Y49.775 E29.12889
G1 X76.956 Y51.698 E29.46627
G1 X79.2 Y53.676 E29.82522
G1 X79.693 Y54.223 E29.91359
G1 X80.025 Y54.702 E29.98353
G1 X83.77 Y60.394 E30.80115
G1 X84.171 Y61.02 E30.89036
G1 X84.409 Y61.466 E30.95102
G1 X85.608 Y65.027 E31.40191
G1 X86.546 Y67.603 E31.73089
G1 X87.562 Y70.167 E32.06185
G1 X88.638 Y72.671 E32.38889
G1 X89.754 Y75.083 E32.70781
G1 X90.148 Y75.917 E32.8185
G1 X90.328 Y76.39 E32.87923
G1 X90.518 Y77.294 E32.99008
G1 X91.76 Y84.345 E33.84923
G1 X91.924 Y85.326 E33.96858
G1 X91.968 Y85.83 E34.02929
G1 X91.932 Y86.334 E34.08992
G1 X91.816 Y86.827 E34.1507
G1 X91.625 Y87.295 E34.21136
G1 X91.362 Y87.726 E34.27195
G1 X91.035 Y88.112 E34.33265
G1 X90.651 Y88.441 E34.39333
G1 X90.22 Y88.705 E34.45398
G1 X89.752 Y88.898 E34.51473
G1 X89.222 Y89.028 E34.58022
G1 X82.138 Y90.281 E35.44349
G1 X81.212 Y90.436 E35.55616
G1 X80.708 Y90.479 E35.61686
G1 X80.204 Y90.442 E35.6775
G1 X79.712 Y90.327 E35.73813
G1 X79.244 Y90.135 E35.79883
G1 X78.812 Y89.872 E35.85953
G1 X78.427 Y89.545 E35.92014
G1 X78.098 Y89.16 E35.98091
G1 X77.607 Y88.304 E36.09933
G1 X76.838 Y86.81 E36.30097
G1 X75.519 Y84.413 E36.62928
G1 X74.136 Y82.065 E36.95628
G1 X72.681 Y79.741 E37.28531
G1 X71.141 Y77.434 E37.61816
G1 X69.572 Y75.22 E37.94379
G1 X67.925 Y73.032 E38.27243
G1 X66.226 Y70.901 E38.59947
G1 X64.45 Y68.799 E38.92969
G1 X62.621 Y66.754 E39.25892
G1 X60.749 Y64.776 E39.58573
G1 X58.785 Y62.817 E39.91861
G1 X56.827 Y60.969 E40.24169
G1 X54.753 Y59.122 E40.57496
G1 X52.687 Y57.384 E40.89894
G1 X50.541 Y55.678 E41.22792
G1 X48.338 Y54.027 E41.55828
G1 X46.119 Y52.461 E41.88419
G1 X43.8 Y50.92 E42.21831
G1 X41.523 Y49.498 E42.54045
G1 X39.12 Y48.092 E42.87454
G1 X36.738 Y46.785 E43.20059
G1 X34.33 Y45.551 E43.52528
G1 X30.69 Y43.842 E44.00783
G1 X29.941 Y43.509 E44.10619
G1 X29.496 Y43.268 E44.16692
G1 X29.096 Y42.959 E44.22757
G1 X28.748 Y42.592 E44.28826
G1 X28.464 Y42.174 E44.34891
G1 X28.248 Y41.717 E44.40956
G1 X28.107 Y41.231 E44.47029
G1 X28.044 Y40.73 E44.53088
G1 X28.079 Y40.091 E44.60768
G1 X28.228 Y39.137 E44.72354
G1 X29.367 Y32.673 E45.51117
G1 X29.478 Y32.106 E45.58051
G1 X29.615 Y31.62 E45.6411
G1 X29.827 Y31.161 E45.70177
G1 X30.109 Y30.741 E45.76248
G1 X30.453 Y30.371 E45.8231
G10
;MESH:shell_5.stl
G0 F3600 X31.847 Y33.201
G0 X33.107 Y33.421
G0 X38.928 Y39.327
G0 X39.807 Y39.733
G0 X40.705 Y39.838
G0 X40.688 Y39.74
;TYPE:WALL-INNER
G11
G1 F1800 X41.269 Y39.545 E45.89664
G1 X41.772 Y39.197 E45.97004
G1 X42.158 Y38.718 E46.04386
G1 X42.392 Y38.153 E46.11725
G1 X42.457 Y37.544 E46.19074
G1 X42.348 Y36.94 E46.26439
G1 X42.074 Y36.392 E46.33791
G1 X41.657 Y35.944 E46.41136
G1 X41.129 Y35.631 E46.48502
G1 X40.536 Y35.479 E46.55848
G1 X39.922 Y35.501 E46.6322
G1 X39.341 Y35.695 E46.70571
G1 X38.838 Y36.044 E46.77917
G1 X38.452 Y36.522 E46.8529
G1 X38.218 Y37.088 E46.9264
G1 X38.153 Y37.696 E46.99977
G1 X38.262 Y38.301 E47.07354
G1 X38.536 Y38.847 E47.14685
G1 X38.953 Y39.296 E47.22038
G1 X39.481 Y39.61 E47.2941
G1 X40.074 Y39.762 E47.36756
G1 X40.688 Y39.74 E47.44129
G0 F3600 X40.705 Y39.838
G0 X43.719 Y37.683
G0 X43.818 Y37.677
G1 F1800 X43.947 Y38.319 E47.51987
G1 X44.208 Y38.88 E47.59411
G1 X44.608 Y39.375 E47.67048
G1 X45.113 Y39.756 E47.7464
G1 X45.657 Y39.989 E47.81741
G1 X46.901 Y40.364 E47.97333
G1 X48.118 Y40.764 E48.12705
G1 X49.333 Y41.195 E48.28176
G1 X50.528 Y41.654 E48.43537
G1 X51.726 Y42.146 E48.59078
G1 X52.89 Y42.656 E48.74328
G1 X54.063 Y43.206 E48.89875
G1 X55.246 Y43.794 E49.05727
G1 X55.826 Y44.011 E49.13159
G1 X56.469 Y44.08 E49.20919
G1 X57.086 Y43.997 E49.2839
G1 X57.677 Y43.761 E49.36026
G1 X58.192 Y43.39 E49.43643
G1 X58.576 Y42.936 E49.50778
G1 X59.542 Y41.467 E49.71876
G1 X65.057 Y45.094 E50.51085
G1 X65.224 Y45.203 E50.53479
G1 X65.115 Y45.37 E50.55024
G1 X64.286 Y46.629 E50.73113
G1 X63.995 Y47.203 E50.80835
G1 X63.856 Y47.841 E50.88671
G1 X63.875 Y48.461 E50.96115
G1 X64.045 Y49.073 E51.03737
G1 X64.359 Y49.623 E51.11337
G1 X64.766 Y50.052 E51.18433
G1 X65.752 Y50.885 E51.33922
G1 X66.717 Y51.74 E51.49393
G1 X67.655 Y52.612 E51.64762
G1 X68.583 Y53.516 E51.80308
G1 X69.478 Y54.432 E51.95676
G1 X70.35 Y55.366 E52.1101
G1 X71.211 Y56.34 E52.2661
G1 X72.063 Y57.346 E52.42429
G1 X72.508 Y57.775 E52.49847
G1 X73.073 Y58.092 E52.57621
G1 X73.673 Y58.259 E52.65095
G1 X74.308 Y58.277 E52.72718
G1 X74.927 Y58.141 E52.80323
G1 X75.46 Y57.877 E52.8746
G1 X76.93 Y56.91 E53.08575
G1 X80.558 Y62.425 E53.87791
G1 X80.667 Y62.592 E53.90184
G1 X80.5 Y62.701 E53.91729
G1 X79.241 Y63.529 E54.09812
G1 X78.745 Y63.94 E54.17542
G1 X78.365 Y64.472 E54.25387
G1 X78.137 Y65.048 E54.32821
G1 X78.052 Y65.676 E54.40425
G1 X78.121 Y66.307 E54.48043
G1 X78.325 Y66.862 E54.55138
G1 X78.901 Y68.017 E54.70626
G1 X79.448 Y69.181 E54.8606
G1 X79.965 Y70.356 E55.01464
G1 X80.454 Y71.544 E55.16881
G1 X80.916 Y72.75 E55.32378
G1 X81.351 Y73.965 E55.47864
G1 X81.752 Y75.181 E55.63229
G1 X82.136 Y76.45 E55.79139
G1 X82.384 Y77.031 E55.8672
G1 X82.77 Y77.536 E55.94347
G1 X83.255 Y77.926 E56.01816
G1 X83.83 Y78.193 E56.09423
G1 X84.451 Y78.313 E56.17013
G1 X85.046 Y78.282 E56.24163
G1 X86.778 Y77.977 E56.45267
G1 X88.049 Y85.18 E57.33038
G1 X88.083 Y85.376 E57.35425
G1 X87.887 Y85.41 E57.36965
G1 X81.431 Y86.549 E58.15634
G1 X81.218 Y86.586 E58.18228
G1 X81.199 Y86.37 E58.19872
G1 X81.166 Y86.017 E58.24127
G1 X81.02 Y84.77 E58.39193
G1 X80.843 Y83.526 E58.54271
G1 X80.634 Y82.287 E58.69349
G1 X80.395 Y81.054 E58.84421
G1 X80.126 Y79.826 E58.99506
G1 X79.826 Y78.607 E59.14571
G1 X79.496 Y77.394 E59.29656
G1 X79.135 Y76.188 E59.44762
G1 X78.745 Y74.995 E59.59824
G1 X78.326 Y73.811 E59.74895
G1 X77.877 Y72.637 E59.89978
G1 X77.4 Y71.476 E60.0504
G1 X76.893 Y70.325 E60.20133
G1 X76.358 Y69.188 E60.35212
G1 X75.795 Y68.065 E60.50287
G1 X75.204 Y66.957 E60.65356
G1 X74.587 Y65.861 E60.80449
G1 X73.941 Y64.783 E60.9553
G1 X73.27 Y63.722 E61.10594
G1 X72.572 Y62.677 E61.25674
G1 X71.849 Y61.65 E61.40746
G1 X71.1 Y60.64 E61.55835
G1 X70.327 Y59.65 E61.70907
G1 X69.529 Y58.679 E61.85989
G1 X68.707 Y57.729 E62.01064
G1 X67.862 Y56.799 E62.16143
G1 X66.995 Y55.89 E62.31217
G1 X66.104 Y55.004 E62.46295
G1 X65.193 Y54.139 E62.6137
G1 X64.259 Y53.298 E62.76452
G1 X63.305 Y52.48 E62.91533
G1 X62.331 Y51.685 E63.0662
G1 X61.338 Y50.916 E63.21691
G1 X60.327 Y50.171 E63.36761
G1 X59.296 Y49.452 E63.51845
G1 X58.248 Y48.759 E63.66921
G1 X57.184 Y48.091 E63.81997
G1 X56.103 Y47.45 E63.97078
G1 X55.007 Y46.836 E64.12153
G1 X53.895 Y46.25 E64.27237
G1 X52.77 Y45.691 E64.42312
G1 X51.63 Y45.161 E64.57398
G1 X50.478 Y44.659 E64.72477
G1 X49.315 Y44.187 E64.87539
G1 X48.139 Y43.742 E65.02627
G1 X46.953 Y43.326 E65.1771
G1 X45.757 Y42.942 E65.32783
G1 X44.551 Y42.586 E65.47873
G1 X43.338 Y42.261 E65.62942
G1 X42.117 Y41.966 E65.78016
G1 X40.89 Y41.701 E65.93079
G1 X39.632 Y41.462 E66.08445
G1 X31.916 Y40.102 E67.02464
G1 X33.062 Y33.601 E67.81679
G1 X33.096 Y33.405 E67.84066
G1 X33.292 Y33.439 E67.85606
G1 X44.157 Y35.354 E69.17996
G1 X43.861 Y37.035 E69.38478
G1 X43.818 Y37.677 E69.462
G0 F3600 X43.719 Y37.683
G0 X44.175 Y38.901
G0 X45.093 Y39.79
G0 X55.817 Y44.049
G0 X58.992 Y44.529
G0 X59.809 Y43.798
G0 X61.024 Y43.578
G0 X62.166 Y44.051
G0 X62.869 Y45.066
G0 X62.973 Y46.315
G0 X62.877 Y46.291
G1 F1800 X62.941 Y45.681 E69.5356
G1 X62.832 Y45.078 E69.60913
G1 X62.558 Y44.53 E69.68265
G1 X62.141 Y44.082 E69.7561
G1 X61.613 Y43.769 E69.82975
G1 X61.02 Y43.617 E69.90321
G1 X60.407 Y43.639 E69.97682
G1 X59.826 Y43.833 E70.05033
G1 X59.322 Y44.182 E70.12389
G1 X58.937 Y44.66 E70.19754
G1 X58.702 Y45.226 E70.27108
G1 X58.637 Y45.835 E70.34458
G1 X58.747 Y46.439 E70.41825
G1 X59.021 Y46.985 E70.49156
G1 X59.437 Y47.434 E70.56501
G1 X59.966 Y47.748 E70.63883
G1 X60.559 Y47.9 E70.71229
G1 X61.172 Y47.878 E70.7859
G1 X61.753 Y47.683 E70.85944
G1 X62.257 Y47.335 E70.93294
G1 X62.642 Y46.856 E71.00668
G1 X62.877 Y46.291 E71.08011
G0 F3600 X62.973 Y46.315
G0 X64.009 Y49.088
G0 X72.485 Y57.807
G0 X77.214 Y59.319
G0 X78.176 Y60.094
G0 X78.517 Y60.999
G0 X78.559 Y61.901
G0 X78.463 Y61.877
G1 F1800 X78.527 Y61.267 E71.15372
G1 X78.418 Y60.664 E71.22725
G1 X78.144 Y60.116 E71.30077
G1 X77.727 Y59.668 E71.37421
G1 X77.199 Y59.355 E71.44787
G1 X76.606 Y59.203 E71.52133
G1 X75.993 Y59.225 E71.59494
G1 X75.411 Y59.419 E71.66856
G1 X74.908 Y59.768 E71.74202
G1 X74.522 Y60.246 E71.81575
G1 X74.288 Y60.812 E71.88925
G1 X74.223 Y61.42 E71.96262
G1 X74.332 Y62.025 E72.03639
G1 X74.606 Y62.571 E72.1097
G1 X75.023 Y63.021 E72.18332
G1 X75.552 Y63.333 E72.25702
G1 X76.145 Y63.485 E72.33048
G1 X76.758 Y63.463 E72.40408
G1 X77.339 Y63.269 E72.47759
G1 X77.842 Y62.921 E72.55099
G1 X78.227 Y62.442 E72.62473
G1 X78.463 Y61.877 E72.69821
G0 F3600 X78.559 Y61.901
G0 X78.013 Y65.676
G0 X82.35 Y77.051
G0 X84.114 Y79.611
G0 X84.131 Y79.709
G1 F1800 X83.549 Y79.904 E72.77186
G1 X83.046 Y80.252 E72.84526
G1 X82.66 Y80.731 E72.91908
G1 X82.426 Y81.296 E72.99247
G1 X82.361 Y81.905 E73.06596
G1 X82.47 Y82.509 E73.13961
G1 X82.744 Y83.057 E73.21314
G1 X83.161 Y83.505 E73.28658
G1 X83.689 Y83.818 E73.36024
G1 X84.283 Y83.97 E73.43381
G1 X84.896 Y83.948 E73.50742
G1 X85.477 Y83.754 E73.58092
G1 X85.98 Y83.405 E73.65439
G1 X86.366 Y82.927 E73.72812
G1 X86.6 Y82.361 E73.80161
G1 X86.665 Y81.753 E73.87499
G1 X86.556 Y81.148 E73.94876
G1 X86.282 Y80.602 E74.02207
G1 X85.865 Y80.153 E74.0956
G1 X85.337 Y79.839 E74.16932
G1 X84.744 Y79.687 E74.24278
G1 X84.131 Y79.709 E74.31638
G0 F3600 X84.114 Y79.611
G0 X85.352 Y79.803
G0 X86.232 Y80.492
G0 X86.665 Y81.189
G0 X86.173 Y81.276
;TYPE:WALL-OUTER
G1 F1800 X85.95 Y80.832 E74.37601
G1 X85.611 Y80.467 E74.43578
G1 X85.182 Y80.212 E74.49567
G1 X84.701 Y80.089 E74.55525
G1 X84.203 Y80.107 E74.61505
G1 X83.73 Y80.265 E74.67489
G1 X83.321 Y80.548 E74.73457
G1 X83.008 Y80.937 E74.79449
G1 X82.818 Y81.396 E74.8541
G1 X82.765 Y81.891 E74.91384
G1 X82.853 Y82.381 E74.97358
G1 X83.076 Y82.826 E75.03331
G1 X83.415 Y83.19 E75.093
G1 X83.844 Y83.445 E75.15289
G1 X84.326 Y83.568 E75.21258
G1 X84.824 Y83.55 E75.27238
G1 X85.296 Y83.393 E75.33207
G1 X85.705 Y83.109 E75.39182
G1 X86.018 Y82.721 E75.45165
G1 X86.208 Y82.261 E75.51137
G1 X86.261 Y81.767 E75.57099
G1 X86.173 Y81.276 E75.63085
G0 F3600 X86.084 Y81.097
G0 X86.53 Y80.875
G0 X84.449 Y78.352
G0 X83.234 Y77.959
G0 X82.35 Y77.051
G0 X78.083 Y66.316
G0 X78.568 Y61.829
G0 X78.071 Y61.777
G1 F1800 X78.123 Y61.282 E75.69057
G1 X78.035 Y60.792 E75.75032
G1 X77.812 Y60.347 E75.81005
G1 X77.473 Y59.983 E75.86973
G1 X77.044 Y59.728 E75.92962
G1 X76.563 Y59.605 E75.9892
G1 X76.065 Y59.623 E76.049
G1 X75.592 Y59.78 E76.1088
G1 X75.183 Y60.064 E76.16856
G1 X74.87 Y60.452 E76.22838
G1 X74.68 Y60.912 E76.2881
G1 X74.627 Y61.406 E76.34772
G1 X74.715 Y61.897 E76.40758
G1 X74.938 Y62.341 E76.4672
G1 X75.277 Y62.706 E76.52698
G1 X75.706 Y62.96 E76.58681
G1 X76.188 Y63.083 E76.6465
G1 X76.686 Y63.065 E76.7063
G1 X77.158 Y62.908 E76.76599
G1 X77.567 Y62.625 E76.82567
G1 X77.88 Y62.236 E76.88559
G1 X78.071 Y61.777 E76.94525
G0 F3600 X78.091 Y61.578
G0 X78.588 Y61.63
G0 X78.455 Y60.652
G0 X77.752 Y59.637
G0 X73.058 Y58.128
G0 X64.327 Y49.646
G0 X62.371 Y47.352
G0 X61.982 Y47.039
G1 F1800 X62.294 Y46.65 E77.00509
G1 X62.485 Y46.191 E77.06474
G1 X62.537 Y45.696 E77.12447
G1 X62.449 Y45.206 E77.18421
G1 X62.226 Y44.761 E77.24394
G1 X61.887 Y44.397 E77.30363
G1 X61.458 Y44.142 E77.36352
G1 X60.977 Y44.019 E77.4231
G1 X60.479 Y44.037 E77.4829
G1 X60.007 Y44.194 E77.54259
G1 X59.597 Y44.478 E77.60244
G1 X59.285 Y44.866 E77.66218
G1 X59.094 Y45.326 E77.72195
G1 X59.041 Y45.82 E77.78157
G1 X59.13 Y46.311 E77.84145
G1 X59.353 Y46.755 E77.90107
G1 X59.691 Y47.12 E77.96077
G1 X60.121 Y47.375 E78.02076
G1 X60.602 Y47.498 E78.08034
G1 X61.1 Y47.48 E78.14014
G1 X61.572 Y47.322 E78.19987
G1 X61.982 Y47.039 E78.25965
G0 F3600 X62.107 Y46.883
G0 X62.496 Y47.196
G0 X61.77 Y47.718
G0 X60.555 Y47.939
G0 X45.093 Y39.79
G0 X44.175 Y38.901
G0 X43.723 Y37.618
G0 X44.221 Y37.651
G1 F1800 X44.33 Y38.194 E78.32611
G1 X44.55 Y38.667 E78.38871
G1 X44.888 Y39.085 E78.45322
G1 X45.315 Y39.407 E78.51739
G1 X45.794 Y39.612 E78.57991
G1 X47.017 Y39.981 E78.73321
G1 X48.252 Y40.387 E78.88921
