;FLAVOR:UltiGCode
;TIME:2985
;MATERIAL:5678
;MATERIAL2:0
;NOZZLE_DIAMETER:0.4
;MINX:36.4
;MINY:36.4
;MINZ:0.3
;MAXX:83.6
;MAXY:83.6
;MAXZ:19.95
;Generated with Cura_SteamEngine 4.7.0
M82 ;absolute extrusion mode
G0 F3000 Y50 ;avoid prime blob
G92 E0
G92 E0
G10
;LAYER_COUNT:132
;LAYER:0
M107
G0 F3600 X37.998 Y38.106 Z0.3
;TYPE:SKIRT
G11
G1 F1800 X38.466 Y37.683 E0.0757
G1 X38.793 Y37.436 E0.12488
G1 X39.433 Y37.05 E0.21456
G1 X39.844 Y36.857 E0.26905
G1 X40.345 Y36.666 E0.33339
G1 X41.198 Y36.49 E0.43791
G1 X41.886 Y36.413 E0.52098
G1 X42.294 Y36.402 E0.56996
G1 X77.343 Y36.4 E4.77584
G1 X78.04 Y36.41 E4.85949
G1 X78.547 Y36.444 E4.92047
G1 X78.79 Y36.473 E4.94983
G1 X79.407 Y36.603 E5.0255
G1 X79.823 Y36.729 E5.07766
G1 X80.523 Y37.025 E5.16886
G1 X80.913 Y37.241 E5.22236
G1 X81.5 Y37.646 E5.30794
G1 X81.89 Y37.994 E5.37066
G1 X82.317 Y38.466 E5.44704
G1 X82.564 Y38.793 E5.49621
G1 X82.948 Y39.43 E5.58547
G1 X83.141 Y39.84 E5.63985
G1 X83.333 Y40.341 E5.70423
G1 X83.509 Y41.19 E5.80828
G1 X83.588 Y41.886 E5.89233
G1 X83.6 Y42.405 E5.95463
G1 X83.6 Y77.32 E10.14443
G1 X83.59 Y78.04 E10.23084
G1 X83.529 Y78.772 E10.31898
G1 X83.398 Y79.403 E10.39632
G1 X83.272 Y79.819 E10.44848
G1 X82.977 Y80.517 E10.53941
G1 X82.758 Y80.913 E10.59371
G1 X82.355 Y81.498 E10.67896
G1 X82.006 Y81.89 E10.74194
G1 X81.534 Y82.317 E10.81832
G1 X81.207 Y82.564 E10.86749
G1 X80.57 Y82.948 E10.95675
G1 X80.177 Y83.133 E11.00887
G1 X79.463 Y83.382 E11.09961
G1 X79.022 Y83.485 E11.15396
G1 X78.406 Y83.573 E11.22863
G1 X77.89 Y83.593 E11.2906
G1 X77.811 Y83.595 E11.30008
G1 X77.218 Y83.6 E11.37124
G1 X42.654 Y83.6 E15.51892
G1 X41.957 Y83.59 E15.60257
G1 X41.217 Y83.527 E15.69169
G1 X40.597 Y83.398 E15.76768
G1 X40.18 Y83.272 E15.81996
G1 X39.474 Y82.974 E15.91192
G1 X39.083 Y82.757 E15.96558
G1 X38.501 Y82.354 E16.05053
G1 X38.108 Y82.004 E16.11368
G1 X37.678 Y81.527 E16.19074
G1 X37.432 Y81.2 E16.23985
G1 X37.052 Y80.569 E16.32824
G1 X36.859 Y80.159 E16.38262
G1 X36.667 Y79.658 E16.447
G1 X36.492 Y78.811 E16.55079
G1 X36.412 Y78.106 E16.63593
G1 X36.401 Y77.7 E16.68467
G1 X36.4 Y42.644 E20.89139
G1 X36.41 Y41.951 E20.97456
G1 X36.472 Y41.218 E21.06283
G1 X36.603 Y40.59 E21.13981
G1 X36.729 Y40.175 E21.19186
G1 X37.025 Y39.477 E21.28284
G1 X37.241 Y39.087 E21.33634
G1 X37.649 Y38.497 E21.42242
G1 X37.998 Y38.106 E21.48531
G0 F3600 X38.291 Y38.379
G1 F1800 X38.707 Y38.003 E21.5526
G1 X39.034 Y37.756 E21.60177
G1 X39.603 Y37.412 E21.68156
G1 X40.014 Y37.219 E21.73605
G1 X40.487 Y37.041 E21.79669
G1 X41.268 Y36.884 E21.89229
G1 X41.898 Y36.812 E21.96838
G1 X42.294 Y36.802 E22.01592
G1 X77.337 Y36.8 E26.22108
G1 X78.034 Y36.81 E26.30473
G1 X78.742 Y36.871 E26.39
G1 X79.291 Y36.985 E26.45729
G1 X79.707 Y37.111 E26.50945
G1 X80.329 Y37.375 E26.59053
G1 X80.719 Y37.591 E26.64403
G1 X81.241 Y37.951 E26.72012
G1 X81.618 Y38.288 E26.7808
G1 X81.997 Y38.707 E26.8486
G1 X82.244 Y39.034 E26.89777
G1 X82.586 Y39.6 E26.97713
G1 X82.779 Y40.01 E27.03151
G1 X82.958 Y40.483 E27.0922
G1 X83.115 Y41.261 E27.18744
G1 X83.189 Y41.898 E27.26439
G1 X83.2 Y42.41 E27.32585
G1 X83.2 Y77.314 E31.51433
G1 X83.19 Y78.034 E31.60074
G1 X83.132 Y78.726 E31.68407
G1 X83.016 Y79.287 E31.75281
G1 X82.89 Y79.703 E31.80497
G1 X82.627 Y80.324 E31.8859
G1 X82.408 Y80.72 E31.9402
G1 X82.05 Y81.239 E32.01586
G1 X81.712 Y81.618 E32.0768
G1 X81.293 Y81.997 E32.1446
G1 X80.966 Y82.244 E32.19377
G1 X80.4 Y82.586 E32.27313
G1 X80.007 Y82.771 E32.32525
G1 X79.372 Y82.992 E32.40594
G1 X78.931 Y83.095 E32.46028
G1 X78.383 Y83.174 E32.52672
G1 X77.878 Y83.194 E32.58737
G1 X77.215 Y83.2 E32.66693
G1 X42.66 Y83.2 E36.81353
G1 X41.963 Y83.19 E36.89718
G1 X41.263 Y83.13 E36.98149
G1 X40.712 Y83.015 E37.04903
G1 X40.295 Y82.889 E37.10131
G1 X39.668 Y82.624 E37.18299
G1 X39.277 Y82.407 E37.23665
G1 X38.76 Y82.049 E37.31211
G1 X38.38 Y81.711 E37.37314
G1 X37.998 Y81.287 E37.44163
G1 X37.752 Y80.96 E37.49073
G1 X37.414 Y80.399 E37.56933
G1 X37.221 Y79.989 E37.6237
G1 X37.042 Y79.516 E37.68439
G1 X36.885 Y78.741 E37.77928
G1 X36.811 Y78.094 E37.85743
G1 X36.801 Y77.7 E37.90472
G1 X36.8 Y42.65 E42.11072
G1 X36.81 Y41.957 E42.19389
G1 X36.87 Y41.264 E42.27736
G1 X36.986 Y40.706 E42.34575
G1 X37.112 Y40.291 E42.3978
G1 X37.375 Y39.671 E42.47862
G1 X37.591 Y39.281 E42.53212
G1 X37.953 Y38.757 E42.60854
G1 X38.291 Y38.379 E42.66939
G10
;MESH:joint_connector_6.stl
G0 F3600 X40.126 Y40.117
G0 X41.078 Y40.977
G0 X44.282 Y42.916
G0 X44.314 Y43.01
;TYPE:WALL-INNER
G11
G1 F1800 X43.843 Y43.245 E42.73255
G1 X43.444 Y43.586 E42.79554
G1 X43.141 Y44.017 E42.85876
G1 X42.954 Y44.511 E42.92215
G1 X42.897 Y45.035 E42.9854
G1 X42.972 Y45.557 E43.04868
G1 X43.174 Y46.044 E43.11195
G1 X43.491 Y46.466 E43.17528
G1 X43.903 Y46.794 E43.23848
G1 X44.384 Y47.012 E43.30185
G1 X44.904 Y47.101 E43.36516
G1 X45.429 Y47.059 E43.42836
G1 X45.928 Y46.888 E43.49166
G1 X46.367 Y46.598 E43.55479
G1 X46.722 Y46.209 E43.61799
G1 X46.969 Y45.741 E43.68149
G1 X47.091 Y45.228 E43.74477
G1 X47.082 Y44.701 E43.80802
G1 X46.942 Y44.194 E43.87113
G1 X46.682 Y43.735 E43.93444
G1 X46.313 Y43.355 E43.998
G1 X45.862 Y43.082 E44.06126
G1 X45.36 Y42.928 E44.12427
G1 X44.834 Y42.903 E44.18746
G1 X44.314 Y43.01 E44.25117
G0 F3600 X44.282 Y42.916
G0 X43.415 Y43.56
G0 X42.916 Y44.502
G0 X47.158 Y63.466
G0 X47.252 Y63.435
G1 F1800 X47.263 Y63.461 E44.25456
G1 X47.406 Y63.958 E44.31662
G1 X47.591 Y64.501 E44.38546
G1 X47.8 Y65.045 E44.45539
G1 X48.04 Y65.584 E44.52619
G1 X48.296 Y66.102 E44.59553
G1 X48.571 Y66.605 E44.66432
G1 X48.871 Y67.099 E44.73367
G1 X49.192 Y67.578 E44.80287
G1 X49.532 Y68.041 E44.8718
G1 X49.89 Y68.488 E44.94052
G1 X50.27 Y68.921 E45.00965
G1 X50.666 Y69.335 E45.0784
G1 X51.086 Y69.736 E45.14808
G1 X51.522 Y70.117 E45.21757
G1 X51.971 Y70.477 E45.28663
G1 X52.436 Y70.818 E45.35582
G1 X52.915 Y71.138 E45.42495
G1 X53.407 Y71.436 E45.49397
G1 X53.913 Y71.713 E45.5632
G1 X54.421 Y71.963 E45.63114
G1 X54.948 Y72.196 E45.70028
G1 X55.495 Y72.407 E45.77064
G1 X56.039 Y72.592 E45.83959
G1 X56.592 Y72.753 E45.90871
G1 X57.152 Y72.889 E45.97786
G1 X57.716 Y73.001 E46.04686
G1 X58.285 Y73.088 E46.11593
G1 X58.858 Y73.151 E46.18511
G1 X59.432 Y73.188 E46.25413
G1 X60.008 Y73.2 E46.32327
G1 X60.585 Y73.187 E46.39252
G1 X61.158 Y73.149 E46.46143
G1 X61.731 Y73.086 E46.53061
G1 X62.301 Y72.998 E46.59982
G1 X62.865 Y72.885 E46.66884
G1 X63.425 Y72.748 E46.73803
G1 X63.978 Y72.586 E46.80717
G1 X64.522 Y72.401 E46.87613
G1 X65.061 Y72.192 E46.9455
G1 X65.587 Y71.958 E47.01458
G1 X66.102 Y71.704 E47.08349
G1 X66.607 Y71.428 E47.15255
G1 X67.1 Y71.128 E47.2218
G1 X67.579 Y70.808 E47.29093
G1 X68.036 Y70.472 E47.359
G1 X68.487 Y70.11 E47.42839
G1 X68.918 Y69.732 E47.49719
G1 X69.338 Y69.33 E47.56695
G1 X69.736 Y68.914 E47.63604
G1 X70.116 Y68.479 E47.70535
G1 X70.475 Y68.031 E47.77424
G1 X70.817 Y67.566 E47.84351
G1 X71.139 Y67.084 E47.91307
G1 X71.435 Y66.594 E47.98177
G1 X71.71 Y66.091 E48.05056
G1 X71.966 Y65.571 E48.12011
G1 X72.199 Y65.045 E48.18915
G1 X72.408 Y64.502 E48.25897
G1 X72.593 Y63.959 E48.3278
G1 X72.735 Y63.464 E48.3896
G1 X72.747 Y63.435 E48.39337
G1 X72.889 Y62.846 E48.46607
G1 X73.002 Y62.283 E48.53498
G1 X73.088 Y61.713 E48.60415
G1 X73.144 Y61.191 E48.66715
G1 X73.15 Y61.163 E48.67059
G1 X73.188 Y60.568 E48.74213
G1 X73.2 Y59.992 E48.81127
G1 X73.188 Y59.416 E48.8804
G1 X73.151 Y58.84 E48.94967
G1 X73.145 Y58.805 E48.95393
G1 X73.089 Y58.288 E49.01633
G1 X73.003 Y57.718 E49.0855
G1 X72.886 Y57.138 E49.15651
G1 X72.748 Y56.566 E49.22712
G1 X72.736 Y56.537 E49.23088
G1 X72.594 Y56.042 E49.29268
G1 X72.409 Y55.499 E49.36152
G1 X72.2 Y54.955 E49.43145
G1 X71.96 Y54.416 E49.50225
G1 X71.704 Y53.898 E49.57159
G1 X71.429 Y53.395 E49.64038
G1 X71.129 Y52.901 E49.70973
G1 X70.808 Y52.422 E49.77893
G1 X70.468 Y51.959 E49.84786
G1 X70.11 Y51.512 E49.91658
G1 X69.73 Y51.079 E49.98571
G1 X69.334 Y50.665 E50.05446
G1 X68.914 Y50.264 E50.12414
G1 X68.478 Y49.883 E50.19362
G1 X68.029 Y49.523 E50.26268
G1 X67.564 Y49.182 E50.33188
G1 X67.085 Y48.862 E50.40101
G1 X66.593 Y48.564 E50.47003
G1 X66.087 Y48.287 E50.53926
G1 X65.579 Y48.037 E50.6072
G1 X65.052 Y47.804 E50.67634
G1 X64.505 Y47.593 E50.7467
G1 X63.961 Y47.408 E50.81565
G1 X63.408 Y47.247 E50.88476
G1 X62.848 Y47.111 E50.95392
G1 X62.284 Y46.999 E51.02292
G1 X61.715 Y46.912 E51.09199
G1 X61.142 Y46.849 E51.16117
G1 X60.568 Y46.812 E51.23019
G1 X59.992 Y46.8 E51.29932
G1 X59.415 Y46.813 E51.36858
G1 X58.842 Y46.851 E51.43749
G1 X58.269 Y46.914 E51.50667
G1 X57.699 Y47.002 E51.57588
G1 X57.135 Y47.115 E51.6449
G1 X56.575 Y47.252 E51.71409
G1 X56.022 Y47.414 E51.78323
G1 X55.478 Y47.599 E51.85219
G1 X54.939 Y47.808 E51.92156
G1 X54.413 Y48.042 E51.99064
G1 X53.898 Y48.296 E52.05955
G1 X53.393 Y48.572 E52.12861
G1 X52.9 Y48.872 E52.19786
G1 X52.421 Y49.193 E52.26706
G1 X51.958 Y49.533 E52.33599
G1 X51.513 Y49.89 E52.40445
G1 X51.082 Y50.268 E52.47324
G1 X50.662 Y50.67 E52.54301
G1 X50.264 Y51.086 E52.61209
G1 X49.884 Y51.521 E52.68141
G1 X49.525 Y51.969 E52.7503
G1 X49.183 Y52.434 E52.81956
G1 X48.861 Y52.916 E52.88912
G1 X48.565 Y53.406 E52.95782
G1 X48.29 Y53.909 E53.02661
G1 X48.034 Y54.429 E53.09616
G1 X47.801 Y54.955 E53.1652
G1 X47.592 Y55.498 E53.23502
G1 X47.407 Y56.041 E53.30386
G1 X47.265 Y56.536 E53.36565
G1 X47.253 Y56.565 E53.36942
G1 X47.111 Y57.154 E53.44212
G1 X46.998 Y57.717 E53.51103
G1 X46.912 Y58.287 E53.58021
G1 X46.856 Y58.809 E53.6432
G1 X46.85 Y58.837 E53.64664
G1 X46.812 Y59.432 E53.71819
G1 X46.8 Y60.008 E53.78732
G1 X46.812 Y60.584 E53.85646
G1 X46.849 Y61.16 E53.92572
G1 X46.855 Y61.195 E53.92998
G1 X46.911 Y61.712 E53.99238
G1 X46.997 Y62.282 E54.06156
G1 X47.114 Y62.862 E54.13256
G1 X47.252 Y63.435 E54.20329
G0 F3600 X47.158 Y63.466
G0 X44.282 Y72.916
G0 X44.314 Y73.01
G1 F1800 X43.843 Y73.245 E54.26645
G1 X43.444 Y73.586 E54.32943
G1 X43.141 Y74.017 E54.39266
G1 X42.954 Y74.511 E54.45604
G1 X42.897 Y75.035 E54.51929
G1 X42.972 Y75.557 E54.58257
G1 X43.174 Y76.044 E54.64584
G1 X43.491 Y76.466 E54.70918
G1 X43.903 Y76.794 E54.77237
G1 X44.384 Y77.012 E54.83574
G1 X44.904 Y77.101 E54.89905
G1 X45.429 Y77.059 E54.96225
G1 X45.928 Y76.888 E55.02555
G1 X46.367 Y76.598 E55.08869
G1 X46.722 Y76.209 E55.15188
G1 X46.969 Y75.741 E55.21539
G1 X47.091 Y75.228 E55.27866
G1 X47.082 Y74.701 E55.34191
G1 X46.942 Y74.194 E55.40503
G1 X46.682 Y73.735 E55.46833
G1 X46.313 Y73.355 E55.53189
G1 X45.862 Y73.082 E55.59516
G1 X45.36 Y72.928 E55.65817
G1 X44.834 Y72.903 E55.72136
G1 X44.314 Y73.01 E55.78507
G0 F3600 X44.282 Y72.916
G0 X60.586 Y73.226
G0 X74.282 Y72.916
G0 X74.314 Y73.01
G1 F1800 X73.843 Y73.245 E55.84823
G1 X73.444 Y73.586 E55.91121
G1 X73.141 Y74.017 E55.97444
G1 X72.954 Y74.511 E56.03782
G1 X72.897 Y75.035 E56.10107
G1 X72.972 Y75.557 E56.16435
G1 X73.174 Y76.044 E56.22762
G1 X73.491 Y76.466 E56.29096
G1 X73.903 Y76.794 E56.35415
G1 X74.384 Y77.012 E56.41752
G1 X74.904 Y77.101 E56.48083
G1 X75.429 Y77.059 E56.54403
G1 X75.928 Y76.888 E56.60733
G1 X76.367 Y76.598 E56.67047
G1 X76.722 Y76.209 E56.73366
G1 X76.969 Y75.741 E56.79717
G1 X77.091 Y75.228 E56.86044
G1 X77.082 Y74.701 E56.92369
G1 X76.942 Y74.194 E56.98681
G1 X76.682 Y73.735 E57.05011
G1 X76.313 Y73.355 E57.11367
G1 X75.862 Y73.082 E57.17694
G1 X75.36 Y72.928 E57.23995
G1 X74.834 Y72.903 E57.30314
G1 X74.314 Y73.01 E57.36685
G0 F3600 X74.282 Y72.916
G0 X72.858 Y45.035
G0 X73.106 Y43.999
G0 X74.282 Y42.916
G0 X74.314 Y43.01
G1 F1800 X73.843 Y43.245 E57.43001
G1 X73.444 Y43.586 E57.49299
G1 X73.141 Y44.017 E57.55622
G1 X72.954 Y44.511 E57.6196
G1 X72.897 Y45.035 E57.68285
G1 X72.972 Y45.557 E57.74614
G1 X73.174 Y46.044 E57.8094
G1 X73.491 Y46.466 E57.87274
G1 X73.903 Y46.794 E57.93593
G1 X74.384 Y47.012 E57.9993
G1 X74.904 Y47.101 E58.06261
G1 X75.429 Y47.059 E58.12581
G1 X75.928 Y46.888 E58.18911
G1 X76.367 Y46.598 E58.25225
G1 X76.722 Y46.209 E58.31544
G1 X76.969 Y45.741 E58.37895
G1 X77.091 Y45.228 E58.44222
G1 X77.082 Y44.701 E58.50547
G1 X76.942 Y44.194 E58.56859
G1 X76.682 Y43.735 E58.63189
G1 X76.313 Y43.355 E58.69545
G1 X75.862 Y43.082 E58.75872
G1 X75.36 Y42.928 E58.82173
G1 X74.834 Y42.903 E58.88492
G1 X74.314 Y43.01 E58.94863
G0 F3600 X74.282 Y42.916
G0 X78.274 Y40.732
G0 X78.294 Y40.635
G1 F1800 X78.568 Y40.724 E58.9832
G1 X78.822 Y40.87 E59.01835
G1 X79.037 Y41.065 E59.05318
G1 X79.209 Y41.302 E59.08833
G1 X79.328 Y41.568 E59.12329
G1 X79.393 Y41.871 E59.16048
G1 X79.4 Y42.011 E59.1773
G1 X79.4 Y77.965 E63.49178
G1 X79.365 Y78.294 E63.53148
G1 X79.276 Y78.568 E63.56606
G1 X79.13 Y78.822 E63.60121
G1 X78.935 Y79.037 E63.63604
G1 X78.698 Y79.209 E63.67118
G1 X78.433 Y79.328 E63.70604
G1 X78.14 Y79.39 E63.74198
G1 X77.57 Y79.4 E63.81039
G1 X42.035 Y79.4 E68.07459
G1 X41.706 Y79.365 E68.11429
G1 X41.432 Y79.276 E68.14887
G1 X41.178 Y79.13 E68.18402
G1 X40.963 Y78.935 E68.21885
G1 X40.791 Y78.698 E68.25399
G1 X40.672 Y78.432 E68.28896
G1 X40.607 Y78.129 E68.32615
G1 X40.6 Y77.989 E68.34297
G1 X40.6 Y42.032 E72.65781
G1 X40.635 Y41.707 E72.69704
G1 X40.724 Y41.432 E72.73172
G1 X40.87 Y41.178 E72.76688
G1 X41.065 Y40.963 E72.80171
G1 X41.302 Y40.791 E72.83685
G1 X41.568 Y40.672 E72.87182
G1 X41.865 Y40.609 E72.90825
G1 X42.022 Y40.601 E72.92712
G1 X77.965 Y40.6 E77.24028
G1 X78.294 Y40.635 E77.27998
G0 F3600 X78.375 Y40.241
;TYPE:WALL-OUTER
G1 F1800 X78.732 Y40.357 E77.32502
G1 X79.059 Y40.545 E77.37029
G1 X79.334 Y40.794 E77.4148
G1 X79.558 Y41.102 E77.4605
G1 X79.71 Y41.443 E77.50531
G1 X79.79 Y41.818 E77.55132
G1 X79.8 Y42.011 E77.57451
G1 X79.8 Y77.988 E81.89175
G1 X79.759 Y78.375 E81.93845
G1 X79.643 Y78.732 E81.98349
G1 X79.455 Y79.059 E82.02876
G1 X79.206 Y79.334 E82.07327
G1 X78.898 Y79.558 E82.11898
G1 X78.557 Y79.71 E82.16378
G1 X78.184 Y79.789 E82.20953
G1 X77.577 Y79.8 E82.28238
G1 X42.012 Y79.8 E86.55018
G1 X41.625 Y79.759 E86.59688
G1 X41.268 Y79.643 E86.64193
G1 X40.941 Y79.455 E86.68719
G1 X40.666 Y79.206 E86.73171
G1 X40.442 Y78.898 E86.77741
G1 X40.29 Y78.557 E86.82221
G1 X40.21 Y78.182 E86.86822
G1 X40.2 Y77.989 E86.89141
G1 X40.2 Y42.011 E91.20877
G1 X40.241 Y41.625 E91.25535
G1 X40.357 Y41.268 E91.3004
G1 X40.545 Y40.941 E91.34566
G1 X40.794 Y40.666 E91.39018
G1 X41.102 Y40.442 E91.43588
G1 X41.443 Y40.29 E91.48068
G1 X41.818 Y40.21 E91.52669
G1 X42.003 Y40.201 E91.54892
G1 X77.988 Y40.2 E95.86712
G1 X78.375 Y40.241 E95.91382
G0 F3600 X78.565 Y40.302
G0 X78.411 Y40.777
G0 X74.224 Y42.944
G0 X74.446 Y43.391
G1 F1800 X74.065 Y43.581 E95.96491
G1 X73.742 Y43.857 E96.01589
G1 X73.497 Y44.206 E96.06706
G1 X73.346 Y44.605 E96.11825
G1 X73.3 Y45.028 E96.16931
G1 X73.361 Y45.45 E96.22048
G1 X73.524 Y45.844 E96.27165
G1 X73.78 Y46.185 E96.32281
G1 X74.113 Y46.45 E96.37388
G1 X74.502 Y46.626 E96.42512
G1 X74.922 Y46.698 E96.47625
G1 X75.347 Y46.664 E96.52742
G1 X75.75 Y46.526 E96.57853
G1 X76.105 Y46.292 E96.62956
G1 X76.392 Y45.977 E96.68069
G1 X76.592 Y45.599 E96.73201
G1 X76.69 Y45.185 E96.78306
G1 X76.683 Y44.758 E96.83431
G1 X76.57 Y44.348 E96.88534
G1 X76.359 Y43.977 E96.93656
G1 X76.062 Y43.671 E96.98773
G1 X75.697 Y43.45 E97.03894
G1 X75.291 Y43.325 E97.08991
G1 X74.865 Y43.305 E97.14109
G1 X74.446 Y43.391 E97.19242
G0 F3600 X74.267 Y43.48
G0 X74.045 Y43.033
G0 X73.415 Y43.56
G0 X72.916 Y44.502
G0 X74.224 Y72.944
G0 X74.446 Y73.391
G1 F1800 X74.065 Y73.581 E97.24351
G1 X73.742 Y73.857 E97.29449
G1 X73.497 Y74.206 E97.34566
G1 X73.346 Y74.605 E97.39685
G1 X73.3 Y75.028 E97.44791
G1 X73.361 Y75.45 E97.49908
G1 X73.524 Y75.844 E97.55025
G1 X73.78 Y76.185 E97.60141
G1 X74.113 Y76.45 E97.65248
G1 X74.502 Y76.626 E97.70372
G1 X74.922 Y76.698 E97.75485
G1 X75.347 Y76.664 E97.80602
G1 X75.75 Y76.526 E97.85713
G1 X76.105 Y76.292 E97.90816
G1 X76.392 Y75.977 E97.95929
G1 X76.592 Y75.599 E98.01061
G1 X76.69 Y75.185 E98.06166
G1 X76.683 Y74.758 E98.11291
G1 X76.57 Y74.348 E98.16394
G1 X76.359 Y73.977 E98.21516
G1 X76.062 Y73.671 E98.26633
G1 X75.697 Y73.45 E98.31754
G1 X75.291 Y73.325 E98.36851
G1 X74.865 Y73.305 E98.41969
G1 X74.446 Y73.391 E98.47102
G0 F3600 X74.267 Y73.48
G0 X74.045 Y73.033
G0 X59.431 Y73.227
G0 X57.71 Y73.04
G0 X56.027 Y72.63
G0 X54.405 Y71.999
