;FLAVOR:UltiGCode
;TIME:1347
;MATERIAL:2505
;MATERIAL2:0
;NOZZLE_DIAMETER:0.4
;MINX:32.446
;MINY:32.445
;MINZ:0.3
;MAXX:87.554
;MAXY:87.555
;MAXZ:3.9
;Generated with Cura_SteamEngine 4.7.0
M82 ;absolute extrusion mode
G0 F3000 Y50 ;avoid prime blob
G92 E0
G92 E0
G10
;LAYER_COUNT:25
;LAYER:0
M107
G0 F3600 X44.787 Y35.373 Z0.3
;TYPE:SKIRT
G11
G1 F1800 X45.172 Y34.916 E0.07171
G1 X45.598 Y34.482 E0.14468
G1 X46.075 Y34.074 E0.22001
G1 X46.576 Y33.71 E0.29432
G1 X47.076 Y33.405 E0.3646
G1 X47.624 Y33.128 E0.43828
G1 X48.157 Y32.909 E0.50743
G1 X48.782 Y32.711 E0.58611
G1 X49.331 Y32.582 E0.65378
G1 X49.971 Y32.486 E0.73144
G1 X50.583 Y32.445 E0.80504
G1 X50.753 Y32.445 E0.82544
G1 X51.59 Y32.483 E0.92599
G1 X52.406 Y32.62 E1.02528
G1 X52.991 Y32.773 E1.09784
G1 X53.593 Y32.986 E1.17447
G1 X54.17 Y33.245 E1.25036
G1 X54.286 Y33.304 E1.26598
G1 X56.635 Y34.56 E1.58563
G1 X59.069 Y35.773 E1.91197
G1 X61.549 Y36.923 E2.24001
G1 X64.048 Y37.997 E2.56641
G1 X66.618 Y39.016 E2.89816
G1 X69.174 Y39.946 E3.22456
G1 X71.719 Y40.792 E3.54639
G1 X74.358 Y41.587 E3.87713
G1 X76.974 Y42.295 E4.20234
G1 X79.624 Y42.933 E4.52943
G1 X81.353 Y43.303 E4.7416
G1 X81.895 Y43.436 E4.80857
G1 X82.491 Y43.618 E4.88335
G1 X83.05 Y43.841 E4.95557
G1 X83.6 Y44.112 E5.02915
G1 X84.133 Y44.433 E5.10381
G1 X84.614 Y44.776 E5.17471
G1 X85.088 Y45.175 E5.24906
G1 X85.527 Y45.609 E5.32313
G1 X85.912 Y46.057 E5.39402
G1 X86.287 Y46.572 E5.47047
G1 X86.592 Y47.071 E5.54065
G1 X86.871 Y47.62 E5.61454
G1 X87.091 Y48.156 E5.68407
G1 X87.29 Y48.783 E5.76301
G1 X87.419 Y49.337 E5.83127
G1 X87.515 Y49.979 E5.90917
G1 X87.554 Y50.58 E5.98144
G1 X87.546 Y51.199 E6.05572
G1 X87.494 Y51.762 E6.12357
G1 X87.382 Y52.399 E6.20118
G1 X87.222 Y53.006 E6.27651
G1 X87.017 Y53.587 E6.35044
G1 X86.755 Y54.17 E6.42714
G1 X86.696 Y54.286 E6.44276
G1 X85.44 Y56.635 E6.76241
G1 X84.227 Y59.069 E7.08875
G1 X83.077 Y61.549 E7.41679
G1 X82.003 Y64.048 E7.74319
G1 X80.984 Y66.618 E8.07495
G1 X80.054 Y69.174 E8.40134
G1 X79.208 Y71.719 E8.72317
G1 X78.413 Y74.358 E9.05391
G1 X77.705 Y76.974 E9.37912
G1 X77.067 Y79.624 E9.70621
G1 X76.696 Y81.357 E9.91888
G1 X76.568 Y81.879 E9.98337
G1 X76.382 Y82.488 E10.05979
G1 X76.159 Y83.049 E10.13223
G1 X75.884 Y83.605 E10.20667
G1 X75.585 Y84.105 E10.27658
G1 X75.218 Y84.621 E10.35256
G1 X74.819 Y85.093 E10.42673
G1 X74.4 Y85.519 E10.49843
G1 X73.921 Y85.928 E10.57401
G1 X73.423 Y86.29 E10.64789
G1 X72.933 Y86.59 E10.71684
G1 X72.376 Y86.872 E10.79176
G1 X71.843 Y87.091 E10.8609
G1 X71.216 Y87.29 E10.93984
G1 X70.667 Y87.419 E11.00752
G1 X70.028 Y87.514 E11.08504
G1 X69.417 Y87.555 E11.15852
G1 X68.8 Y87.546 E11.23257
G1 X68.237 Y87.494 E11.30042
G1 X67.593 Y87.38 E11.3789
G1 X67.005 Y87.225 E11.45187
G1 X66.407 Y87.014 E11.52797
G1 X65.83 Y86.755 E11.60386
G1 X65.714 Y86.696 E11.61948
G1 X63.365 Y85.44 E11.93913
G1 X60.931 Y84.227 E12.26547
G1 X58.451 Y83.077 E12.59351
G1 X55.952 Y82.003 E12.91991
G1 X53.382 Y80.984 E13.25166
G1 X50.826 Y80.054 E13.57806
G1 X48.281 Y79.208 E13.89989
G1 X45.642 Y78.413 E14.23063
G1 X43.026 Y77.705 E14.55584
G1 X40.376 Y77.067 E14.88293
G1 X38.647 Y76.697 E15.0951
G1 X38.105 Y76.564 E15.16207
G1 X37.509 Y76.382 E15.23685
G1 X36.95 Y76.159 E15.30907
G1 X36.4 Y75.888 E15.38265
G1 X35.867 Y75.567 E15.45731
G1 X35.376 Y75.215 E15.52981
G1 X34.914 Y74.826 E15.60229
G1 X34.476 Y74.396 E15.67594
G1 X34.079 Y73.932 E15.74922
G1 X33.71 Y73.424 E15.82457
G1 X33.405 Y72.924 E15.89485
G1 X33.127 Y72.374 E15.9688
G1 X32.907 Y71.839 E16.03822
G1 X32.709 Y71.21 E16.11735
G1 X32.583 Y70.674 E16.18342
G1 X32.485 Y70.019 E16.26289
G1 X32.446 Y69.421 E16.33481
G1 X32.454 Y68.802 E16.40909
G1 X32.505 Y68.242 E16.47657
G1 X32.621 Y67.587 E16.55639
G1 X32.776 Y67.002 E16.62902
G1 X32.969 Y66.451 E16.69908
G1 X33.242 Y65.836 E16.77982
G1 X33.304 Y65.714 E16.79624
G1 X34.56 Y63.365 E17.11589
G1 X35.773 Y60.931 E17.44223
G1 X36.929 Y58.439 E17.77188
G1 X37.999 Y55.946 E18.09743
G1 X38.999 Y53.426 E18.42277
G1 X39.946 Y50.826 E18.75482
G1 X40.792 Y48.282 E19.07654
G1 X41.585 Y45.651 E19.40628
G1 X42.295 Y43.025 E19.73272
G1 X42.933 Y40.379 E20.05934
G1 X43.304 Y38.643 E20.27236
G1 X43.437 Y38.101 E20.33933
G1 X43.619 Y37.506 E20.414
G1 X43.843 Y36.945 E20.48649
G1 X44.118 Y36.39 E20.56081
G1 X44.436 Y35.862 E20.63478
G1 X44.787 Y35.373 E20.70701
G0 F3600 X45.11 Y35.608
G1 F1800 X45.469 Y35.184 E20.77368
G1 X45.882 Y34.764 E20.84436
G1 X46.322 Y34.388 E20.91382
G1 X46.809 Y34.035 E20.98599
G1 X47.27 Y33.755 E21.05072
G1 X47.803 Y33.486 E21.12236
G1 X48.295 Y33.284 E21.18618
G1 X48.899 Y33.093 E21.2622
G1 X49.409 Y32.975 E21.32502
G1 X50.027 Y32.882 E21.40001
G1 X50.594 Y32.845 E21.4682
G1 X50.745 Y32.845 E21.48632
G1 X51.537 Y32.88 E21.58145
G1 X52.333 Y33.013 E21.67829
G1 X52.875 Y33.156 E21.74556
G1 X53.457 Y33.362 E21.81965
G1 X53.994 Y33.604 E21.89033
G1 X54.098 Y33.657 E21.90433
G1 X56.461 Y34.92 E22.22586
G1 X58.901 Y36.136 E22.553
G1 X61.388 Y37.29 E22.88201
G1 X63.891 Y38.365 E23.2089
G1 X66.47 Y39.388 E23.54183
G1 X69.016 Y40.315 E23.86698
G1 X71.615 Y41.178 E24.1956
G1 X74.244 Y41.97 E24.52508
G1 X76.89 Y42.686 E24.85402
G1 X79.554 Y43.328 E25.18286
G1 X81.264 Y43.693 E25.39268
G1 X81.794 Y43.823 E25.45816
G1 X82.371 Y44 E25.53059
G1 X82.887 Y44.207 E25.59731
G1 X83.421 Y44.47 E25.66874
G1 X83.912 Y44.767 E25.7376
G1 X84.38 Y45.101 E25.80659
G1 X84.819 Y45.472 E25.87556
G1 X85.243 Y45.891 E25.9471
G1 X85.598 Y46.305 E26.01254
G1 X85.962 Y46.806 E26.08685
G1 X86.243 Y47.266 E26.15154
G1 X86.513 Y47.799 E26.22324
G1 X86.716 Y48.294 E26.28744
G1 X86.908 Y48.901 E26.36383
G1 X87.027 Y49.414 E26.42703
G1 X87.119 Y50.034 E26.50224
G1 X87.155 Y50.591 E26.56922
G1 X87.146 Y51.19 E26.64111
G1 X87.098 Y51.71 E26.70378
G1 X86.989 Y52.327 E26.77896
G1 X86.839 Y52.888 E26.84865
G1 X86.64 Y53.451 E26.9203
G1 X86.396 Y53.994 E26.99174
G1 X86.343 Y54.098 E27.00575
G1 X85.08 Y56.461 E27.32727
G1 X83.864 Y58.901 E27.65441
G1 X82.71 Y61.388 E27.98342
G1 X81.635 Y63.891 E28.31031
G1 X80.616 Y66.461 E28.64207
G1 X79.685 Y69.016 E28.96839
G1 X78.822 Y71.615 E29.29701
G1 X78.03 Y74.244 E29.62649
G1 X77.314 Y76.89 E29.95543
G1 X76.672 Y79.554 E30.28427
G1 X76.306 Y81.267 E30.49447
G1 X76.181 Y81.779 E30.55771
G1 X76.001 Y82.369 E30.63173
G1 X75.793 Y82.886 E30.6986
G1 X75.526 Y83.426 E30.77089
G1 X75.25 Y83.888 E30.83547
G1 X74.894 Y84.386 E30.90893
G1 X74.523 Y84.824 E30.97781
G1 X74.116 Y85.237 E31.04739
G1 X73.675 Y85.613 E31.11694
G1 X73.19 Y85.965 E31.18885
G1 X72.738 Y86.241 E31.2524
G1 X72.197 Y86.514 E31.32512
G1 X71.705 Y86.716 E31.38894
G1 X71.098 Y86.908 E31.46534
G1 X70.589 Y87.026 E31.52804
G1 X69.972 Y87.118 E31.6029
G1 X69.406 Y87.155 E31.67096
G1 X68.809 Y87.146 E31.74261
G1 X68.289 Y87.098 E31.80528
G1 X67.666 Y86.987 E31.88121
G1 X67.121 Y86.843 E31.94886
G1 X66.543 Y86.638 E32.02245
G1 X66.006 Y86.396 E32.09313
G1 X65.902 Y86.343 E32.10714
G1 X63.539 Y85.08 E32.42866
G1 X61.099 Y83.864 E32.75581
G1 X58.612 Y82.71 E33.08481
G1 X56.109 Y81.635 E33.4117
G1 X53.53 Y80.612 E33.74464
G1 X50.984 Y79.685 E34.06978
G1 X48.385 Y78.822 E34.39841
G1 X45.756 Y78.03 E34.72789
G1 X43.11 Y77.314 E35.05683
G1 X40.446 Y76.672 E35.38566
G1 X38.736 Y76.307 E35.59548
G1 X38.206 Y76.177 E35.66097
G1 X37.629 Y76 E35.73339
G1 X37.113 Y75.793 E35.80011
G1 X36.579 Y75.53 E35.87154
G1 X36.088 Y75.233 E35.9404
G1 X35.611 Y74.891 E36.01083
G1 X35.182 Y74.529 E36.07819
G1 X34.759 Y74.113 E36.14939
G1 X34.393 Y73.684 E36.21706
G1 X34.035 Y73.191 E36.29017
G1 X33.755 Y72.73 E36.35489
G1 X33.485 Y72.195 E36.42681
G1 X33.283 Y71.701 E36.49085
G1 X33.091 Y71.092 E36.56748
G1 X32.975 Y70.596 E36.6286
G1 X32.881 Y69.964 E36.70528
G1 X32.845 Y69.409 E36.77202
G1 X32.854 Y68.81 E36.8439
G1 X32.902 Y68.294 E36.90609
G1 X33.015 Y67.66 E36.98337
G1 X33.158 Y67.119 E37.05052
G1 X33.345 Y66.586 E37.1183
G1 X33.601 Y66.011 E37.19383
G1 X33.657 Y65.902 E37.20854
G1 X34.92 Y63.539 E37.53006
G1 X36.136 Y61.099 E37.85721
G1 X37.29 Y58.613 E38.1861
G1 X38.373 Y56.09 E38.51557
G1 X39.371 Y53.575 E38.84027
G1 X40.315 Y50.984 E39.17118
G1 X41.181 Y48.376 E39.50094
G1 X41.968 Y45.766 E39.82807
G1 X42.684 Y43.119 E40.15713
G1 X43.323 Y40.469 E40.48424
G1 X43.694 Y38.732 E40.69738
G1 X43.824 Y38.203 E40.76275
G1 X44.001 Y37.625 E40.83529
G1 X44.209 Y37.108 E40.90216
G1 X44.476 Y36.569 E40.97434
G1 X44.77 Y36.082 E41.04261
G1 X45.11 Y35.608 E41.11261
G10
;MESH:bearing_shell_2_n.stl
G0 F3600 X47.121 Y37.138
G0 X48.172 Y37.874
G0 X48.523 Y40.096
G0 X48.622 Y40.093
;TYPE:WALL-INNER
G11
G1 F1800 X48.713 Y40.647 E41.17998
G1 X48.943 Y41.16 E41.24744
G1 X49.299 Y41.596 E41.31499
G1 X49.755 Y41.925 E41.38246
G1 X50.28 Y42.123 E41.4498
G1 X50.839 Y42.18 E41.51722
G1 X51.393 Y42.089 E41.58459
G1 X51.906 Y41.859 E41.65206
G1 X52.342 Y41.503 E41.7196
G1 X52.671 Y41.047 E41.78708
G1 X52.869 Y40.522 E41.85441
G1 X52.926 Y39.963 E41.92184
G1 X52.835 Y39.409 E41.98921
G1 X52.605 Y38.896 E42.05667
G1 X52.249 Y38.46 E42.12422
G1 X51.793 Y38.131 E42.19169
G1 X51.268 Y37.933 E42.25903
G1 X50.709 Y37.876 E42.32645
G1 X50.155 Y37.967 E42.39382
G1 X49.642 Y38.197 E42.46129
G1 X49.206 Y38.553 E42.52883
G1 X48.877 Y39.009 E42.59631
G1 X48.679 Y39.534 E42.66364
G1 X48.622 Y40.093 E42.73107
G0 F3600 X48.523 Y40.096
G0 X48.909 Y41.181
G0 X49.648 Y41.895
G0 X56.831 Y45.132
G0 X56.912 Y45.075
G1 F1800 X57.312 Y45.548 E42.8054
G1 X57.797 Y45.955 E42.88138
G1 X58.347 Y46.27 E42.95744
G1 X58.923 Y46.478 E43.03093
G1 X59.546 Y46.587 E43.10682
G1 X59.867 Y46.6 E43.14538
G1 X60.461 Y46.608 E43.21666
G1 X61.022 Y46.639 E43.28408
G1 X61.592 Y46.695 E43.35281
G1 X62.157 Y46.775 E43.42129
G1 X62.711 Y46.877 E43.48889
G1 X63.261 Y47.003 E43.5566
G1 X63.82 Y47.156 E43.62614
G1 X64.363 Y47.331 E43.69461
G1 X64.882 Y47.521 E43.76093
G1 X65.431 Y47.75 E43.83231
G1 X65.931 Y47.984 E43.89855
G1 X66.45 Y48.255 E43.96881
G1 X66.921 Y48.526 E44.03402
G1 X67.423 Y48.845 E44.1054
G1 X67.878 Y49.161 E44.17187
G1 X68.353 Y49.523 E44.24354
G1 X68.796 Y49.89 E44.31257
G1 X69.275 Y50.237 E44.38355
G1 X69.845 Y50.513 E44.45954
G1 X70.454 Y50.685 E44.53548
G1 X71.085 Y50.75 E44.6116
G1 X71.717 Y50.702 E44.68766
G1 X72.321 Y50.547 E44.76249
G1 X72.626 Y50.422 E44.80205
G1 X78.52 Y47.7 E45.58111
G1 X79.057 Y47.503 E45.64975
G1 X79.582 Y47.399 E45.71397
G1 X80.136 Y47.379 E45.7805
G1 X80.674 Y47.448 E45.84558
G1 X81.199 Y47.605 E45.91134
G1 X81.687 Y47.841 E45.97639
G1 X82.138 Y48.157 E46.04247
G1 X82.53 Y48.538 E46.10807
G1 X82.855 Y48.978 E46.17371
G1 X83.107 Y49.465 E46.23951
G1 X83.275 Y49.98 E46.30452
G1 X83.36 Y50.526 E46.37083
G1 X83.357 Y51.077 E46.43695
G1 X83.269 Y51.604 E46.50106
G1 X83.09 Y52.126 E46.56728
G1 X82.834 Y52.605 E46.63246
G1 X82.497 Y53.05 E46.69944
G1 X82.106 Y53.418 E46.76387
G1 X81.643 Y53.732 E46.83101
G1 X81.392 Y53.862 E46.86493
G1 X75.463 Y56.602 E47.64871
G1 X74.925 Y56.912 E47.72322
G1 X74.452 Y57.312 E47.79755
G1 X74.045 Y57.797 E47.87353
G1 X73.73 Y58.347 E47.94959
G1 X73.522 Y58.923 E48.02308
G1 X73.413 Y59.546 E48.09897
G1 X73.4 Y59.867 E48.13753
G1 X73.392 Y60.454 E48.20797
G1 X73.362 Y61.012 E48.27503
G1 X73.307 Y61.579 E48.34339
G1 X73.225 Y62.157 E48.41344
G1 X73.125 Y62.702 E48.47993
G1 X72.998 Y63.257 E48.54826
G1 X72.846 Y63.813 E48.61742
G1 X72.669 Y64.363 E48.68676
G1 X72.479 Y64.882 E48.75308
G1 X72.25 Y65.431 E48.82446
G1 X72.02 Y65.923 E48.88963
G1 X71.749 Y66.442 E48.95989
G1 X71.474 Y66.922 E49.02628
G1 X71.168 Y67.404 E49.09479
G1 X70.835 Y67.884 E49.16489
G1 X70.501 Y68.324 E49.23118
G1 X70.11 Y68.796 E49.30473
G1 X69.763 Y69.275 E49.37571
G1 X69.487 Y69.845 E49.45171
G1 X69.315 Y70.454 E49.52764
G1 X69.25 Y71.085 E49.60376
G1 X69.298 Y71.717 E49.67982
G1 X69.453 Y72.321 E49.75465
G1 X69.578 Y72.626 E49.79421
G1 X72.3 Y78.52 E50.57327
G1 X72.497 Y79.057 E50.64191
G1 X72.601 Y79.582 E50.70613
G1 X72.621 Y80.136 E50.77266
G1 X72.552 Y80.674 E50.83774
G1 X72.395 Y81.199 E50.9035
G1 X72.159 Y81.687 E50.96855
G1 X71.843 Y82.138 E51.03463
G1 X71.462 Y82.53 E51.10023
G1 X71.022 Y82.855 E51.16587
G1 X70.53 Y83.109 E51.23232
G1 X70.02 Y83.275 E51.29668
G1 X69.474 Y83.36 E51.36299
G1 X68.923 Y83.357 E51.42911
G1 X68.392 Y83.268 E51.49371
G1 X67.874 Y83.09 E51.55944
G1 X67.392 Y82.832 E51.62505
G1 X66.95 Y82.497 E51.6916
G1 X66.582 Y82.106 E51.75603
G1 X66.268 Y81.643 E51.82316
G1 X66.134 Y81.384 E51.85816
G1 X63.398 Y75.463 E52.64087
G1 X63.088 Y74.925 E52.71538
G1 X62.688 Y74.452 E52.78971
G1 X62.203 Y74.045 E52.86569
G1 X61.653 Y73.73 E52.94175
G1 X61.077 Y73.522 E53.01524
G1 X60.454 Y73.413 E53.09113
G1 X60.133 Y73.4 E53.12968
G1 X59.518 Y73.391 E53.20349
G1 X58.955 Y73.359 E53.27116
G1 X58.408 Y73.305 E53.33712
G1 X57.843 Y73.225 E53.4056
G1 X57.288 Y73.123 E53.47331
G1 X56.737 Y72.996 E53.54117
G1 X56.18 Y72.844 E53.61045
G1 X55.637 Y72.669 E53.67891
G1 X55.115 Y72.477 E53.74565
G1 X54.569 Y72.25 E53.81661
G1 X54.069 Y72.016 E53.88286
G1 X53.55 Y71.745 E53.95311
G1 X53.079 Y71.474 E54.01832
G1 X52.577 Y71.155 E54.0897
G1 X52.109 Y70.83 E54.15807
G1 X51.674 Y70.5 E54.22359
G1 X51.204 Y70.11 E54.29688
G1 X50.725 Y69.763 E54.36786
G1 X50.155 Y69.487 E54.44385
G1 X49.546 Y69.315 E54.51979
G1 X48.915 Y69.25 E54.59591
G1 X48.283 Y69.298 E54.67197
G1 X47.679 Y69.453 E54.7468
G1 X47.374 Y69.578 E54.78635
G1 X41.48 Y72.3 E55.56542
G1 X40.943 Y72.497 E55.63406
G1 X40.418 Y72.601 E55.69828
G1 X39.864 Y72.621 E55.7648
G1 X39.326 Y72.552 E55.82989
G1 X38.801 Y72.395 E55.89565
G1 X38.313 Y72.159 E55.9607
G1 X37.862 Y71.843 E56.02678
G1 X37.47 Y71.462 E56.09238
G1 X37.145 Y71.022 E56.15802
G1 X36.893 Y70.534 E56.22393
G1 X36.723 Y70.011 E56.28992
G1 X36.64 Y69.474 E56.35512
G1 X36.643 Y68.923 E56.42125
G1 X36.732 Y68.392 E56.48585
G1 X36.91 Y67.874 E56.55158
G1 X37.168 Y67.392 E56.61719
G1 X37.503 Y66.95 E56.68374
G1 X37.894 Y66.582 E56.74817
G1 X38.358 Y66.267 E56.81547
G1 X38.608 Y66.138 E56.84923
G1 X44.537 Y63.398 E57.63301
G1 X45.075 Y63.088 E57.70752
G1 X45.548 Y62.688 E57.78186
G1 X45.955 Y62.203 E57.85783
G1 X46.27 Y61.653 E57.93389
G1 X46.478 Y61.077 E58.00738
G1 X46.587 Y60.454 E58.08328
G1 X46.6 Y60.133 E58.12183
G1 X46.608 Y59.539 E58.19311
G1 X46.639 Y58.979 E58.26042
G1 X46.693 Y58.421 E58.32769
G1 X46.775 Y57.84 E58.3981
G1 X46.875 Y57.298 E58.46424
G1 X47.002 Y56.743 E58.53256
G1 X47.154 Y56.187 E58.60173
G1 X47.331 Y55.637 E58.67106
G1 X47.521 Y55.118 E58.73738
G1 X47.75 Y54.569 E58.80877
G1 X47.98 Y54.077 E58.87394
G1 X48.251 Y53.557 E58.9443
G1 X48.526 Y53.079 E59.01048
G1 X48.845 Y52.577 E59.08185
G1 X49.165 Y52.116 E59.14919
G1 X49.499 Y51.676 E59.21548
G1 X49.89 Y51.204 E59.28903
G1 X50.237 Y50.725 E59.36001
G1 X50.513 Y50.155 E59.43601
G1 X50.685 Y49.546 E59.51195
G1 X50.75 Y48.915 E59.58807
G1 X50.702 Y48.283 E59.66413
G1 X50.547 Y47.679 E59.73895
G1 X50.422 Y47.374 E59.77851
G1 X47.7 Y41.48 E60.55757
G1 X47.503 Y40.943 E60.62621
G1 X47.399 Y40.418 E60.69043
G1 X47.379 Y39.864 E60.75696
G1 X47.448 Y39.326 E60.82205
G1 X47.605 Y38.801 E60.8878
G1 X47.841 Y38.313 E60.95285
G1 X48.157 Y37.862 E61.01893
G1 X48.538 Y37.47 E61.08453
G1 X48.978 Y37.145 E61.15017
G1 X49.47 Y36.891 E61.21662
G1 X49.98 Y36.725 E61.28098
G1 X50.526 Y36.64 E61.34729
G1 X51.077 Y36.643 E61.41341
G1 X51.608 Y36.732 E61.47802
G1 X52.126 Y36.91 E61.54374
G1 X52.608 Y37.168 E61.60935
G1 X53.05 Y37.503 E61.6759
G1 X53.418 Y37.894 E61.74034
G1 X53.732 Y38.357 E61.80747
G1 X53.86 Y38.603 E61.84074
G1 X56.602 Y44.537 E62.62517
G1 X56.912 Y45.075 E62.69968
G0 F3600 X56.831 Y45.132
G0 X53.828 Y48.47
G0 X53.207 Y49.44
G0 X53.303 Y49.465
G1 F1800 X53.232 Y50.025 E62.76742
G1 X53.308 Y50.582 E62.83488
G1 X53.527 Y51.101 E62.90248
G1 X53.871 Y51.545 E62.96988
G1 X54.319 Y51.884 E63.03729
G1 X54.838 Y52.098 E63.10466
G1 X55.398 Y52.169 E63.1724
G1 X55.955 Y52.093 E63.23986
G1 X56.474 Y51.874 E63.30745
G1 X56.918 Y51.53 E63.37486
G1 X57.257 Y51.082 E63.44227
G1 X57.471 Y50.563 E63.50964
G1 X57.542 Y50.003 E63.57738
G1 X57.466 Y49.446 E63.64484
G1 X57.247 Y48.927 E63.71243
G1 X56.903 Y48.483 E63.77983
G1 X56.455 Y48.144 E63.84725
G1 X55.936 Y47.93 E63.91462
G1 X55.376 Y47.859 E63.98235
