;FLAVOR:UltiGCode
;TIME:6500
;MATERIAL:12943
;MATERIAL2:0
;NOZZLE_DIAMETER:0.4
;MINX:27.669
;MINY:29.405
;MINZ:0.3
;MAXX:94.118
;MAXY:94.378
;MAXZ:45
;Generated with Cura_SteamEngine 4.7.1
M82 ;absolute extrusion mode
G0 F3000 Y50 ;avoid prime blob
G92 E0
G92 E0
G10
;LAYER_COUNT:299
;LAYER:0
M107
G0 F3600 X29.303 Y38.172 Z0.3
;TYPE:SKIRT
G11
G1 F1800 X29.881 Y37.867 E0.07842
G1 X30.7 Y37.526 E0.18488
G1 X43.456 Y32.481 E1.83097
G1 X44.106 Y32.234 E1.91441
G1 X44.62 Y32.081 E1.97877
G1 X45.116 Y32.009 E2.03891
G1 X46.154 Y31.932 E2.16382
G1 X70.688 Y30.531 E5.11269
G1 X71.345 Y30.504 E5.1916
G1 X71.881 Y30.522 E5.25595
G1 X72.371 Y30.61 E5.3157
G1 X73.371 Y30.862 E5.43945
G1 X82.665 Y33.388 E6.59519
G1 X83.324 Y33.577 E6.67745
G1 X83.828 Y33.762 E6.74188
G1 X84.297 Y34.021 E6.80617
G1 X84.724 Y34.346 E6.87056
G1 X85.097 Y34.731 E6.93489
G1 X85.409 Y35.168 E6.99932
G1 X85.652 Y35.646 E7.06367
G1 X85.848 Y36.264 E7.14147
G1 X86.158 Y37.675 E7.31483
G1 X86.591 Y39.723 E7.56602
G1 X93.76 Y70.415 E11.3482
G1 X93.907 Y71.082 E11.43016
G1 X94.016 Y71.72 E11.50783
G1 X94.084 Y72.218 E11.56814
G1 X94.118 Y72.923 E11.65284
G1 X94.116 Y73.077 E11.67132
G1 X94.098 Y73.647 E11.73976
G1 X94.047 Y74.15 E11.80043
G1 X93.878 Y75.047 E11.90996
G1 X93.622 Y75.883 E12.01488
G1 X93.415 Y76.424 E12.08439
G1 X93.166 Y76.95 E12.15422
G1 X92.753 Y77.665 E12.25331
G1 X92.437 Y78.122 E12.31998
G1 X91.868 Y78.813 E12.4274
G1 X91.473 Y79.216 E12.49511
G1 X90.824 Y79.777 E12.59806
G1 X90.664 Y79.906 E12.62272
G1 X90.058 Y80.362 E12.71373
G1 X73.647 Y92.333 E15.15131
G1 X73.041 Y92.762 E15.24041
G1 X72.51 Y93.102 E15.31607
G1 X72.055 Y93.371 E15.3795
G1 X71.595 Y93.598 E15.44106
G1 X71.044 Y93.821 E15.51239
G1 X70.689 Y93.953 E15.55783
G1 X70.197 Y94.097 E15.61935
G1 X69.667 Y94.212 E15.68443
G1 X69.221 Y94.296 E15.73889
G1 X68.719 Y94.351 E15.79949
G1 X68.117 Y94.374 E15.87179
G1 X67.771 Y94.378 E15.91331
G1 X67.243 Y94.345 E15.97679
G1 X66.656 Y94.265 E16.04788
G1 X66.26 Y94.2 E16.09604
G1 X65.762 Y94.08 E16.15751
G1 X65.248 Y93.916 E16.22225
G1 X64.835 Y93.772 E16.27474
G1 X64.349 Y93.559 E16.33841
G1 X63.873 Y93.307 E16.40305
G1 X63.483 Y93.087 E16.45678
G1 X63.051 Y92.8 E16.51902
G1 X62.653 Y92.491 E16.57948
G1 X62.3 Y92.202 E16.63423
G1 X61.922 Y91.841 E16.69695
G1 X61.543 Y91.423 E16.76466
G1 X61.154 Y90.958 E16.83741
G1 X60.602 Y90.226 E16.94742
G1 X40.812 Y63.101 E20.97665
G1 X40.532 Y62.703 E21.03505
G1 X39.762 Y61.53 E21.20343
G1 X28.814 Y44.122 E23.67116
G1 X28.357 Y43.37 E23.77676
G1 X28.1 Y42.905 E23.84052
G1 X27.88 Y42.416 E23.90486
G1 X27.736 Y41.9 E23.96915
G1 X27.669 Y41.367 E24.03361
G1 X27.683 Y40.831 E24.09795
G1 X27.776 Y40.303 E24.16229
G1 X27.946 Y39.795 E24.22657
G1 X28.19 Y39.317 E24.29097
G1 X28.503 Y38.881 E24.35538
G1 X28.876 Y38.497 E24.41962
G1 X29.303 Y38.172 E24.48401
G0 F3600 X29.344 Y38.631
G1 F1800 X29.771 Y38.36 E24.5447
G1 X30.035 Y38.236 E24.5797
G1 X30.847 Y37.898 E24.68524
G1 X43.598 Y32.855 E26.33069
G1 X44.248 Y32.608 E26.41413
G1 X44.734 Y32.466 E26.47489
G1 X45.146 Y32.408 E26.52482
G1 X46.177 Y32.331 E26.64888
G1 X70.705 Y30.931 E29.59703
G1 X71.362 Y30.904 E29.67594
G1 X71.867 Y30.923 E29.73658
G1 X72.274 Y30.998 E29.78624
G1 X73.266 Y31.248 E29.90901
G1 X82.555 Y33.772 E31.0641
G1 X83.214 Y33.961 E31.14637
G1 X83.688 Y34.138 E31.20709
G1 X84.127 Y34.388 E31.26771
G1 X84.522 Y34.704 E31.32841
G1 X84.862 Y35.078 E31.38906
G1 X85.139 Y35.501 E31.44974
G1 X85.346 Y35.962 E31.51038
G1 X85.457 Y36.35 E31.55881
G1 X85.767 Y37.758 E31.73182
G1 X86.212 Y39.861 E31.98976
G1 X93.369 Y70.501 E35.76554
G1 X93.516 Y71.168 E35.8475
G1 X93.621 Y71.785 E35.9226
G1 X93.715 Y72.656 E36.02773
G1 X93.716 Y73.064 E36.07669
G1 X93.698 Y73.634 E36.14512
G1 X93.585 Y74.472 E36.24659
G1 X93.486 Y74.968 E36.30729
G1 X93.244 Y75.752 E36.40575
G1 X93.042 Y76.279 E36.47347
G1 X92.816 Y76.756 E36.53681
G1 X92.408 Y77.462 E36.63466
G1 X91.901 Y78.152 E36.73741
G1 X91.562 Y78.555 E36.80061
G1 X91.207 Y78.917 E36.86145
G1 X90.566 Y79.472 E36.96319
G1 X90.423 Y79.586 E36.98514
G1 X89.779 Y80.07 E37.08181
G1 X73.416 Y92.007 E39.51234
G1 X72.81 Y92.436 E39.60143
G1 X72.298 Y92.763 E39.67434
G1 X71.853 Y93.026 E39.73637
G1 X70.998 Y93.41 E39.84884
G1 X70.113 Y93.706 E39.96082
G1 X69.583 Y93.821 E40.0259
G1 X68.703 Y93.951 E40.13265
G1 X68.112 Y93.974 E40.20362
G1 X67.297 Y93.949 E40.30147
G1 X66.71 Y93.869 E40.37256
G1 X65.883 Y93.699 E40.47387
G1 X65.369 Y93.535 E40.53862
G1 X64.536 Y93.205 E40.64613
G1 X63.978 Y92.909 E40.72193
G1 X63.297 Y92.484 E40.81826
G1 X62.899 Y92.175 E40.87873
G1 X62.218 Y91.572 E40.98788
G1 X61.839 Y91.154 E41.05559
G1 X61.473 Y90.718 E41.1239
G1 X60.925 Y89.99 E41.23324
G1 X41.138 Y62.87 E45.26177
G1 X40.866 Y62.483 E45.31854
G1 X40.1 Y61.317 E45.48595
G1 X29.155 Y43.914 E47.95299
G1 X28.698 Y43.162 E48.05858
G1 X28.452 Y42.715 E48.11981
G1 X28.247 Y42.253 E48.18046
G1 X28.117 Y41.764 E48.24118
G1 X28.066 Y41.261 E48.30185
G1 X28.095 Y40.756 E48.36255
G1 X28.202 Y40.262 E48.4232
G1 X28.387 Y39.791 E48.48393
G1 X28.643 Y39.356 E48.5445
G1 X28.965 Y38.966 E48.60519
G1 X29.344 Y38.631 E48.66589
G10
;MESH:t_base_linker1.stl
G0 F3600 X31.442 Y40.39
G0 X31.838 Y41.392
G0 X32.34 Y41.395
;TYPE:WALL-INNER
G11
G1 F1800 X45.54 Y36.173 E50.36933
G1 X70.723 Y34.735 E53.39622
G1 X71.457 Y34.695 E53.48443
G1 X81.758 Y37.492 E54.7653
G1 X89.816 Y71.994 E59.01696
G1 X89.924 Y72.731 E59.10635
G1 X89.912 Y73.462 E59.19408
G1 X89.776 Y74.187 E59.2826
G1 X89.524 Y74.871 E59.37007
G1 X89.158 Y75.509 E59.45833
G1 X88.689 Y76.082 E59.54719
G1 X88.13 Y76.569 E59.63616
G1 X70.624 Y89.341 E62.23654
G1 X69.963 Y89.741 E62.32925
G1 X69.245 Y90.019 E62.42165
G1 X68.499 Y90.168 E62.51294
G1 X67.728 Y90.187 E62.60548
G1 X66.971 Y90.071 E62.69738
G1 X66.25 Y89.826 E62.78876
G1 X65.572 Y89.454 E62.88156
G1 X64.975 Y88.977 E62.97326
G1 X64.461 Y88.389 E63.06698
G1 X43.844 Y60.131 E67.26454
G1 X32.244 Y41.686 E69.87927
G1 X32.117 Y41.483 E69.908
G1 X32.34 Y41.395 E69.9257
G0 F3600 X51.664 Y60.291
G1 F1800 X51.018 Y60.166 E70.00465
G1 X50.365 Y60.236 E70.08346
G1 X49.76 Y60.495 E70.16244
G1 X49.259 Y60.921 E70.24135
G1 X48.906 Y61.476 E70.32028
G1 X48.732 Y62.11 E70.39917
G1 X48.753 Y62.768 E70.47817
G1 X48.959 Y63.369 E70.55441
G1 X49.133 Y63.649 E70.59397
G1 X53.888 Y70.166 E71.56205
G1 X54.318 Y70.601 E71.63545
G1 X54.898 Y70.911 E71.71437
G1 X55.543 Y71.038 E71.79325
G1 X56.197 Y70.968 E71.87218
G1 X56.802 Y70.709 E71.95115
G1 X57.304 Y70.282 E72.03024
G1 X57.657 Y69.726 E72.10927
G1 X57.83 Y69.092 E72.18813
G1 X57.809 Y68.435 E72.26701
G1 X57.603 Y67.834 E72.34325
G1 X57.429 Y67.554 E72.38281
G1 X52.674 Y61.037 E73.35088
G1 X52.244 Y60.602 E73.42428
G1 X51.664 Y60.291 E73.50326
G0 F3600 X60.059 Y65.329
G1 F1800 X59.892 Y65.894 E73.57396
G1 X59.773 Y66.443 E73.64137
G1 X59.694 Y66.999 E73.70876
G1 X59.657 Y67.559 E73.7761
G1 X59.66 Y68.121 E73.84354
G1 X59.706 Y68.681 E73.91097
G1 X59.792 Y69.235 E73.97825
G1 X59.915 Y69.765 E74.04354
G1 X60.087 Y70.32 E74.11326
G1 X60.295 Y70.841 E74.18058
G1 X60.538 Y71.347 E74.24794
G1 X60.82 Y71.833 E74.31537
G1 X61.137 Y72.298 E74.3829
G1 X61.486 Y72.737 E74.4502
G1 X61.867 Y73.148 E74.51745
G1 X62.278 Y73.531 E74.58486
G1 X62.716 Y73.884 E74.65237
G1 X63.179 Y74.203 E74.71984
G1 X63.663 Y74.486 E74.78712
G1 X64.169 Y74.733 E74.85469
G1 X64.689 Y74.941 E74.92189
G1 X65.226 Y75.112 E74.98952
G1 X65.719 Y75.228 E75.0503
G1 X65.752 Y75.238 E75.05444
G1 X66.326 Y75.33 E75.1242
G1 X66.886 Y75.378 E75.19164
G1 X67.447 Y75.384 E75.25897
G1 X68.009 Y75.349 E75.32654
G1 X68.565 Y75.272 E75.39389
G1 X69.114 Y75.155 E75.46125
G1 X69.653 Y74.998 E75.52862
G1 X70.179 Y74.801 E75.59602
G1 X70.689 Y74.566 E75.66341
G1 X71.18 Y74.294 E75.73076
G1 X71.65 Y73.986 E75.7982
G1 X72.097 Y73.643 E75.86581
G1 X72.515 Y73.27 E75.93303
G1 X72.907 Y72.868 E76.00041
G1 X73.266 Y72.435 E76.06791
G1 X73.593 Y71.979 E76.13524
G1 X73.885 Y71.499 E76.20267
G1 X74.141 Y70.999 E76.27007
G1 X74.359 Y70.482 E76.3374
G1 X74.54 Y69.95 E76.40484
G1 X74.68 Y69.405 E76.47236
G1 X74.768 Y68.908 E76.53293
G1 X74.777 Y68.873 E76.53726
G1 X74.83 Y68.347 E76.6007
G1 X74.836 Y68.312 E76.60496
G1 X74.853 Y67.734 E76.67435
G1 X74.831 Y67.19 E76.73969
G1 X74.767 Y66.63 E76.80733
G1 X74.656 Y66.063 E76.87666
G1 X74.508 Y65.519 E76.94431
G1 X74.315 Y64.976 E77.01346
G1 X74.095 Y64.476 E77.07901
G1 X73.831 Y63.981 E77.14633
G1 X73.533 Y63.505 E77.21372
G1 X73.2 Y63.053 E77.2811
G1 X72.834 Y62.626 E77.34858
G1 X72.437 Y62.228 E77.41604
G1 X72.013 Y61.861 E77.48333
G1 X71.562 Y61.525 E77.55082
G1 X71.088 Y61.225 E77.61814
G1 X70.593 Y60.958 E77.68563
G1 X70.079 Y60.73 E77.7531
G1 X69.55 Y60.541 E77.82051
G1 X69.01 Y60.392 E77.88773
G1 X68.459 Y60.282 E77.95516
G1 X67.907 Y60.214 E78.0219
G1 X67.347 Y60.187 E78.08918
G1 X66.78 Y60.2 E78.15724
G1 X66.236 Y60.253 E78.22282
G1 X65.683 Y60.349 E78.29018
G1 X65.122 Y60.491 E78.35962
G1 X64.589 Y60.669 E78.42705
G1 X64.071 Y60.884 E78.49435
G1 X63.569 Y61.139 E78.56192
G1 X63.089 Y61.429 E78.62922
G1 X62.63 Y61.753 E78.69664
G1 X62.198 Y62.112 E78.76404
G1 X61.792 Y62.501 E78.83151
G1 X61.417 Y62.918 E78.89881
G1 X61.072 Y63.363 E78.96638
G1 X60.763 Y63.832 E79.03378
G1 X60.489 Y64.322 E79.10115
G1 X60.252 Y64.831 E79.16852
G1 X60.078 Y65.291 E79.22754
G1 X60.059 Y65.329 E79.23264
G0 F3600 X65.212 Y49.756
G0 X66 Y48.846
G0 X67.821 Y48.503
G1 F1800 X67.175 Y48.378 E79.3116
G1 X66.522 Y48.448 E79.3904
G1 X65.917 Y48.707 E79.46938
G1 X65.416 Y49.134 E79.54837
G1 X65.063 Y49.689 E79.6273
G1 X64.889 Y50.323 E79.70619
G1 X64.91 Y50.98 E79.78507
G1 X65.116 Y51.58 E79.8612
G1 X65.29 Y51.861 E79.90086
G1 X70.044 Y58.378 E80.86887
G1 X70.475 Y58.814 E80.94243
G1 X71.055 Y59.125 E81.02141
G1 X71.701 Y59.25 E81.10037
G1 X72.354 Y59.18 E81.17918
G1 X72.959 Y58.921 E81.25815
G1 X73.461 Y58.495 E81.33716
G1 X73.814 Y57.939 E81.41619
G1 X73.988 Y57.304 E81.4952
G1 X73.966 Y56.647 E81.57408
G1 X73.76 Y56.048 E81.65009
G1 X73.586 Y55.767 E81.68975
G1 X68.831 Y49.25 E82.65783
G1 X68.401 Y48.815 E82.73123
G1 X67.821 Y48.503 E82.81026
G0 F3600 X68.706 Y49.352
G0 X73.124 Y55.442
G0 X79.609 Y64.66
G1 F1800 X78.963 Y64.535 E82.88922
G1 X78.31 Y64.605 E82.96803
G1 X77.704 Y64.864 E83.04711
G1 X77.203 Y65.291 E83.1261
G1 X76.85 Y65.846 E83.20503
G1 X76.676 Y66.481 E83.28404
G1 X76.698 Y67.139 E83.36305
G1 X76.904 Y67.739 E83.43917
G1 X77.078 Y68.019 E83.47873
G1 X81.833 Y74.536 E84.44681
G1 X82.263 Y74.971 E84.52021
G1 X82.843 Y75.282 E84.59918
G1 X83.489 Y75.407 E84.67814
G1 X84.142 Y75.337 E84.75695
G1 X84.747 Y75.078 E84.83592
G1 X85.248 Y74.651 E84.91491
G1 X85.601 Y74.096 E84.99384
G1 X85.775 Y73.462 E85.07274
G1 X85.754 Y72.805 E85.15162
G1 X85.548 Y72.204 E85.22786
G1 X85.374 Y71.924 E85.26741
G1 X80.619 Y65.407 E86.23549
G1 X80.188 Y64.972 E86.30897
G1 X79.609 Y64.66 E86.3879
G0 F3600 X78.35 Y64.763
G0 X77.328 Y65.394
G0 X69.279 Y85.586
G0 X68.574 Y86.56
G0 X66.779 Y86.997
G1 F1800 X67.43 Y87.097 E86.46694
G1 X68.082 Y86.993 E86.54616
G1 X68.669 Y86.692 E86.62533
G1 X69.133 Y86.226 E86.70424
G1 X69.433 Y85.637 E86.78356
G1 X69.533 Y84.986 E86.86259
G1 X69.429 Y84.335 E86.94171
G1 X69.151 Y83.791 E87.01502
G1 X64.379 Y77.251 E87.98652
G1 X63.946 Y76.82 E88.05984
G1 X63.359 Y76.522 E88.13883
G1 X62.707 Y76.419 E88.21804
G1 X62.056 Y76.525 E88.29719
G1 X61.47 Y76.825 E88.37619
G1 X61.004 Y77.292 E88.45536
G1 X60.706 Y77.881 E88.53457
G1 X60.604 Y78.531 E88.61353
G1 X60.708 Y79.183 E88.69275
G1 X60.986 Y79.726 E88.76596
G1 X65.758 Y86.266 E89.73747
G1 X66.19 Y86.697 E89.81069
G1 X66.779 Y86.997 E89.89001
G0 F3600 X65.88 Y86.161
G0 X61.122 Y79.64
G0 X60.767 Y78.53
G0 X61.136 Y77.387
G0 X61.872 Y76.801
G0 X62.66 Y76.528
G0 X62.708 Y76.824
;TYPE:WALL-OUTER
G1 F1800 X62.182 Y76.91 E89.95397
G1 X61.708 Y77.152 E90.01784
G1 X61.332 Y77.529 E90.08173
G1 X61.091 Y78.005 E90.14575
G1 X61.009 Y78.53 E90.20952
G1 X61.093 Y79.057 E90.27356
G1 X61.328 Y79.516 E90.33544
G1 X66.062 Y86.005 E91.29931
G1 X66.428 Y86.369 E91.36126
G1 X66.903 Y86.611 E91.42523
G1 X67.429 Y86.692 E91.48909
G1 X67.956 Y86.608 E91.55313
G1 X68.43 Y86.365 E91.61705
G1 X68.805 Y85.988 E91.68086
G1 X69.047 Y85.513 E91.74483
G1 X69.128 Y84.987 E91.80869
G1 X69.044 Y84.461 E91.87261
G1 X68.809 Y84.001 E91.9346
G1 X64.075 Y77.512 E92.89847
G1 X63.709 Y77.148 E92.96042
G1 X63.234 Y76.907 E93.02433
G1 X62.708 Y76.824 E93.08824
G0 F3600 X62.511 Y76.856
G0 X62.463 Y76.56
G0 X55.503 Y70.928
G0 X55.561 Y70.634
G1 F1800 X56.095 Y70.577 E93.15268
G1 X56.589 Y70.365 E93.21719
G1 X56.999 Y70.016 E93.2818
G1 X57.287 Y69.563 E93.34621
G1 X57.428 Y69.045 E93.41064
G1 X57.411 Y68.508 E93.47511
G1 X57.239 Y68.007 E93.53867
G1 X57.097 Y67.778 E93.57101
G1 X52.369 Y61.297 E94.53368
G1 X52.002 Y60.926 E94.59631
G1 X51.528 Y60.672 E94.66084
G1 X51.001 Y60.57 E94.72525
G1 X50.467 Y60.627 E94.7897
G1 X49.973 Y60.839 E94.8542
G1 X49.564 Y61.187 E94.91865
G1 X49.276 Y61.64 E94.98306
G1 X49.134 Y62.158 E95.04751
G1 X49.151 Y62.695 E95.11199
G1 X49.323 Y63.196 E95.17555
G1 X49.465 Y63.425 E95.20789
G1 X54.193 Y69.906 E96.17056
G1 X54.56 Y70.277 E96.23318
G1 X55.034 Y70.53 E96.29766
G1 X55.561 Y70.634 E96.36212
G0 F3600 X55.759 Y70.613
G0 X55.79 Y70.911
G0 X56.717 Y70.571
G0 X60.146 Y65.391
G0 X60.433 Y65.476
G1 F1800 X60.28 Y65.993 E96.42682
G1 X60.167 Y66.514 E96.49079
G1 X60.092 Y67.04 E96.55455
G1 X60.057 Y67.571 E96.61841
G1 X60.06 Y68.104 E96.68237
G1 X60.103 Y68.634 E96.74618
G1 X60.185 Y69.159 E96.80994
G1 X60.301 Y69.661 E96.87177
G1 X60.464 Y70.186 E96.93774
G1 X60.661 Y70.68 E97.00156
G1 X60.892 Y71.16 E97.06548
G1 X61.159 Y71.62 E97.1293
G1 X61.459 Y72.06 E97.19321
G1 X61.79 Y72.476 E97.257
G1 X62.151 Y72.866 E97.32078
G1 X62.54 Y73.229 E97.38462
G1 X62.955 Y73.563 E97.44855
G1 X63.394 Y73.865 E97.51249
G1 X63.852 Y74.133 E97.57617
G1 X64.331 Y74.367 E97.64014
G1 X64.824 Y74.564 E97.70385
G1 X65.332 Y74.726 E97.76783
G1 X65.82 Y74.84 E97.82797
G1 X65.843 Y74.847 E97.83085
G1 X66.375 Y74.933 E97.89552
G1 X66.905 Y74.978 E97.95935
G1 X67.437 Y74.984 E98.0232
G1 X67.969 Y74.951 E98.08716
G1 X68.496 Y74.878 E98.151
G1 X69.016 Y74.767 E98.21481
G1 X69.527 Y74.618 E98.27868
G1 X70.025 Y74.432 E98.34247
G1 X70.508 Y74.209 E98.40631
G1 X70.973 Y73.951 E98.47013
G1 X71.419 Y73.659 E98.5341
G1 X71.842 Y73.335 E98.59804
G1 X72.238 Y72.981 E98.66178
G1 X72.609 Y72.6 E98.72559
G1 X72.949 Y72.19 E98.78951
G1 X73.259 Y71.758 E98.85331
G1 X73.536 Y71.304 E98.91713
G1 X73.778 Y70.83 E98.981
G1 X73.985 Y70.34 E99.04483
G1 X74.156 Y69.836 E99.1087
G1 X74.289 Y69.32 E99.17264
G1 X74.376 Y68.828 E99.23259
G1 X74.382 Y68.804 E99.23556
G1 X74.432 Y68.307 E99.2955
G1 X74.437 Y68.275 E99.29939
G1 X74.453 Y67.736 E99.3641
G1 X74.432 Y67.221 E99.42595
G1 X74.371 Y66.691 E99.48997
G1 X74.266 Y66.154 E99.55563
G1 X74.126 Y65.639 E99.61967
G1 X73.943 Y65.124 E99.68526
G1 X73.735 Y64.651 E99.74727
G1 X73.485 Y64.181 E99.81115
G1 X73.202 Y63.73 E99.87504
G1 X72.887 Y63.302 E99.93881
G1 X72.54 Y62.898 E100.00272
G1 X72.164 Y62.521 E100.06661
G1 X71.762 Y62.173 E100.13042
G1 X71.335 Y61.855 E100.19431
G1 X70.886 Y61.57 E100.25812
G1 X70.417 Y61.318 E100.32201
G1 X69.93 Y61.102 E100.38594
G1 X69.429 Y60.923 E100.44979
G1 X68.917 Y60.781 E100.51354
G1 X68.395 Y60.677 E100.57742
G1 X67.873 Y60.613 E100.64052
G1 X67.342 Y60.587 E100.70432
G1 X66.804 Y60.6 E100.7689
G1 X66.29 Y60.65 E100.83087
G1 X65.766 Y60.741 E100.89469
G1 X65.234 Y60.875 E100.96053
G1 X64.729 Y61.044 E101.02443
G1 X64.238 Y61.248 E101.08823
G1 X63.763 Y61.489 E101.15215
G1 X63.308 Y61.764 E101.21595
G1 X62.874 Y62.071 E101.27974
G1 X62.464 Y62.411 E101.34366
G1 X62.08 Y62.779 E101.40748
G1 X61.724 Y63.175 E101.47138
G1 X61.398 Y63.596 E101.53527
G1 X61.105 Y64.04 E101.59911
G1 X60.845 Y64.504 E101.66294
G1 X60.621 Y64.986 E101.72672
G1 X60.444 Y65.454 E101.78676
G1 X60.433 Y65.476 E101.78971
G0 F3600 X60.377 Y65.667
G0 X60.09 Y65.581
G0 X65.212 Y49.756
G0 X66 Y48.846
G0 X66.904 Y48.57
G0 X67.742 Y48.59
G0 X67.685 Y48.884
G1 F1800 X67.158 Y48.782 E101.85412
G1 X66.624 Y48.839 E101.91857
G1 X66.13 Y49.051 E101.98308
