;FLAVOR:UltiGCode
;TIME:3602
;MATERIAL:4526
;MATERIAL2:0
;NOZZLE_DIAMETER:0.4
;MINX:37.443
;MINY:41.603
;MINZ:0.3
;MAXX:82.563
;MAXY:78.402
;MAXZ:29.8
;Generated with Cura_SteamEngine 4.5.0
M82 ;absolute extrusion mode

G92 E0
G92 E0
G10
;LAYER_COUNT:296
;LAYER:0
M107
G0 F3600 X39.105 Y64.62 Z0.3
;TYPE:SKIRT
G11
G1 F1800 X39.694 Y64.27 E0.08222
G1 X40.321 Y63.966 E0.16583
G1 X42.902 Y62.76 E0.5077
G1 X45.3 Y61.557 E0.82964
G1 X47.714 Y60.26 E1.15848
G1 X50.032 Y58.926 E1.47942
G1 X52.398 Y57.477 E1.81235
G1 X54.65 Y56.008 E2.135
G1 X56.859 Y54.475 E2.45766
G1 X59.076 Y52.842 E2.78808
G1 X61.197 Y51.187 E3.11092
G1 X63.309 Y49.437 E3.44005
G1 X65.323 Y47.673 E3.76133
G1 X67.341 Y45.802 E4.09156
G1 X69.737 Y43.434 E4.4958
G1 X70.353 Y42.803 E4.60162
G1 X70.775 Y42.427 E4.66945
G1 X71.247 Y42.115 E4.73734
G1 X71.757 Y41.873 E4.80508
G1 X72.297 Y41.705 E4.87295
G1 X72.855 Y41.614 E4.94079
G1 X73.42 Y41.603 E5.0086
G1 X73.981 Y41.672 E5.07643
G1 X74.527 Y41.82 E5.14432
G1 X75.047 Y42.043 E5.21221
G1 X75.727 Y42.486 E5.3096
G1 X76.434 Y43.057 E5.41865
G1 X80.641 Y46.586 E6.07759
G1 X81.178 Y47.049 E6.16268
G1 X81.579 Y47.448 E6.23056
G1 X81.919 Y47.9 E6.29843
G1 X82.192 Y48.395 E6.36627
G1 X82.393 Y48.923 E6.43406
G1 X82.518 Y49.475 E6.50198
G1 X82.563 Y50.038 E6.56975
G1 X82.528 Y50.602 E6.63756
G1 X82.414 Y51.156 E6.70544
G1 X82.224 Y51.688 E6.77323
G1 X81.96 Y52.188 E6.84108
G1 X81.561 Y52.741 E6.92291
G1 X72.492 Y63.557 E8.6167
G1 X72.034 Y64.088 E8.70085
G1 X71.636 Y64.489 E8.76865
G1 X71.185 Y64.829 E8.83643
G1 X69.932 Y65.643 E9.01573
G1 X67.309 Y67.33 E9.38997
G1 X65.093 Y68.854 E9.71271
G1 X62.901 Y70.455 E10.03844
G1 X60.36 Y72.432 E10.42478
G1 X59.891 Y72.747 E10.49257
G1 X59.325 Y73.014 E10.56767
G1 X58.646 Y73.272 E10.65483
G1 X46.08 Y77.852 E12.25979
G1 X45.153 Y78.18 E12.37779
G1 X44.608 Y78.33 E12.44562
G1 X44.047 Y78.402 E12.51349
G1 X43.482 Y78.394 E12.5813
G1 X42.924 Y78.306 E12.64909
G1 X42.383 Y78.141 E12.71696
G1 X41.871 Y77.901 E12.78481
G1 X41.398 Y77.591 E12.85268
G1 X40.974 Y77.217 E12.92052
G1 X40.606 Y76.788 E12.98835
G1 X40.303 Y76.311 E13.05616
G1 X40.02 Y75.678 E13.13937
G1 X37.797 Y69.584 E13.91778
G1 X37.506 Y68.6 E14.04092
G1 X37.443 Y68.038 E14.10878
G1 X37.459 Y67.473 E14.17661
G1 X37.554 Y66.916 E14.24441
G1 X37.727 Y66.378 E14.31223
G1 X37.975 Y65.869 E14.38017
G1 X38.291 Y65.401 E14.44793
G1 X38.671 Y64.982 E14.51581
G1 X39.105 Y64.62 E14.58363
G0 F3600 X39.545 Y64.808
G1 F1800 X40.495 Y64.326 E14.71147
G1 X43.058 Y63.128 E15.05097
G1 X45.505 Y61.901 E15.37945
G1 X47.882 Y60.623 E15.70331
G1 X50.261 Y59.255 E16.03262
G1 X52.604 Y57.82 E16.36232
G1 X54.866 Y56.344 E16.68644
G1 X57.102 Y54.793 E17.01299
G1 X59.314 Y53.163 E17.34271
G1 X61.452 Y51.494 E17.66819
G1 X63.544 Y49.762 E17.9941
G1 X65.633 Y47.932 E18.32737
G1 X67.596 Y46.113 E18.64851
G1 X70.021 Y43.715 E19.05776
G1 X70.639 Y43.082 E19.16392
G1 X71.041 Y42.728 E19.2282
G1 X71.491 Y42.437 E19.29251
G1 X71.98 Y42.216 E19.3569
G1 X72.496 Y42.07 E19.42125
G1 X73.028 Y42.003 E19.4856
G1 X73.564 Y42.015 E19.54993
G1 X74.093 Y42.107 E19.61437
G1 X74.602 Y42.276 E19.67872
G1 X75.08 Y42.519 E19.74307
G1 X76.183 Y43.368 E19.9101
G1 X80.384 Y46.892 E20.5681
G1 X80.917 Y47.352 E20.65259
G1 X81.295 Y47.732 E20.71691
G1 X81.613 Y48.164 E20.78128
G1 X81.863 Y48.638 E20.84558
G1 X82.04 Y49.144 E20.90991
G1 X82.14 Y49.671 E20.97428
G1 X82.161 Y50.207 E21.03865
G1 X82.101 Y50.74 E21.10301
G1 X81.963 Y51.258 E21.16734
G1 X81.75 Y51.75 E21.23168
G1 X81.426 Y52.259 E21.30408
G1 X72.186 Y63.3 E23.03175
G1 X71.731 Y63.827 E23.1153
G1 X71.352 Y64.206 E23.17962
G1 X69.714 Y65.308 E23.41652
G1 X67.11 Y66.981 E23.78794
G1 X64.852 Y68.535 E24.11687
G1 X62.665 Y70.132 E24.44183
G1 X60.115 Y72.116 E24.82954
G1 X59.668 Y72.413 E24.89394
G1 X59.183 Y72.64 E24.9582
G1 X58.504 Y72.898 E25.04536
G1 X45.943 Y77.476 E26.64967
G1 X45.02 Y77.802 E26.76714
G1 X44.502 Y77.943 E26.83156
G1 X43.97 Y78.005 E26.89583
G1 X43.434 Y77.987 E26.96019
G1 X42.906 Y77.89 E27.02461
G1 X42.399 Y77.715 E27.08897
G1 X41.924 Y77.467 E27.15327
G1 X41.49 Y77.152 E27.21762
G1 X41.109 Y76.775 E27.28194
G1 X40.787 Y76.346 E27.34631
G1 X40.484 Y75.76 E27.42547
G1 X40.251 Y75.157 E27.50305
G1 X38.173 Y69.447 E28.23221
G1 X37.895 Y68.5 E28.35065
G1 X37.84 Y67.966 E28.41507
G1 X37.866 Y67.43 E28.47946
G1 X37.971 Y66.905 E28.54371
G1 X38.152 Y66.4 E28.60808
G1 X38.407 Y65.928 E28.67246
G1 X38.729 Y65.499 E28.73683
G1 X39.111 Y65.123 E28.80115
G1 X39.545 Y64.808 E28.8655
G0 F3600 X39.552 Y65.285
G1 F1800 X40.043 Y64.99 E28.93424
G1 X40.67 Y64.686 E29.01786
G1 X43.228 Y63.491 E29.35666
G1 X45.666 Y62.268 E29.68397
G1 X48.091 Y60.965 E30.01431
G1 X50.463 Y59.6 E30.34272
G1 X52.826 Y58.153 E30.67522
G1 X55.091 Y56.675 E30.99977
G1 X57.345 Y55.112 E31.32892
G1 X59.552 Y53.486 E31.65787
G1 X61.687 Y51.819 E31.98292
G1 X63.817 Y50.055 E32.31479
G1 X65.885 Y48.243 E32.64474
G1 X67.882 Y46.392 E32.97148
G1 X70.306 Y43.996 E33.38048
G1 X70.925 Y43.362 E33.48681
G1 X71.306 Y43.029 E33.54753
G1 X71.734 Y42.761 E33.60813
G1 X72.199 Y42.563 E33.66878
G1 X72.69 Y42.441 E33.72949
G1 X73.194 Y42.398 E33.79019
G1 X73.698 Y42.435 E33.85083
G1 X74.19 Y42.55 E33.91146
G1 X74.658 Y42.742 E33.97217
G1 X75.225 Y43.109 E34.05321
G1 X75.932 Y43.68 E34.16227
G1 X80.127 Y47.199 E34.81933
G1 X80.655 Y47.655 E34.90305
G1 X81.01 Y48.014 E34.96364
G1 X81.305 Y48.426 E35.02444
G1 X81.53 Y48.878 E35.08503
G1 X81.682 Y49.36 E35.14568
G1 X81.756 Y49.86 E35.20633
G1 X81.75 Y50.366 E35.26706
G1 X81.664 Y50.864 E35.3277
G1 X81.502 Y51.343 E35.38838
G1 X81.265 Y51.79 E35.44909
G1 X80.925 Y52.256 E35.51832
G1 X71.879 Y63.043 E37.20767
G1 X71.429 Y63.566 E37.29047
G1 X71.069 Y63.921 E37.35114
G1 X69.496 Y64.972 E37.57815
G1 X66.889 Y66.648 E37.95007
G1 X64.619 Y68.21 E38.28073
G1 X62.433 Y69.806 E38.60552
G1 X59.869 Y71.801 E38.99537
G1 X59.447 Y72.079 E39.05601
G1 X58.362 Y72.524 E39.19673
G1 X45.806 Y77.101 E40.80044
G1 X44.887 Y77.425 E40.91737
G1 X44.398 Y77.556 E40.97812
G1 X43.895 Y77.607 E41.03879
G1 X43.391 Y77.579 E41.09936
G1 X42.896 Y77.472 E41.16013
G1 X42.426 Y77.288 E41.2207
G1 X41.989 Y77.032 E41.28148
G1 X41.599 Y76.711 E41.34209
G1 X41.264 Y76.332 E41.40279
G1 X40.993 Y75.905 E41.46348
G1 X40.761 Y75.378 E41.53258
G1 X38.549 Y69.31 E42.30761
G1 X38.284 Y68.401 E42.42123
G1 X38.239 Y67.897 E42.48195
G1 X38.275 Y67.393 E42.54258
G1 X38.389 Y66.901 E42.60319
G1 X38.58 Y66.432 E42.66396
G1 X38.842 Y66 E42.72458
G1 X39.168 Y65.614 E42.78521
G1 X39.552 Y65.285 E42.84589
G10
;MESH:motor_holder_6.stl
G0 F3600 X41.771 Y67.01
G0 X42.208 Y68.21
G0 X46.27 Y67.065
G0 X46.273 Y67.164
;TYPE:WALL-INNER
G11
G1 F1800 X46.172 Y67.179 E42.85815
G1 X45.735 Y67.242 E42.91113
G1 X45.225 Y67.43 E42.97635
G1 X44.871 Y67.652 E43.0265
G1 X44.763 Y67.72 E43.04181
G1 X44.375 Y68.1 E43.10698
G1 X44.072 Y68.552 E43.17228
G1 X43.87 Y69.059 E43.23777
G1 X43.779 Y69.595 E43.30301
G1 X43.8 Y70.139 E43.36834
G1 X43.934 Y70.666 E43.43359
G1 X44.175 Y71.153 E43.4988
G1 X44.512 Y71.58 E43.56407
G1 X44.929 Y71.929 E43.62933
G1 X45.413 Y72.183 E43.69492
G1 X45.936 Y72.329 E43.76008
G1 X46.479 Y72.365 E43.82538
G1 X46.567 Y72.352 E43.83606
G1 X47.017 Y72.287 E43.89062
G1 X47.528 Y72.099 E43.95596
G1 X47.892 Y71.869 E44.00762
G1 X47.988 Y71.808 E44.02127
G1 X48.377 Y71.429 E44.08645
G1 X48.68 Y70.976 E44.15185
G1 X48.881 Y70.47 E44.21718
G1 X48.973 Y69.934 E44.28244
G1 X48.951 Y69.39 E44.34777
G1 X48.817 Y68.863 E44.41303
G1 X48.577 Y68.376 E44.47818
G1 X48.239 Y67.949 E44.54353
G1 X47.822 Y67.6 E44.60878
G1 X47.34 Y67.346 E44.67416
G1 X46.816 Y67.2 E44.73944
G1 X46.273 Y67.164 E44.80474
G0 F3600 X46.27 Y67.065
G0 X47.354 Y67.309
G0 X51.951 Y69.881
G0 X51.988 Y69.789
G1 F1800 X52.513 Y69.935 E44.87013
G1 X53.056 Y69.971 E44.93543
G1 X53.131 Y69.96 E44.94453
G1 X53.595 Y69.893 E45.00079
G1 X54.105 Y69.705 E45.06601
G1 X54.478 Y69.469 E45.11898
G1 X54.566 Y69.414 E45.13143
G1 X54.955 Y69.035 E45.1966
G1 X55.258 Y68.582 E45.262
G1 X55.459 Y68.076 E45.32734
G1 X55.551 Y67.54 E45.3926
G1 X55.529 Y66.996 E45.45793
G1 X55.395 Y66.47 E45.52307
G1 X55.155 Y65.981 E45.58844
G1 X54.817 Y65.554 E45.65379
G1 X54.4 Y65.206 E45.71896
G1 X53.918 Y64.952 E45.78434
G1 X53.394 Y64.806 E45.84962
G1 X52.851 Y64.77 E45.91492
G1 X52.745 Y64.786 E45.92778
G1 X52.313 Y64.848 E45.98015
G1 X51.803 Y65.036 E46.04538
G1 X51.448 Y65.258 E46.09562
G1 X51.341 Y65.326 E46.11084
G1 X50.953 Y65.706 E46.17601
G1 X50.65 Y66.158 E46.24131
G1 X50.448 Y66.665 E46.3068
G1 X50.357 Y67.201 E46.37204
G1 X50.378 Y67.745 E46.43737
G1 X50.512 Y68.272 E46.50262
G1 X50.753 Y68.759 E46.56782
G1 X51.09 Y69.186 E46.6331
G1 X51.507 Y69.534 E46.69828
G1 X51.988 Y69.789 E46.76361
G0 F3600 X51.951 Y69.881
G0 X53.057 Y70.01
G0 X54.122 Y69.74
G0 X54.813 Y69.228
G0 X64.067 Y57.569
G0 X63.997 Y57.499
G1 F1800 X68.415 Y52.234 E47.58837
G1 X68.5 Y52.133 E47.60421
G1 X68.848 Y51.718 E47.66921
G1 X69.196 Y51.304 E47.73411
G1 X69.295 Y51.187 E47.7525
G1 X73.291 Y46.424 E48.49857
G1 X77.735 Y50.152 E49.19464
G1 X73.741 Y54.914 E49.94046
G1 X73.656 Y55.015 E49.95631
G1 X73.308 Y55.429 E50.02121
G1 X72.96 Y55.844 E50.0862
G1 X72.862 Y55.961 E50.10451
G1 X68.809 Y60.791 E50.86114
G1 X68.734 Y60.745 E50.87169
G1 X68.132 Y60.49 E50.95015
G1 X67.502 Y60.323 E51.02836
G1 X66.854 Y60.246 E51.10667
G1 X66.202 Y60.261 E51.18493
G1 X65.556 Y60.368 E51.2635
G1 X64.936 Y60.568 E51.34168
G1 X64.348 Y60.851 E51.41999
G1 X63.825 Y61.204 E51.4957
G1 X63.094 Y61.766 E51.60635
G1 X62.354 Y62.312 E51.71671
G1 X61.616 Y62.84 E51.8256
G1 X60.871 Y63.351 E51.93401
G1 X60.117 Y63.851 E52.04257
G1 X59.322 Y64.357 E52.15566
G1 X58.812 Y64.728 E52.23134
G1 X58.344 Y65.181 E52.3095
G1 X57.943 Y65.698 E52.38801
G1 X57.621 Y66.266 E52.46636
G1 X57.383 Y66.872 E52.54449
G1 X57.23 Y67.508 E52.62299
G1 X57.173 Y68.147 E52.69997
G1 X57.202 Y68.798 E52.77817
G1 X57.221 Y68.896 E52.79015
G1 X54.625 Y69.841 E53.12167
G1 X54.21 Y69.992 E53.1684
G1 X53.7 Y70.178 E53.21788
G1 X53.26 Y70.338 E53.26728
G1 X48.039 Y72.241 E53.93412
G1 X47.634 Y72.388 E53.97984
G1 X47.123 Y72.575 E54.02988
G1 X46.696 Y72.73 E54.07801
G1 X44.359 Y73.583 E54.37655
G1 X44.172 Y73.651 E54.40043
G1 X44.104 Y73.464 E54.41583
G1 X42.19 Y68.202 E55.08775
G1 X44.726 Y67.279 E55.4116
G1 X45.118 Y67.137 E55.45607
G1 X45.629 Y66.951 E55.50663
G1 X46.044 Y66.8 E55.55363
G1 X51.303 Y64.886 E56.2252
G1 X51.696 Y64.743 E56.26983
G1 X52.206 Y64.557 E56.32037
G1 X52.616 Y64.408 E56.36686
G1 X55.609 Y63.318 E56.7491
G1 X56.669 Y62.745 E56.89369
G1 X57.52 Y62.235 E57.01274
G1 X58.367 Y61.705 E57.13264
G1 X59.201 Y61.157 E57.25239
G1 X60.025 Y60.594 E57.37215
G1 X60.837 Y60.014 E57.4919
G1 X61.638 Y59.416 E57.61185
G1 X62.426 Y58.801 E57.7318
G1 X63.2 Y58.173 E57.8514
G1 X63.997 Y57.499 E57.97666
G0 F3600 X64.067 Y57.569
G0 X69.047 Y51.884
G0 X69.909 Y51.204
G0 X70.919 Y50.942
G0 X72.08 Y51.063
G0 X72.043 Y51.155
G1 F1800 X71.518 Y51.009 E58.04205
G1 X70.975 Y50.973 E58.10735
G1 X70.437 Y51.051 E58.17259
G1 X69.926 Y51.239 E58.23793
G1 X69.596 Y51.448 E58.2848
G1 X69.466 Y51.53 E58.30215
G1 X69.077 Y51.909 E58.35554
G1 X68.774 Y52.362 E58.40912
G1 X68.725 Y52.485 E58.42416
G1 X68.572 Y52.868 E58.47365
G1 X68.481 Y53.404 E58.53889
G1 X68.502 Y53.948 E58.60422
G1 X68.636 Y54.476 E58.66959
G1 X68.877 Y54.962 E58.73469
G1 X69.214 Y55.389 E58.79996
G1 X69.632 Y55.738 E58.86531
G1 X70.114 Y55.992 E58.93069
G1 X70.638 Y56.138 E58.99596
G1 X71.181 Y56.174 E59.06127
G1 X71.719 Y56.096 E59.1265
G1 X72.23 Y55.908 E59.19184
G1 X72.561 Y55.699 E59.23882
G1 X72.69 Y55.618 E59.25601
G1 X73.079 Y55.238 E59.30943
G1 X73.382 Y54.786 E59.36295
G1 X73.431 Y54.663 E59.378
G1 X73.583 Y54.279 E59.42756
G1 X73.675 Y53.743 E59.49282
G1 X73.653 Y53.199 E59.55815
G1 X73.52 Y52.674 E59.62314
G1 X73.279 Y52.185 E59.68856
G1 X72.942 Y51.757 E59.75393
G1 X72.524 Y51.41 E59.81912
G1 X72.043 Y51.155 E59.88445
G0 F3600 X71.894 Y51.529
;TYPE:WALL-OUTER
G1 F1800 X71.45 Y51.405 E59.93977
G1 X70.991 Y51.375 E59.99497
G1 X70.536 Y51.441 E60.05014
G1 X70.104 Y51.6 E60.10538
G1 X69.715 Y51.846 E60.16061
G1 X69.386 Y52.166 E60.21568
G1 X69.13 Y52.549 E60.27097
G1 X68.959 Y52.977 E60.32627
G1 X68.882 Y53.43 E60.38141
G1 X68.9 Y53.89 E60.43665
G1 X69.013 Y54.336 E60.49187
G1 X69.217 Y54.747 E60.54693
G1 X69.502 Y55.109 E60.60221
G1 X69.856 Y55.404 E60.65751
G1 X70.263 Y55.618 E60.71269
G1 X70.706 Y55.742 E60.76789
G1 X71.165 Y55.772 E60.82309
G1 X71.62 Y55.706 E60.87826
G1 X72.052 Y55.547 E60.9335
G1 X72.441 Y55.302 E60.98867
G1 X72.77 Y54.981 E61.04383
G1 X73.026 Y54.599 E61.09901
G1 X73.196 Y54.17 E61.15438
G1 X73.274 Y53.717 E61.20954
G1 X73.255 Y53.257 E61.26479
G1 X73.143 Y52.813 E61.31974
G1 X72.939 Y52.4 E61.37502
G1 X72.654 Y52.038 E61.4303
G1 X72.3 Y51.744 E61.48552
G1 X71.894 Y51.529 E61.54065
G0 F3600 X71.701 Y51.476
G0 X71.835 Y50.994
G0 X70.974 Y50.934
G0 X69.909 Y51.204
G0 X64.094 Y57.537
G0 X63.713 Y57.216
G1 F1800 X73.242 Y45.861 E63.31948
G1 X78.145 Y49.975 E64.08752
G1 X78.298 Y50.103 E64.11146
G1 X78.17 Y50.256 E64.12692
G1 X68.895 Y61.31 E65.85848
G1 X68.551 Y61.102 E65.90672
G1 X68.002 Y60.869 E65.97829
G1 X67.427 Y60.717 E66.04966
G1 X66.835 Y60.647 E66.12119
G1 X66.239 Y60.66 E66.19273
G1 X65.651 Y60.758 E66.26426
G1 X65.085 Y60.94 E66.33561
G1 X64.548 Y61.199 E66.40715
G1 X64.059 Y61.529 E66.47794
G1 X63.331 Y62.087 E66.58801
G1 X62.592 Y62.634 E66.69835
G1 X61.842 Y63.17 E66.80897
G1 X61.097 Y63.681 E66.91738
G1 X60.332 Y64.188 E67.02751
G1 X59.547 Y64.688 E67.13919
G1 X59.07 Y65.035 E67.20997
G1 X58.643 Y65.449 E67.28134
G1 X58.277 Y65.92 E67.35292
G1 X57.983 Y66.439 E67.4245
G1 X57.765 Y66.992 E67.49583
G1 X57.626 Y67.573 E67.56752
G1 X57.574 Y68.156 E67.63776
G1 X57.6 Y68.751 E67.70923
G1 X57.679 Y69.155 E67.75862
G1 X44.12 Y74.096 E69.49037
G1 X43.933 Y74.164 E69.51425
G1 X43.865 Y73.977 E69.52965
G1 X41.677 Y67.963 E70.29761
G1 X55.445 Y62.952 E72.0558
G1 X56.471 Y62.397 E72.19578
G1 X57.311 Y61.894 E72.31327
G1 X58.151 Y61.368 E72.4322
G1 X58.978 Y60.825 E72.55092
G1 X59.796 Y60.266 E72.66981
G1 X60.601 Y59.691 E72.78852
G1 X61.395 Y59.098 E72.90744
G1 X62.177 Y58.488 E73.02645
G1 X62.945 Y57.865 E73.14512
G1 X63.713 Y57.216 E73.26578
G0 F3600 X63.841 Y57.063
G0 X64.223 Y57.384
G0 X54.985 Y69.06
G0 X54.122 Y69.74
G0 X53.162 Y69.994
G0 X52.003 Y69.896
G0 X52.137 Y69.415
G1 F1800 X52.581 Y69.539 E73.3211
G1 X53.04 Y69.569 E73.3763
G1 X53.496 Y69.503 E73.43159
G1 X53.927 Y69.344 E73.48672
G1 X54.317 Y69.098 E73.54205
G1 X54.646 Y68.778 E73.59712
G1 X54.902 Y68.395 E73.65241
G1 X55.072 Y67.967 E73.70767
G1 X55.15 Y67.514 E73.76283
G1 X55.131 Y67.054 E73.81808
G1 X55.018 Y66.609 E73.87317
G1 X54.815 Y66.196 E73.92839
G1 X54.529 Y65.835 E73.98366
G1 X54.176 Y65.54 E74.03887
G1 X53.769 Y65.326 E74.09405
G1 X53.326 Y65.202 E74.14925
G1 X52.867 Y65.172 E74.20445
G1 X52.412 Y65.238 E74.25962
G1 X51.98 Y65.397 E74.31486
G1 X51.59 Y65.642 E74.37013
G1 X51.262 Y65.963 E74.4252
G1 X51.006 Y66.345 E74.48038
G1 X50.835 Y66.774 E74.5358
G1 X50.758 Y67.227 E74.59094
G1 X50.776 Y67.687 E74.64618
G1 X50.889 Y68.132 E74.70128
G1 X51.093 Y68.544 E74.75645
G1 X51.378 Y68.906 E74.81173
G1 X51.731 Y69.2 E74.86686
G1 X52.137 Y69.415 E74.92199
G0 F3600 X52.33 Y69.468
G0 X52.196 Y69.95
G0 X47.354 Y67.309
G0 X46.272 Y67.125
G0 X44.664 Y67.679
G0 X45.012 Y68.036
G1 F1800 X44.684 Y68.357 E74.97706
G1 X44.428 Y68.739 E75.03224
G1 X44.257 Y69.168 E75.08766
G1 X44.18 Y69.621 E75.1428
G1 X44.198 Y70.081 E75.19804
G1 X44.311 Y70.526 E75.25314
G1 X44.515 Y70.938 E75.30831
G1 X44.8 Y71.3 E75.3636
G1 X45.153 Y71.595 E75.4188
G1 X45.561 Y71.809 E75.47409
G1 X46.004 Y71.933 E75.52929
G1 X46.463 Y71.963 E75.58449
G1 X46.918 Y71.897 E75.63966
G1 X47.35 Y71.738 E75.6949
G1 X47.739 Y71.492 E75.75013
G1 X48.068 Y71.172 E75.8052
G1 X48.324 Y70.789 E75.86049
G1 X48.494 Y70.361 E75.91575
G1 X48.572 Y69.908 E75.97091
G1 X48.553 Y69.448 E76.02616
G1 X48.44 Y69.002 E76.08137
G1 X48.237 Y68.591 E76.13637
G1 X47.951 Y68.229 E76.19174
G1 X47.598 Y67.934 E76.24694
G1 X47.191 Y67.72 E76.30212
G1 X46.748 Y67.596 E76.35732
